{
  "compressionlevel": -1,
  "width": 44,
  "height": 32,
  "infinite": false,
  "orientation": "isometric",
  "renderorder": "right-down",
  "tilewidth": 64,
  "tileheight": 32,
  "type": "map",
  "version": "1.10",
  "tiledversion": "1.10.2",
  "nextlayerid": 9,
  "nextobjectid": 160,
  "properties": [
    {
      "name": "description",
      "type": "string",
      "value": "Hermes Office Floor 1 - 44x32 Dimetric 2:1"
    },
    {
      "name": "production_pipeline",
      "type": "string",
      "value": "Dev Pods -> QA Station -> Release Dock -> Data Center"
    },
    {
      "name": "zones_count",
      "type": "int",
      "value": 17
    },
    {
      "name": "slots_count",
      "type": "int",
      "value": 116
    },
    {
      "name": "doors_count",
      "type": "int",
      "value": 26
    }
  ],
  "tilesets": [
    {
      "firstgid": 1,
      "name": "environment",
      "tilewidth": 64,
      "tileheight": 64,
      "tilecount": 123,
      "columns": 1,
      "image": "../sprites/environment.png",
      "imagewidth": 2040,
      "imageheight": 2040,
      "margin": 0,
      "spacing": 0,
      "tiles": [
        {
          "id": 0,
          "type": "furniture_achievement_board",
          "image": "furniture_achievement_board.png",
          "imagewidth": 64,
          "imageheight": 64,
          "properties": [
            {
              "name": "sprite",
              "type": "string",
              "value": "furniture_achievement_board.png"
            },
            {
              "name": "category",
              "type": "string",
              "value": "furniture"
            }
          ]
        },
        {
          "id": 1,
          "type": "furniture_alert_console",
          "image": "furniture_alert_console.png",
          "imagewidth": 64,
          "imageheight": 64,
          "properties": [
            {
              "name": "sprite",
              "type": "string",
              "value": "furniture_alert_console.png"
            },
            {
              "name": "category",
              "type": "string",
              "value": "furniture"
            }
          ]
        },
        {
          "id": 2,
          "type": "furniture_alert_console_night",
          "image": "furniture_alert_console_night.png",
          "imagewidth": 64,
          "imageheight": 64,
          "properties": [
            {
              "name": "sprite",
              "type": "string",
              "value": "furniture_alert_console_night.png"
            },
            {
              "name": "category",
              "type": "string",
              "value": "furniture"
            }
          ]
        },
        {
          "id": 3,
          "type": "furniture_arcade_cabinet",
          "image": "furniture_arcade_cabinet.png",
          "imagewidth": 64,
          "imageheight": 64,
          "properties": [
            {
              "name": "sprite",
              "type": "string",
              "value": "furniture_arcade_cabinet.png"
            },
            {
              "name": "category",
              "type": "string",
              "value": "furniture"
            }
          ]
        },
        {
          "id": 4,
          "type": "furniture_arcade_cabinet_night",
          "image": "furniture_arcade_cabinet_night.png",
          "imagewidth": 64,
          "imageheight": 64,
          "properties": [
            {
              "name": "sprite",
              "type": "string",
              "value": "furniture_arcade_cabinet_night.png"
            },
            {
              "name": "category",
              "type": "string",
              "value": "furniture"
            }
          ]
        },
        {
          "id": 5,
          "type": "furniture_attendance_board",
          "image": "furniture_attendance_board.png",
          "imagewidth": 64,
          "imageheight": 64,
          "properties": [
            {
              "name": "sprite",
              "type": "string",
              "value": "furniture_attendance_board.png"
            },
            {
              "name": "category",
              "type": "string",
              "value": "furniture"
            }
          ]
        },
        {
          "id": 6,
          "type": "furniture_beanbag",
          "image": "furniture_beanbag.png",
          "imagewidth": 64,
          "imageheight": 64,
          "properties": [
            {
              "name": "sprite",
              "type": "string",
              "value": "furniture_beanbag.png"
            },
            {
              "name": "category",
              "type": "string",
              "value": "furniture"
            }
          ]
        },
        {
          "id": 7,
          "type": "furniture_billiard_table",
          "image": "furniture_billiard_table.png",
          "imagewidth": 64,
          "imageheight": 64,
          "properties": [
            {
              "name": "sprite",
              "type": "string",
              "value": "furniture_billiard_table.png"
            },
            {
              "name": "category",
              "type": "string",
              "value": "furniture"
            }
          ]
        },
        {
          "id": 8,
          "type": "furniture_blueprint_rack",
          "image": "furniture_blueprint_rack.png",
          "imagewidth": 64,
          "imageheight": 64,
          "properties": [
            {
              "name": "sprite",
              "type": "string",
              "value": "furniture_blueprint_rack.png"
            },
            {
              "name": "category",
              "type": "string",
              "value": "furniture"
            }
          ]
        },
        {
          "id": 9,
          "type": "furniture_blueprint_table",
          "image": "furniture_blueprint_table.png",
          "imagewidth": 64,
          "imageheight": 64,
          "properties": [
            {
              "name": "sprite",
              "type": "string",
              "value": "furniture_blueprint_table.png"
            },
            {
              "name": "category",
              "type": "string",
              "value": "furniture"
            }
          ]
        },
        {
          "id": 10,
          "type": "furniture_boardroom_table",
          "image": "furniture_boardroom_table.png",
          "imagewidth": 64,
          "imageheight": 64,
          "properties": [
            {
              "name": "sprite",
              "type": "string",
              "value": "furniture_boardroom_table.png"
            },
            {
              "name": "category",
              "type": "string",
              "value": "furniture"
            }
          ]
        },
        {
          "id": 11,
          "type": "furniture_bookcase_low",
          "image": "furniture_bookcase_low.png",
          "imagewidth": 64,
          "imageheight": 64,
          "properties": [
            {
              "name": "sprite",
              "type": "string",
              "value": "furniture_bookcase_low.png"
            },
            {
              "name": "category",
              "type": "string",
              "value": "furniture"
            }
          ]
        },
        {
          "id": 12,
          "type": "furniture_bookcase_tall",
          "image": "furniture_bookcase_tall.png",
          "imagewidth": 64,
          "imageheight": 64,
          "properties": [
            {
              "name": "sprite",
              "type": "string",
              "value": "furniture_bookcase_tall.png"
            },
            {
              "name": "category",
              "type": "string",
              "value": "furniture"
            }
          ]
        },
        {
          "id": 13,
          "type": "furniture_cardboard_box",
          "image": "furniture_cardboard_box.png",
          "imagewidth": 64,
          "imageheight": 64,
          "properties": [
            {
              "name": "sprite",
              "type": "string",
              "value": "furniture_cardboard_box.png"
            },
            {
              "name": "category",
              "type": "string",
              "value": "furniture"
            }
          ]
        },
        {
          "id": 14,
          "type": "furniture_chair",
          "image": "furniture_chair.png",
          "imagewidth": 64,
          "imageheight": 64,
          "properties": [
            {
              "name": "sprite",
              "type": "string",
              "value": "furniture_chair.png"
            },
            {
              "name": "category",
              "type": "string",
              "value": "furniture"
            }
          ]
        },
        {
          "id": 15,
          "type": "furniture_chair_cushion",
          "image": "furniture_chair_cushion.png",
          "imagewidth": 64,
          "imageheight": 64,
          "properties": [
            {
              "name": "sprite",
              "type": "string",
              "value": "furniture_chair_cushion.png"
            },
            {
              "name": "category",
              "type": "string",
              "value": "furniture"
            }
          ]
        },
        {
          "id": 16,
          "type": "furniture_chair_rounded",
          "image": "furniture_chair_rounded.png",
          "imagewidth": 64,
          "imageheight": 64,
          "properties": [
            {
              "name": "sprite",
              "type": "string",
              "value": "furniture_chair_rounded.png"
            },
            {
              "name": "category",
              "type": "string",
              "value": "furniture"
            }
          ]
        },
        {
          "id": 17,
          "type": "furniture_changelog_board",
          "image": "furniture_changelog_board.png",
          "imagewidth": 64,
          "imageheight": 64,
          "properties": [
            {
              "name": "sprite",
              "type": "string",
              "value": "furniture_changelog_board.png"
            },
            {
              "name": "category",
              "type": "string",
              "value": "furniture"
            }
          ]
        },
        {
          "id": 18,
          "type": "furniture_conveyor",
          "image": "furniture_conveyor.png",
          "imagewidth": 64,
          "imageheight": 64,
          "properties": [
            {
              "name": "sprite",
              "type": "string",
              "value": "furniture_conveyor.png"
            },
            {
              "name": "category",
              "type": "string",
              "value": "furniture"
            }
          ]
        },
        {
          "id": 19,
          "type": "furniture_desk",
          "image": "furniture_desk.png",
          "imagewidth": 64,
          "imageheight": 64,
          "properties": [
            {
              "name": "sprite",
              "type": "string",
              "value": "furniture_desk.png"
            },
            {
              "name": "category",
              "type": "string",
              "value": "furniture"
            }
          ]
        },
        {
          "id": 20,
          "type": "furniture_desk_executive",
          "image": "furniture_desk_executive.png",
          "imagewidth": 64,
          "imageheight": 64,
          "properties": [
            {
              "name": "sprite",
              "type": "string",
              "value": "furniture_desk_executive.png"
            },
            {
              "name": "category",
              "type": "string",
              "value": "furniture"
            }
          ]
        },
        {
          "id": 21,
          "type": "furniture_drawing_desk_tablet",
          "image": "furniture_drawing_desk_tablet.png",
          "imagewidth": 64,
          "imageheight": 64,
          "properties": [
            {
              "name": "sprite",
              "type": "string",
              "value": "furniture_drawing_desk_tablet.png"
            },
            {
              "name": "category",
              "type": "string",
              "value": "furniture"
            }
          ]
        },
        {
          "id": 22,
          "type": "furniture_drawing_desk_tablet_night",
          "image": "furniture_drawing_desk_tablet_night.png",
          "imagewidth": 64,
          "imageheight": 64,
          "properties": [
            {
              "name": "sprite",
              "type": "string",
              "value": "furniture_drawing_desk_tablet_night.png"
            },
            {
              "name": "category",
              "type": "string",
              "value": "furniture"
            }
          ]
        },
        {
          "id": 23,
          "type": "furniture_entrance_door",
          "image": "furniture_entrance_door.png",
          "imagewidth": 64,
          "imageheight": 64,
          "properties": [
            {
              "name": "sprite",
              "type": "string",
              "value": "furniture_entrance_door.png"
            },
            {
              "name": "category",
              "type": "string",
              "value": "furniture"
            }
          ]
        },
        {
          "id": 24,
          "type": "furniture_espresso_machine",
          "image": "furniture_espresso_machine.png",
          "imagewidth": 64,
          "imageheight": 64,
          "properties": [
            {
              "name": "sprite",
              "type": "string",
              "value": "furniture_espresso_machine.png"
            },
            {
              "name": "category",
              "type": "string",
              "value": "furniture"
            }
          ]
        },
        {
          "id": 25,
          "type": "furniture_glass_partition",
          "image": "furniture_glass_partition.png",
          "imagewidth": 64,
          "imageheight": 64,
          "properties": [
            {
              "name": "sprite",
              "type": "string",
              "value": "furniture_glass_partition.png"
            },
            {
              "name": "category",
              "type": "string",
              "value": "furniture"
            }
          ]
        },
        {
          "id": 26,
          "type": "furniture_glass_partition_night",
          "image": "furniture_glass_partition_night.png",
          "imagewidth": 64,
          "imageheight": 64,
          "properties": [
            {
              "name": "sprite",
              "type": "string",
              "value": "furniture_glass_partition_night.png"
            },
            {
              "name": "category",
              "type": "string",
              "value": "furniture"
            }
          ]
        },
        {
          "id": 27,
          "type": "furniture_green_reading_lamp",
          "image": "furniture_green_reading_lamp.png",
          "imagewidth": 64,
          "imageheight": 64,
          "properties": [
            {
              "name": "sprite",
              "type": "string",
              "value": "furniture_green_reading_lamp.png"
            },
            {
              "name": "category",
              "type": "string",
              "value": "furniture"
            }
          ]
        },
        {
          "id": 28,
          "type": "furniture_green_reading_lamp_night",
          "image": "furniture_green_reading_lamp_night.png",
          "imagewidth": 64,
          "imageheight": 64,
          "properties": [
            {
              "name": "sprite",
              "type": "string",
              "value": "furniture_green_reading_lamp_night.png"
            },
            {
              "name": "category",
              "type": "string",
              "value": "furniture"
            }
          ]
        },
        {
          "id": 29,
          "type": "furniture_journal_shelf",
          "image": "furniture_journal_shelf.png",
          "imagewidth": 64,
          "imageheight": 64,
          "properties": [
            {
              "name": "sprite",
              "type": "string",
              "value": "furniture_journal_shelf.png"
            },
            {
              "name": "category",
              "type": "string",
              "value": "furniture"
            }
          ]
        },
        {
          "id": 30,
          "type": "furniture_kitchen_fridge",
          "image": "furniture_kitchen_fridge.png",
          "imagewidth": 64,
          "imageheight": 64,
          "properties": [
            {
              "name": "sprite",
              "type": "string",
              "value": "furniture_kitchen_fridge.png"
            },
            {
              "name": "category",
              "type": "string",
              "value": "furniture"
            }
          ]
        },
        {
          "id": 31,
          "type": "furniture_lab_bench",
          "image": "furniture_lab_bench.png",
          "imagewidth": 64,
          "imageheight": 64,
          "properties": [
            {
              "name": "sprite",
              "type": "string",
              "value": "furniture_lab_bench.png"
            },
            {
              "name": "category",
              "type": "string",
              "value": "furniture"
            }
          ]
        },
        {
          "id": 32,
          "type": "furniture_lamp_floor",
          "image": "furniture_lamp_floor.png",
          "imagewidth": 64,
          "imageheight": 64,
          "properties": [
            {
              "name": "sprite",
              "type": "string",
              "value": "furniture_lamp_floor.png"
            },
            {
              "name": "category",
              "type": "string",
              "value": "furniture"
            }
          ]
        },
        {
          "id": 33,
          "type": "furniture_lamp_floor_night",
          "image": "furniture_lamp_floor_night.png",
          "imagewidth": 64,
          "imageheight": 64,
          "properties": [
            {
              "name": "sprite",
              "type": "string",
              "value": "furniture_lamp_floor_night.png"
            },
            {
              "name": "category",
              "type": "string",
              "value": "furniture"
            }
          ]
        },
        {
          "id": 34,
          "type": "furniture_lamp_pass_fail",
          "image": "furniture_lamp_pass_fail.png",
          "imagewidth": 64,
          "imageheight": 64,
          "properties": [
            {
              "name": "sprite",
              "type": "string",
              "value": "furniture_lamp_pass_fail.png"
            },
            {
              "name": "category",
              "type": "string",
              "value": "furniture"
            }
          ]
        },
        {
          "id": 35,
          "type": "furniture_lamp_pass_fail_night",
          "image": "furniture_lamp_pass_fail_night.png",
          "imagewidth": 64,
          "imageheight": 64,
          "properties": [
            {
              "name": "sprite",
              "type": "string",
              "value": "furniture_lamp_pass_fail_night.png"
            },
            {
              "name": "category",
              "type": "string",
              "value": "furniture"
            }
          ]
        },
        {
          "id": 36,
          "type": "furniture_large_monitor_preview",
          "image": "furniture_large_monitor_preview.png",
          "imagewidth": 64,
          "imageheight": 64,
          "properties": [
            {
              "name": "sprite",
              "type": "string",
              "value": "furniture_large_monitor_preview.png"
            },
            {
              "name": "category",
              "type": "string",
              "value": "furniture"
            }
          ]
        },
        {
          "id": 37,
          "type": "furniture_large_monitor_preview_night",
          "image": "furniture_large_monitor_preview_night.png",
          "imagewidth": 64,
          "imageheight": 64,
          "properties": [
            {
              "name": "sprite",
              "type": "string",
              "value": "furniture_large_monitor_preview_night.png"
            },
            {
              "name": "category",
              "type": "string",
              "value": "furniture"
            }
          ]
        },
        {
          "id": 38,
          "type": "furniture_lounge_chair",
          "image": "furniture_lounge_chair.png",
          "imagewidth": 64,
          "imageheight": 64,
          "properties": [
            {
              "name": "sprite",
              "type": "string",
              "value": "furniture_lounge_chair.png"
            },
            {
              "name": "category",
              "type": "string",
              "value": "furniture"
            }
          ]
        },
        {
          "id": 39,
          "type": "furniture_lounge_sofa",
          "image": "furniture_lounge_sofa.png",
          "imagewidth": 64,
          "imageheight": 64,
          "properties": [
            {
              "name": "sprite",
              "type": "string",
              "value": "furniture_lounge_sofa.png"
            },
            {
              "name": "category",
              "type": "string",
              "value": "furniture"
            }
          ]
        },
        {
          "id": 40,
          "type": "furniture_lounge_sofa_corner",
          "image": "furniture_lounge_sofa_corner.png",
          "imagewidth": 64,
          "imageheight": 64,
          "properties": [
            {
              "name": "sprite",
              "type": "string",
              "value": "furniture_lounge_sofa_corner.png"
            },
            {
              "name": "category",
              "type": "string",
              "value": "furniture"
            }
          ]
        },
        {
          "id": 41,
          "type": "furniture_marble_counter",
          "image": "furniture_marble_counter.png",
          "imagewidth": 64,
          "imageheight": 64,
          "properties": [
            {
              "name": "sprite",
              "type": "string",
              "value": "furniture_marble_counter.png"
            },
            {
              "name": "category",
              "type": "string",
              "value": "furniture"
            }
          ]
        },
        {
          "id": 42,
          "type": "furniture_microscope",
          "image": "furniture_microscope.png",
          "imagewidth": 64,
          "imageheight": 64,
          "properties": [
            {
              "name": "sprite",
              "type": "string",
              "value": "furniture_microscope.png"
            },
            {
              "name": "category",
              "type": "string",
              "value": "furniture"
            }
          ]
        },
        {
          "id": 43,
          "type": "furniture_mihrab",
          "image": "furniture_mihrab.png",
          "imagewidth": 64,
          "imageheight": 64,
          "properties": [
            {
              "name": "sprite",
              "type": "string",
              "value": "furniture_mihrab.png"
            },
            {
              "name": "category",
              "type": "string",
              "value": "furniture"
            }
          ]
        },
        {
          "id": 44,
          "type": "furniture_moodboard",
          "image": "furniture_moodboard.png",
          "imagewidth": 64,
          "imageheight": 64,
          "properties": [
            {
              "name": "sprite",
              "type": "string",
              "value": "furniture_moodboard.png"
            },
            {
              "name": "category",
              "type": "string",
              "value": "furniture"
            }
          ]
        },
        {
          "id": 45,
          "type": "furniture_neon_sign",
          "image": "furniture_neon_sign.png",
          "imagewidth": 64,
          "imageheight": 64,
          "properties": [
            {
              "name": "sprite",
              "type": "string",
              "value": "furniture_neon_sign.png"
            },
            {
              "name": "category",
              "type": "string",
              "value": "furniture"
            }
          ]
        },
        {
          "id": 46,
          "type": "furniture_neon_sign_night",
          "image": "furniture_neon_sign_night.png",
          "imagewidth": 64,
          "imageheight": 64,
          "properties": [
            {
              "name": "sprite",
              "type": "string",
              "value": "furniture_neon_sign_night.png"
            },
            {
              "name": "category",
              "type": "string",
              "value": "furniture"
            }
          ]
        },
        {
          "id": 47,
          "type": "furniture_pair_standing_desk",
          "image": "furniture_pair_standing_desk.png",
          "imagewidth": 64,
          "imageheight": 64,
          "properties": [
            {
              "name": "sprite",
              "type": "string",
              "value": "furniture_pair_standing_desk.png"
            },
            {
              "name": "category",
              "type": "string",
              "value": "furniture"
            }
          ]
        },
        {
          "id": 48,
          "type": "furniture_parcel_rack",
          "image": "furniture_parcel_rack.png",
          "imagewidth": 64,
          "imageheight": 64,
          "properties": [
            {
              "name": "sprite",
              "type": "string",
              "value": "furniture_parcel_rack.png"
            },
            {
              "name": "category",
              "type": "string",
              "value": "furniture"
            }
          ]
        },
        {
          "id": 49,
          "type": "furniture_plant_small",
          "image": "furniture_plant_small.png",
          "imagewidth": 64,
          "imageheight": 64,
          "properties": [
            {
              "name": "sprite",
              "type": "string",
              "value": "furniture_plant_small.png"
            },
            {
              "name": "category",
              "type": "string",
              "value": "furniture"
            }
          ]
        },
        {
          "id": 50,
          "type": "furniture_pool_basin",
          "image": "furniture_pool_basin.png",
          "imagewidth": 64,
          "imageheight": 64,
          "properties": [
            {
              "name": "sprite",
              "type": "string",
              "value": "furniture_pool_basin.png"
            },
            {
              "name": "category",
              "type": "string",
              "value": "furniture"
            }
          ]
        },
        {
          "id": 51,
          "type": "furniture_pool_coping",
          "image": "furniture_pool_coping.png",
          "imagewidth": 64,
          "imageheight": 64,
          "properties": [
            {
              "name": "sprite",
              "type": "string",
              "value": "furniture_pool_coping.png"
            },
            {
              "name": "category",
              "type": "string",
              "value": "furniture"
            }
          ]
        },
        {
          "id": 52,
          "type": "furniture_pool_lounger",
          "image": "furniture_pool_lounger.png",
          "imagewidth": 64,
          "imageheight": 64,
          "properties": [
            {
              "name": "sprite",
              "type": "string",
              "value": "furniture_pool_lounger.png"
            },
            {
              "name": "category",
              "type": "string",
              "value": "furniture"
            }
          ]
        },
        {
          "id": 53,
          "type": "furniture_pool_umbrella",
          "image": "furniture_pool_umbrella.png",
          "imagewidth": 64,
          "imageheight": 64,
          "properties": [
            {
              "name": "sprite",
              "type": "string",
              "value": "furniture_pool_umbrella.png"
            },
            {
              "name": "category",
              "type": "string",
              "value": "furniture"
            }
          ]
        },
        {
          "id": 54,
          "type": "furniture_pool_water",
          "image": "furniture_pool_water.png",
          "imagewidth": 64,
          "imageheight": 64,
          "properties": [
            {
              "name": "sprite",
              "type": "string",
              "value": "furniture_pool_water.png"
            },
            {
              "name": "category",
              "type": "string",
              "value": "furniture"
            }
          ]
        },
        {
          "id": 55,
          "type": "furniture_potted_plant",
          "image": "furniture_potted_plant.png",
          "imagewidth": 64,
          "imageheight": 64,
          "properties": [
            {
              "name": "sprite",
              "type": "string",
              "value": "furniture_potted_plant.png"
            },
            {
              "name": "category",
              "type": "string",
              "value": "furniture"
            }
          ]
        },
        {
          "id": 56,
          "type": "furniture_prayer_rug_shaf",
          "image": "furniture_prayer_rug_shaf.png",
          "imagewidth": 64,
          "imageheight": 64,
          "properties": [
            {
              "name": "sprite",
              "type": "string",
              "value": "furniture_prayer_rug_shaf.png"
            },
            {
              "name": "category",
              "type": "string",
              "value": "furniture"
            }
          ]
        },
        {
          "id": 57,
          "type": "furniture_presentation_screen",
          "image": "furniture_presentation_screen.png",
          "imagewidth": 64,
          "imageheight": 64,
          "properties": [
            {
              "name": "sprite",
              "type": "string",
              "value": "furniture_presentation_screen.png"
            },
            {
              "name": "category",
              "type": "string",
              "value": "furniture"
            }
          ]
        },
        {
          "id": 58,
          "type": "furniture_presentation_screen_night",
          "image": "furniture_presentation_screen_night.png",
          "imagewidth": 64,
          "imageheight": 64,
          "properties": [
            {
              "name": "sprite",
              "type": "string",
              "value": "furniture_presentation_screen_night.png"
            },
            {
              "name": "category",
              "type": "string",
              "value": "furniture"
            }
          ]
        },
        {
          "id": 59,
          "type": "furniture_printing_press",
          "image": "furniture_printing_press.png",
          "imagewidth": 64,
          "imageheight": 64,
          "properties": [
            {
              "name": "sprite",
              "type": "string",
              "value": "furniture_printing_press.png"
            },
            {
              "name": "category",
              "type": "string",
              "value": "furniture"
            }
          ]
        },
        {
          "id": 60,
          "type": "furniture_qa_screens",
          "image": "furniture_qa_screens.png",
          "imagewidth": 64,
          "imageheight": 64,
          "properties": [
            {
              "name": "sprite",
              "type": "string",
              "value": "furniture_qa_screens.png"
            },
            {
              "name": "category",
              "type": "string",
              "value": "furniture"
            }
          ]
        },
        {
          "id": 61,
          "type": "furniture_qa_screens_night",
          "image": "furniture_qa_screens_night.png",
          "imagewidth": 64,
          "imageheight": 64,
          "properties": [
            {
              "name": "sprite",
              "type": "string",
              "value": "furniture_qa_screens_night.png"
            },
            {
              "name": "category",
              "type": "string",
              "value": "furniture"
            }
          ]
        },
        {
          "id": 62,
          "type": "furniture_quran_shelf",
          "image": "furniture_quran_shelf.png",
          "imagewidth": 64,
          "imageheight": 64,
          "properties": [
            {
              "name": "sprite",
              "type": "string",
              "value": "furniture_quran_shelf.png"
            },
            {
              "name": "category",
              "type": "string",
              "value": "furniture"
            }
          ]
        },
        {
          "id": 63,
          "type": "furniture_reception_desk",
          "image": "furniture_reception_desk.png",
          "imagewidth": 64,
          "imageheight": 64,
          "properties": [
            {
              "name": "sprite",
              "type": "string",
              "value": "furniture_reception_desk.png"
            },
            {
              "name": "category",
              "type": "string",
              "value": "furniture"
            }
          ]
        },
        {
          "id": 64,
          "type": "furniture_screen",
          "image": "furniture_screen.png",
          "imagewidth": 64,
          "imageheight": 64,
          "properties": [
            {
              "name": "sprite",
              "type": "string",
              "value": "furniture_screen.png"
            },
            {
              "name": "category",
              "type": "string",
              "value": "furniture"
            }
          ]
        },
        {
          "id": 65,
          "type": "furniture_screen_night",
          "image": "furniture_screen_night.png",
          "imagewidth": 64,
          "imageheight": 64,
          "properties": [
            {
              "name": "sprite",
              "type": "string",
              "value": "furniture_screen_night.png"
            },
            {
              "name": "category",
              "type": "string",
              "value": "furniture"
            }
          ]
        },
        {
          "id": 66,
          "type": "furniture_server_rack",
          "image": "furniture_server_rack.png",
          "imagewidth": 64,
          "imageheight": 64,
          "properties": [
            {
              "name": "sprite",
              "type": "string",
              "value": "furniture_server_rack.png"
            },
            {
              "name": "category",
              "type": "string",
              "value": "furniture"
            }
          ]
        },
        {
          "id": 67,
          "type": "furniture_server_rack_night",
          "image": "furniture_server_rack_night.png",
          "imagewidth": 64,
          "imageheight": 64,
          "properties": [
            {
              "name": "sprite",
              "type": "string",
              "value": "furniture_server_rack_night.png"
            },
            {
              "name": "category",
              "type": "string",
              "value": "furniture"
            }
          ]
        },
        {
          "id": 68,
          "type": "furniture_shaf_partition",
          "image": "furniture_shaf_partition.png",
          "imagewidth": 64,
          "imageheight": 64,
          "properties": [
            {
              "name": "sprite",
              "type": "string",
              "value": "furniture_shaf_partition.png"
            },
            {
              "name": "category",
              "type": "string",
              "value": "furniture"
            }
          ]
        },
        {
          "id": 69,
          "type": "furniture_soc_map_wall",
          "image": "furniture_soc_map_wall.png",
          "imagewidth": 64,
          "imageheight": 64,
          "properties": [
            {
              "name": "sprite",
              "type": "string",
              "value": "furniture_soc_map_wall.png"
            },
            {
              "name": "category",
              "type": "string",
              "value": "furniture"
            }
          ]
        },
        {
          "id": 70,
          "type": "furniture_soc_map_wall_night",
          "image": "furniture_soc_map_wall_night.png",
          "imagewidth": 64,
          "imageheight": 64,
          "properties": [
            {
              "name": "sprite",
              "type": "string",
              "value": "furniture_soc_map_wall_night.png"
            },
            {
              "name": "category",
              "type": "string",
              "value": "furniture"
            }
          ]
        },
        {
          "id": 71,
          "type": "furniture_sofa_leather",
          "image": "furniture_sofa_leather.png",
          "imagewidth": 64,
          "imageheight": 64,
          "properties": [
            {
              "name": "sprite",
              "type": "string",
              "value": "furniture_sofa_leather.png"
            },
            {
              "name": "category",
              "type": "string",
              "value": "furniture"
            }
          ]
        },
        {
          "id": 72,
          "type": "furniture_spare_tiles_pile",
          "image": "furniture_spare_tiles_pile.png",
          "imagewidth": 64,
          "imageheight": 64,
          "properties": [
            {
              "name": "sprite",
              "type": "string",
              "value": "furniture_spare_tiles_pile.png"
            },
            {
              "name": "category",
              "type": "string",
              "value": "furniture"
            }
          ]
        },
        {
          "id": 73,
          "type": "furniture_stamp_desk",
          "image": "furniture_stamp_desk.png",
          "imagewidth": 64,
          "imageheight": 64,
          "properties": [
            {
              "name": "sprite",
              "type": "string",
              "value": "furniture_stamp_desk.png"
            },
            {
              "name": "category",
              "type": "string",
              "value": "furniture"
            }
          ]
        },
        {
          "id": 74,
          "type": "furniture_swatch_wall",
          "image": "furniture_swatch_wall.png",
          "imagewidth": 64,
          "imageheight": 64,
          "properties": [
            {
              "name": "sprite",
              "type": "string",
              "value": "furniture_swatch_wall.png"
            },
            {
              "name": "category",
              "type": "string",
              "value": "furniture"
            }
          ]
        },
        {
          "id": 75,
          "type": "furniture_system_model_mini",
          "image": "furniture_system_model_mini.png",
          "imagewidth": 64,
          "imageheight": 64,
          "properties": [
            {
              "name": "sprite",
              "type": "string",
              "value": "furniture_system_model_mini.png"
            },
            {
              "name": "category",
              "type": "string",
              "value": "furniture"
            }
          ]
        },
        {
          "id": 76,
          "type": "furniture_table_coffee",
          "image": "furniture_table_coffee.png",
          "imagewidth": 64,
          "imageheight": 64,
          "properties": [
            {
              "name": "sprite",
              "type": "string",
              "value": "furniture_table_coffee.png"
            },
            {
              "name": "category",
              "type": "string",
              "value": "furniture"
            }
          ]
        },
        {
          "id": 77,
          "type": "furniture_table_round",
          "image": "furniture_table_round.png",
          "imagewidth": 64,
          "imageheight": 64,
          "properties": [
            {
              "name": "sprite",
              "type": "string",
              "value": "furniture_table_round.png"
            },
            {
              "name": "category",
              "type": "string",
              "value": "furniture"
            }
          ]
        },
        {
          "id": 78,
          "type": "furniture_test_tube_rack",
          "image": "furniture_test_tube_rack.png",
          "imagewidth": 64,
          "imageheight": 64,
          "properties": [
            {
              "name": "sprite",
              "type": "string",
              "value": "furniture_test_tube_rack.png"
            },
            {
              "name": "category",
              "type": "string",
              "value": "furniture"
            }
          ]
        },
        {
          "id": 79,
          "type": "furniture_trashcan",
          "image": "furniture_trashcan.png",
          "imagewidth": 64,
          "imageheight": 64,
          "properties": [
            {
              "name": "sprite",
              "type": "string",
              "value": "furniture_trashcan.png"
            },
            {
              "name": "category",
              "type": "string",
              "value": "furniture"
            }
          ]
        },
        {
          "id": 80,
          "type": "furniture_trophy_shelf",
          "image": "furniture_trophy_shelf.png",
          "imagewidth": 64,
          "imageheight": 64,
          "properties": [
            {
              "name": "sprite",
              "type": "string",
              "value": "furniture_trophy_shelf.png"
            },
            {
              "name": "category",
              "type": "string",
              "value": "furniture"
            }
          ]
        },
        {
          "id": 81,
          "type": "furniture_tropical_plant",
          "image": "furniture_tropical_plant.png",
          "imagewidth": 64,
          "imageheight": 64,
          "properties": [
            {
              "name": "sprite",
              "type": "string",
              "value": "furniture_tropical_plant.png"
            },
            {
              "name": "category",
              "type": "string",
              "value": "furniture"
            }
          ]
        },
        {
          "id": 82,
          "type": "furniture_wall_monitors_ceo",
          "image": "furniture_wall_monitors_ceo.png",
          "imagewidth": 64,
          "imageheight": 64,
          "properties": [
            {
              "name": "sprite",
              "type": "string",
              "value": "furniture_wall_monitors_ceo.png"
            },
            {
              "name": "category",
              "type": "string",
              "value": "furniture"
            }
          ]
        },
        {
          "id": 83,
          "type": "furniture_wall_monitors_ceo_night",
          "image": "furniture_wall_monitors_ceo_night.png",
          "imagewidth": 64,
          "imageheight": 64,
          "properties": [
            {
              "name": "sprite",
              "type": "string",
              "value": "furniture_wall_monitors_ceo_night.png"
            },
            {
              "name": "category",
              "type": "string",
              "value": "furniture"
            }
          ]
        },
        {
          "id": 84,
          "type": "furniture_whiteboard",
          "image": "furniture_whiteboard.png",
          "imagewidth": 64,
          "imageheight": 64,
          "properties": [
            {
              "name": "sprite",
              "type": "string",
              "value": "furniture_whiteboard.png"
            },
            {
              "name": "category",
              "type": "string",
              "value": "furniture"
            }
          ]
        },
        {
          "id": 85,
          "type": "furniture_whiteboard_formula",
          "image": "furniture_whiteboard_formula.png",
          "imagewidth": 64,
          "imageheight": 64,
          "properties": [
            {
              "name": "sprite",
              "type": "string",
              "value": "furniture_whiteboard_formula.png"
            },
            {
              "name": "category",
              "type": "string",
              "value": "furniture"
            }
          ]
        },
        {
          "id": 86,
          "type": "furniture_workstation_dev",
          "image": "furniture_workstation_dev.png",
          "imagewidth": 64,
          "imageheight": 64,
          "properties": [
            {
              "name": "sprite",
              "type": "string",
              "value": "furniture_workstation_dev.png"
            },
            {
              "name": "category",
              "type": "string",
              "value": "furniture"
            }
          ]
        },
        {
          "id": 87,
          "type": "furniture_workstation_dev_night",
          "image": "furniture_workstation_dev_night.png",
          "imagewidth": 64,
          "imageheight": 64,
          "properties": [
            {
              "name": "sprite",
              "type": "string",
              "value": "furniture_workstation_dev_night.png"
            },
            {
              "name": "category",
              "type": "string",
              "value": "furniture"
            }
          ]
        },
        {
          "id": 88,
          "type": "furniture_workstation_guest",
          "image": "furniture_workstation_guest.png",
          "imagewidth": 64,
          "imageheight": 64,
          "properties": [
            {
              "name": "sprite",
              "type": "string",
              "value": "furniture_workstation_guest.png"
            },
            {
              "name": "category",
              "type": "string",
              "value": "furniture"
            }
          ]
        },
        {
          "id": 89,
          "type": "furniture_workstation_guest_night",
          "image": "furniture_workstation_guest_night.png",
          "imagewidth": 64,
          "imageheight": 64,
          "properties": [
            {
              "name": "sprite",
              "type": "string",
              "value": "furniture_workstation_guest_night.png"
            },
            {
              "name": "category",
              "type": "string",
              "value": "furniture"
            }
          ]
        },
        {
          "id": 90,
          "type": "furniture_wudhu_station",
          "image": "furniture_wudhu_station.png",
          "imagewidth": 64,
          "imageheight": 64,
          "properties": [
            {
              "name": "sprite",
              "type": "string",
              "value": "furniture_wudhu_station.png"
            },
            {
              "name": "category",
              "type": "string",
              "value": "furniture"
            }
          ]
        },
        {
          "id": 91,
          "type": "tile_floor_corridor",
          "image": "tile_floor_corridor.png",
          "imagewidth": 64,
          "imageheight": 64,
          "properties": [
            {
              "name": "sprite",
              "type": "string",
              "value": "tile_floor_corridor.png"
            },
            {
              "name": "category",
              "type": "string",
              "value": "tile"
            }
          ]
        },
        {
          "id": 92,
          "type": "tile_floor_night_corridor",
          "image": "tile_floor_night_corridor.png",
          "imagewidth": 64,
          "imageheight": 64,
          "properties": [
            {
              "name": "sprite",
              "type": "string",
              "value": "tile_floor_night_corridor.png"
            },
            {
              "name": "category",
              "type": "string",
              "value": "tile"
            }
          ]
        },
        {
          "id": 93,
          "type": "tile_floor_night_datacenter",
          "image": "tile_floor_night_datacenter.png",
          "imagewidth": 64,
          "imageheight": 64,
          "properties": [
            {
              "name": "sprite",
              "type": "string",
              "value": "tile_floor_night_datacenter.png"
            },
            {
              "name": "category",
              "type": "string",
              "value": "tile"
            }
          ]
        },
        {
          "id": 94,
          "type": "tile_floor_pool_water",
          "image": "tile_floor_pool_water.png",
          "imagewidth": 64,
          "imageheight": 64,
          "properties": [
            {
              "name": "sprite",
              "type": "string",
              "value": "tile_floor_pool_water.png"
            },
            {
              "name": "category",
              "type": "string",
              "value": "tile"
            }
          ]
        },
        {
          "id": 95,
          "type": "tile_floor_z01_ceo",
          "image": "tile_floor_z01_ceo.png",
          "imagewidth": 64,
          "imageheight": 64,
          "properties": [
            {
              "name": "sprite",
              "type": "string",
              "value": "tile_floor_z01_ceo.png"
            },
            {
              "name": "category",
              "type": "string",
              "value": "tile"
            }
          ]
        },
        {
          "id": 96,
          "type": "tile_floor_z02_boardroom",
          "image": "tile_floor_z02_boardroom.png",
          "imagewidth": 64,
          "imageheight": 64,
          "properties": [
            {
              "name": "sprite",
              "type": "string",
              "value": "tile_floor_z02_boardroom.png"
            },
            {
              "name": "category",
              "type": "string",
              "value": "tile"
            }
          ]
        },
        {
          "id": 97,
          "type": "tile_floor_z03_architecture",
          "image": "tile_floor_z03_architecture.png",
          "imagewidth": 64,
          "imageheight": 64,
          "properties": [
            {
              "name": "sprite",
              "type": "string",
              "value": "tile_floor_z03_architecture.png"
            },
            {
              "name": "category",
              "type": "string",
              "value": "tile"
            }
          ]
        },
        {
          "id": 98,
          "type": "tile_floor_z04_classroom",
          "image": "tile_floor_z04_classroom.png",
          "imagewidth": 64,
          "imageheight": 64,
          "properties": [
            {
              "name": "sprite",
              "type": "string",
              "value": "tile_floor_z04_classroom.png"
            },
            {
              "name": "category",
              "type": "string",
              "value": "tile"
            }
          ]
        },
        {
          "id": 99,
          "type": "tile_floor_z05_library",
          "image": "tile_floor_z05_library.png",
          "imagewidth": 64,
          "imageheight": 64,
          "properties": [
            {
              "name": "sprite",
              "type": "string",
              "value": "tile_floor_z05_library.png"
            },
            {
              "name": "category",
              "type": "string",
              "value": "tile"
            }
          ]
        },
        {
          "id": 100,
          "type": "tile_floor_z06_lab",
          "image": "tile_floor_z06_lab.png",
          "imagewidth": 64,
          "imageheight": 64,
          "properties": [
            {
              "name": "sprite",
              "type": "string",
              "value": "tile_floor_z06_lab.png"
            },
            {
              "name": "category",
              "type": "string",
              "value": "tile"
            }
          ]
        },
        {
          "id": 101,
          "type": "tile_floor_z07_design",
          "image": "tile_floor_z07_design.png",
          "imagewidth": 64,
          "imageheight": 64,
          "properties": [
            {
              "name": "sprite",
              "type": "string",
              "value": "tile_floor_z07_design.png"
            },
            {
              "name": "category",
              "type": "string",
              "value": "tile"
            }
          ]
        },
        {
          "id": 102,
          "type": "tile_floor_z08_dev_pods",
          "image": "tile_floor_z08_dev_pods.png",
          "imagewidth": 64,
          "imageheight": 64,
          "properties": [
            {
              "name": "sprite",
              "type": "string",
              "value": "tile_floor_z08_dev_pods.png"
            },
            {
              "name": "category",
              "type": "string",
              "value": "tile"
            }
          ]
        },
        {
          "id": 103,
          "type": "tile_floor_z09_graphics_lab",
          "image": "tile_floor_z09_graphics_lab.png",
          "imagewidth": 64,
          "imageheight": 64,
          "properties": [
            {
              "name": "sprite",
              "type": "string",
              "value": "tile_floor_z09_graphics_lab.png"
            },
            {
              "name": "category",
              "type": "string",
              "value": "tile"
            }
          ]
        },
        {
          "id": 104,
          "type": "tile_floor_z10_qa_station",
          "image": "tile_floor_z10_qa_station.png",
          "imagewidth": 64,
          "imageheight": 64,
          "properties": [
            {
              "name": "sprite",
              "type": "string",
              "value": "tile_floor_z10_qa_station.png"
            },
            {
              "name": "category",
              "type": "string",
              "value": "tile"
            }
          ]
        },
        {
          "id": 105,
          "type": "tile_floor_z11_release_dock",
          "image": "tile_floor_z11_release_dock.png",
          "imagewidth": 64,
          "imageheight": 64,
          "properties": [
            {
              "name": "sprite",
              "type": "string",
              "value": "tile_floor_z11_release_dock.png"
            },
            {
              "name": "category",
              "type": "string",
              "value": "tile"
            }
          ]
        },
        {
          "id": 106,
          "type": "tile_floor_z12_datacenter",
          "image": "tile_floor_z12_datacenter.png",
          "imagewidth": 64,
          "imageheight": 64,
          "properties": [
            {
              "name": "sprite",
              "type": "string",
              "value": "tile_floor_z12_datacenter.png"
            },
            {
              "name": "category",
              "type": "string",
              "value": "tile"
            }
          ]
        },
        {
          "id": 107,
          "type": "tile_floor_z13_lobby",
          "image": "tile_floor_z13_lobby.png",
          "imagewidth": 64,
          "imageheight": 64,
          "properties": [
            {
              "name": "sprite",
              "type": "string",
              "value": "tile_floor_z13_lobby.png"
            },
            {
              "name": "category",
              "type": "string",
              "value": "tile"
            }
          ]
        },
        {
          "id": 108,
          "type": "tile_floor_z14_cafeteria",
          "image": "tile_floor_z14_cafeteria.png",
          "imagewidth": 64,
          "imageheight": 64,
          "properties": [
            {
              "name": "sprite",
              "type": "string",
              "value": "tile_floor_z14_cafeteria.png"
            },
            {
              "name": "category",
              "type": "string",
              "value": "tile"
            }
          ]
        },
        {
          "id": 109,
          "type": "tile_floor_z15_arcade",
          "image": "tile_floor_z15_arcade.png",
          "imagewidth": 64,
          "imageheight": 64,
          "properties": [
            {
              "name": "sprite",
              "type": "string",
              "value": "tile_floor_z15_arcade.png"
            },
            {
              "name": "category",
              "type": "string",
              "value": "tile"
            }
          ]
        },
        {
          "id": 110,
          "type": "tile_floor_z16_musholla",
          "image": "tile_floor_z16_musholla.png",
          "imagewidth": 64,
          "imageheight": 64,
          "properties": [
            {
              "name": "sprite",
              "type": "string",
              "value": "tile_floor_z16_musholla.png"
            },
            {
              "name": "category",
              "type": "string",
              "value": "tile"
            }
          ]
        },
        {
          "id": 111,
          "type": "tile_floor_z17_pool_deck",
          "image": "tile_floor_z17_pool_deck.png",
          "imagewidth": 64,
          "imageheight": 64,
          "properties": [
            {
              "name": "sprite",
              "type": "string",
              "value": "tile_floor_z17_pool_deck.png"
            },
            {
              "name": "category",
              "type": "string",
              "value": "tile"
            }
          ]
        },
        {
          "id": 112,
          "type": "wall_back_corner_n",
          "image": "wall_back_corner_n.png",
          "imagewidth": 64,
          "imageheight": 64,
          "properties": [
            {
              "name": "sprite",
              "type": "string",
              "value": "wall_back_corner_n.png"
            },
            {
              "name": "category",
              "type": "string",
              "value": "wall"
            }
          ]
        },
        {
          "id": 113,
          "type": "wall_back_doorway",
          "image": "wall_back_doorway.png",
          "imagewidth": 64,
          "imageheight": 64,
          "properties": [
            {
              "name": "sprite",
              "type": "string",
              "value": "wall_back_doorway.png"
            },
            {
              "name": "category",
              "type": "string",
              "value": "wall"
            }
          ]
        },
        {
          "id": 114,
          "type": "wall_back_ne",
          "image": "wall_back_ne.png",
          "imagewidth": 64,
          "imageheight": 64,
          "properties": [
            {
              "name": "sprite",
              "type": "string",
              "value": "wall_back_ne.png"
            },
            {
              "name": "category",
              "type": "string",
              "value": "wall"
            }
          ]
        },
        {
          "id": 115,
          "type": "wall_back_nw",
          "image": "wall_back_nw.png",
          "imagewidth": 64,
          "imageheight": 64,
          "properties": [
            {
              "name": "sprite",
              "type": "string",
              "value": "wall_back_nw.png"
            },
            {
              "name": "category",
              "type": "string",
              "value": "wall"
            }
          ]
        },
        {
          "id": 116,
          "type": "wall_back_window_day",
          "image": "wall_back_window_day.png",
          "imagewidth": 64,
          "imageheight": 64,
          "properties": [
            {
              "name": "sprite",
              "type": "string",
              "value": "wall_back_window_day.png"
            },
            {
              "name": "category",
              "type": "string",
              "value": "wall"
            }
          ]
        },
        {
          "id": 117,
          "type": "wall_back_window_night",
          "image": "wall_back_window_night.png",
          "imagewidth": 64,
          "imageheight": 64,
          "properties": [
            {
              "name": "sprite",
              "type": "string",
              "value": "wall_back_window_night.png"
            },
            {
              "name": "category",
              "type": "string",
              "value": "wall"
            }
          ]
        },
        {
          "id": 118,
          "type": "wall_front_cutaway_corner_s",
          "image": "wall_front_cutaway_corner_s.png",
          "imagewidth": 64,
          "imageheight": 64,
          "properties": [
            {
              "name": "sprite",
              "type": "string",
              "value": "wall_front_cutaway_corner_s.png"
            },
            {
              "name": "category",
              "type": "string",
              "value": "wall"
            }
          ]
        },
        {
          "id": 119,
          "type": "wall_front_cutaway_doorway",
          "image": "wall_front_cutaway_doorway.png",
          "imagewidth": 64,
          "imageheight": 64,
          "properties": [
            {
              "name": "sprite",
              "type": "string",
              "value": "wall_front_cutaway_doorway.png"
            },
            {
              "name": "category",
              "type": "string",
              "value": "wall"
            }
          ]
        },
        {
          "id": 120,
          "type": "wall_front_cutaway_se",
          "image": "wall_front_cutaway_se.png",
          "imagewidth": 64,
          "imageheight": 64,
          "properties": [
            {
              "name": "sprite",
              "type": "string",
              "value": "wall_front_cutaway_se.png"
            },
            {
              "name": "category",
              "type": "string",
              "value": "wall"
            }
          ]
        },
        {
          "id": 121,
          "type": "wall_front_cutaway_sw",
          "image": "wall_front_cutaway_sw.png",
          "imagewidth": 64,
          "imageheight": 64,
          "properties": [
            {
              "name": "sprite",
              "type": "string",
              "value": "wall_front_cutaway_sw.png"
            },
            {
              "name": "category",
              "type": "string",
              "value": "wall"
            }
          ]
        },
        {
          "id": 122,
          "type": "collision",
          "imagewidth": 64,
          "imageheight": 32,
          "properties": [
            {
              "name": "solid",
              "type": "bool",
              "value": true
            }
          ]
        }
      ]
    }
  ],
  "layers": [
    {
      "id": 1,
      "name": "floor",
      "type": "tilelayer",
      "width": 44,
      "height": 32,
      "data": [
        96,
        96,
        96,
        96,
        96,
        96,
        96,
        96,
        96,
        96,
        97,
        97,
        97,
        97,
        97,
        97,
        97,
        97,
        97,
        97,
        98,
        98,
        98,
        98,
        98,
        98,
        98,
        98,
        99,
        99,
        99,
        99,
        99,
        99,
        99,
        100,
        100,
        100,
        100,
        100,
        100,
        100,
        100,
        100,
        96,
        96,
        96,
        96,
        96,
        96,
        96,
        96,
        96,
        96,
        97,
        97,
        97,
        97,
        97,
        97,
        97,
        97,
        97,
        97,
        98,
        98,
        98,
        98,
        98,
        98,
        98,
        98,
        99,
        99,
        99,
        99,
        99,
        99,
        99,
        100,
        100,
        100,
        100,
        100,
        100,
        100,
        100,
        100,
        96,
        96,
        96,
        96,
        96,
        96,
        96,
        96,
        96,
        96,
        97,
        97,
        97,
        97,
        97,
        97,
        97,
        97,
        97,
        97,
        98,
        98,
        98,
        98,
        98,
        98,
        98,
        98,
        99,
        99,
        99,
        99,
        99,
        99,
        99,
        100,
        100,
        100,
        100,
        100,
        100,
        100,
        100,
        100,
        96,
        96,
        96,
        96,
        96,
        96,
        96,
        96,
        96,
        96,
        97,
        97,
        97,
        97,
        97,
        97,
        97,
        97,
        97,
        97,
        98,
        98,
        98,
        98,
        98,
        98,
        98,
        98,
        99,
        99,
        99,
        99,
        99,
        99,
        99,
        100,
        100,
        100,
        100,
        100,
        100,
        100,
        100,
        100,
        96,
        96,
        96,
        96,
        96,
        96,
        96,
        96,
        96,
        96,
        97,
        97,
        97,
        97,
        97,
        97,
        97,
        97,
        97,
        97,
        98,
        98,
        98,
        98,
        98,
        98,
        98,
        98,
        99,
        99,
        99,
        99,
        99,
        99,
        99,
        100,
        100,
        100,
        100,
        100,
        100,
        100,
        100,
        100,
        96,
        96,
        96,
        96,
        96,
        96,
        96,
        96,
        96,
        96,
        97,
        97,
        97,
        97,
        97,
        97,
        97,
        97,
        97,
        97,
        98,
        98,
        98,
        98,
        98,
        98,
        98,
        98,
        99,
        99,
        99,
        99,
        99,
        99,
        99,
        100,
        100,
        100,
        100,
        100,
        100,
        100,
        100,
        100,
        96,
        96,
        96,
        96,
        96,
        96,
        96,
        96,
        96,
        96,
        97,
        97,
        97,
        97,
        97,
        97,
        97,
        97,
        97,
        97,
        98,
        98,
        98,
        98,
        98,
        98,
        98,
        98,
        99,
        99,
        99,
        99,
        99,
        99,
        99,
        100,
        100,
        100,
        100,
        100,
        100,
        100,
        100,
        100,
        96,
        96,
        96,
        96,
        96,
        96,
        96,
        96,
        96,
        96,
        97,
        97,
        97,
        97,
        97,
        97,
        97,
        97,
        97,
        97,
        98,
        98,
        98,
        98,
        98,
        98,
        98,
        98,
        99,
        99,
        99,
        99,
        99,
        99,
        99,
        100,
        100,
        100,
        100,
        100,
        100,
        100,
        100,
        100,
        92,
        92,
        92,
        92,
        92,
        92,
        92,
        92,
        92,
        92,
        92,
        92,
        92,
        92,
        92,
        92,
        92,
        92,
        92,
        92,
        92,
        92,
        92,
        92,
        92,
        92,
        92,
        92,
        92,
        92,
        92,
        92,
        92,
        92,
        92,
        92,
        92,
        92,
        92,
        92,
        92,
        92,
        92,
        92,
        92,
        92,
        92,
        92,
        92,
        92,
        92,
        92,
        92,
        92,
        92,
        92,
        92,
        92,
        92,
        92,
        92,
        92,
        92,
        92,
        92,
        92,
        92,
        92,
        92,
        92,
        92,
        92,
        92,
        92,
        92,
        92,
        92,
        92,
        92,
        92,
        92,
        92,
        92,
        92,
        92,
        92,
        92,
        92,
        101,
        101,
        101,
        101,
        101,
        101,
        101,
        101,
        101,
        102,
        102,
        102,
        102,
        102,
        102,
        102,
        103,
        103,
        103,
        103,
        103,
        103,
        103,
        103,
        104,
        104,
        104,
        104,
        105,
        105,
        105,
        105,
        106,
        106,
        106,
        106,
        107,
        107,
        107,
        107,
        107,
        107,
        107,
        107,
        101,
        101,
        101,
        101,
        101,
        101,
        101,
        101,
        101,
        102,
        102,
        102,
        102,
        102,
        102,
        102,
        103,
        103,
        103,
        103,
        103,
        103,
        103,
        103,
        104,
        104,
        104,
        104,
        105,
        105,
        105,
        105,
        106,
        106,
        106,
        106,
        107,
        107,
        107,
        107,
        107,
        107,
        107,
        107,
        101,
        101,
        101,
        101,
        101,
        101,
        101,
        101,
        101,
        102,
        102,
        102,
        102,
        102,
        102,
        102,
        103,
        103,
        103,
        103,
        103,
        103,
        103,
        103,
        104,
        104,
        104,
        104,
        105,
        105,
        105,
        105,
        106,
        106,
        106,
        106,
        107,
        107,
        107,
        107,
        107,
        107,
        107,
        107,
        101,
        101,
        101,
        101,
        101,
        101,
        101,
        101,
        101,
        102,
        102,
        102,
        102,
        102,
        102,
        102,
        103,
        103,
        103,
        103,
        103,
        103,
        103,
        103,
        104,
        104,
        104,
        104,
        105,
        105,
        105,
        105,
        106,
        106,
        106,
        106,
        107,
        107,
        107,
        107,
        107,
        107,
        107,
        107,
        101,
        101,
        101,
        101,
        101,
        101,
        101,
        101,
        101,
        102,
        102,
        102,
        102,
        102,
        102,
        102,
        103,
        103,
        103,
        103,
        103,
        103,
        103,
        103,
        104,
        104,
        104,
        104,
        105,
        105,
        105,
        105,
        106,
        106,
        106,
        106,
        107,
        107,
        107,
        107,
        107,
        107,
        107,
        107,
        101,
        101,
        101,
        101,
        101,
        101,
        101,
        101,
        101,
        102,
        102,
        102,
        102,
        102,
        102,
        102,
        103,
        103,
        103,
        103,
        103,
        103,
        103,
        103,
        104,
        104,
        104,
        104,
        105,
        105,
        105,
        105,
        106,
        106,
        106,
        106,
        107,
        107,
        107,
        107,
        107,
        107,
        107,
        107,
        101,
        101,
        101,
        101,
        101,
        101,
        101,
        101,
        101,
        102,
        102,
        102,
        102,
        102,
        102,
        102,
        103,
        103,
        103,
        103,
        103,
        103,
        103,
        103,
        104,
        104,
        104,
        104,
        105,
        105,
        105,
        105,
        106,
        106,
        106,
        106,
        107,
        107,
        107,
        107,
        107,
        107,
        107,
        107,
        101,
        101,
        101,
        101,
        101,
        101,
        101,
        101,
        101,
        102,
        102,
        102,
        102,
        102,
        102,
        102,
        103,
        103,
        103,
        103,
        103,
        103,
        103,
        103,
        104,
        104,
        104,
        104,
        105,
        105,
        105,
        105,
        106,
        106,
        106,
        106,
        107,
        107,
        107,
        107,
        107,
        107,
        107,
        107,
        101,
        101,
        101,
        101,
        101,
        101,
        101,
        101,
        101,
        102,
        102,
        102,
        102,
        102,
        102,
        102,
        103,
        103,
        103,
        103,
        103,
        103,
        103,
        103,
        104,
        104,
        104,
        104,
        105,
        105,
        105,
        105,
        106,
        106,
        106,
        106,
        107,
        107,
        107,
        107,
        107,
        107,
        107,
        107,
        101,
        101,
        101,
        101,
        101,
        101,
        101,
        101,
        101,
        102,
        102,
        102,
        102,
        102,
        102,
        102,
        103,
        103,
        103,
        103,
        103,
        103,
        103,
        103,
        104,
        104,
        104,
        104,
        105,
        105,
        105,
        105,
        106,
        106,
        106,
        106,
        107,
        107,
        107,
        107,
        107,
        107,
        107,
        107,
        92,
        92,
        92,
        92,
        92,
        92,
        92,
        92,
        92,
        92,
        92,
        92,
        92,
        92,
        92,
        92,
        92,
        92,
        92,
        92,
        92,
        92,
        92,
        92,
        92,
        92,
        92,
        92,
        92,
        92,
        92,
        92,
        92,
        92,
        92,
        92,
        92,
        92,
        92,
        92,
        92,
        92,
        92,
        92,
        92,
        92,
        92,
        92,
        92,
        92,
        92,
        92,
        92,
        92,
        92,
        92,
        92,
        92,
        92,
        92,
        92,
        92,
        92,
        92,
        92,
        92,
        92,
        92,
        92,
        92,
        92,
        92,
        92,
        92,
        92,
        92,
        92,
        92,
        92,
        92,
        92,
        92,
        92,
        92,
        92,
        92,
        92,
        92,
        108,
        108,
        108,
        108,
        108,
        108,
        108,
        108,
        108,
        108,
        109,
        109,
        109,
        109,
        109,
        109,
        109,
        109,
        109,
        109,
        109,
        109,
        110,
        110,
        110,
        110,
        110,
        110,
        110,
        110,
        111,
        111,
        111,
        111,
        111,
        111,
        111,
        112,
        112,
        112,
        112,
        112,
        112,
        112,
        108,
        108,
        108,
        108,
        108,
        108,
        108,
        108,
        108,
        108,
        109,
        109,
        109,
        109,
        109,
        109,
        109,
        109,
        109,
        109,
        109,
        109,
        110,
        110,
        110,
        110,
        110,
        110,
        110,
        110,
        111,
        111,
        111,
        111,
        111,
        111,
        111,
        112,
        112,
        112,
        112,
        112,
        112,
        112,
        108,
        108,
        108,
        108,
        108,
        108,
        108,
        108,
        108,
        108,
        109,
        109,
        109,
        109,
        109,
        109,
        109,
        109,
        109,
        109,
        109,
        109,
        110,
        110,
        110,
        110,
        110,
        110,
        110,
        110,
        111,
        111,
        111,
        111,
        111,
        111,
        111,
        112,
        112,
        112,
        112,
        112,
        112,
        112,
        108,
        108,
        108,
        108,
        108,
        108,
        108,
        108,
        108,
        108,
        109,
        109,
        109,
        109,
        109,
        109,
        109,
        109,
        109,
        109,
        109,
        109,
        110,
        110,
        110,
        110,
        110,
        110,
        110,
        110,
        111,
        111,
        111,
        111,
        111,
        111,
        111,
        112,
        95,
        95,
        95,
        95,
        95,
        112,
        108,
        108,
        108,
        108,
        108,
        108,
        108,
        108,
        108,
        108,
        109,
        109,
        109,
        109,
        109,
        109,
        109,
        109,
        109,
        109,
        109,
        109,
        110,
        110,
        110,
        110,
        110,
        110,
        110,
        110,
        111,
        111,
        111,
        111,
        111,
        111,
        111,
        112,
        95,
        95,
        95,
        95,
        95,
        112,
        108,
        108,
        108,
        108,
        108,
        108,
        108,
        108,
        108,
        108,
        109,
        109,
        109,
        109,
        109,
        109,
        109,
        109,
        109,
        109,
        109,
        109,
        110,
        110,
        110,
        110,
        110,
        110,
        110,
        110,
        111,
        111,
        111,
        111,
        111,
        111,
        111,
        112,
        95,
        95,
        95,
        95,
        95,
        112,
        108,
        108,
        108,
        108,
        108,
        108,
        108,
        108,
        108,
        108,
        109,
        109,
        109,
        109,
        109,
        109,
        109,
        109,
        109,
        109,
        109,
        109,
        110,
        110,
        110,
        110,
        110,
        110,
        110,
        110,
        111,
        111,
        111,
        111,
        111,
        111,
        111,
        112,
        95,
        95,
        95,
        95,
        95,
        112,
        108,
        108,
        108,
        108,
        108,
        108,
        108,
        108,
        108,
        108,
        109,
        109,
        109,
        109,
        109,
        109,
        109,
        109,
        109,
        109,
        109,
        109,
        110,
        110,
        110,
        110,
        110,
        110,
        110,
        110,
        111,
        111,
        111,
        111,
        111,
        111,
        111,
        112,
        95,
        95,
        95,
        95,
        95,
        112,
        108,
        108,
        108,
        108,
        108,
        108,
        108,
        108,
        108,
        108,
        109,
        109,
        109,
        109,
        109,
        109,
        109,
        109,
        109,
        109,
        109,
        109,
        110,
        110,
        110,
        110,
        110,
        110,
        110,
        110,
        111,
        111,
        111,
        111,
        111,
        111,
        111,
        112,
        112,
        112,
        112,
        112,
        112,
        112,
        108,
        108,
        108,
        108,
        108,
        108,
        108,
        108,
        108,
        108,
        109,
        109,
        109,
        109,
        109,
        109,
        109,
        109,
        109,
        109,
        109,
        109,
        110,
        110,
        110,
        110,
        110,
        110,
        110,
        110,
        111,
        111,
        111,
        111,
        111,
        111,
        111,
        112,
        112,
        112,
        112,
        112,
        112,
        112
      ],
      "visible": true,
      "opacity": 1.0,
      "x": 0,
      "y": 0
    },
    {
      "id": 2,
      "name": "walls_back",
      "type": "tilelayer",
      "width": 44,
      "height": 32,
      "data": [
        113,
        115,
        115,
        117,
        115,
        115,
        115,
        115,
        117,
        115,
        115,
        115,
        115,
        115,
        117,
        115,
        115,
        115,
        117,
        115,
        115,
        115,
        115,
        115,
        117,
        115,
        115,
        115,
        115,
        115,
        117,
        115,
        115,
        115,
        115,
        115,
        115,
        115,
        117,
        115,
        115,
        115,
        117,
        115,
        116,
        0,
        0,
        0,
        0,
        0,
        0,
        0,
        0,
        116,
        0,
        0,
        0,
        0,
        0,
        0,
        0,
        0,
        0,
        116,
        0,
        0,
        0,
        0,
        0,
        0,
        0,
        116,
        0,
        0,
        0,
        0,
        0,
        0,
        116,
        0,
        0,
        0,
        0,
        0,
        0,
        0,
        0,
        0,
        116,
        0,
        0,
        0,
        0,
        0,
        0,
        0,
        0,
        116,
        0,
        0,
        0,
        0,
        0,
        0,
        0,
        0,
        0,
        116,
        0,
        0,
        0,
        0,
        0,
        0,
        0,
        116,
        0,
        0,
        0,
        0,
        0,
        0,
        116,
        0,
        0,
        0,
        0,
        0,
        0,
        0,
        0,
        0,
        116,
        0,
        0,
        0,
        0,
        0,
        0,
        0,
        0,
        116,
        0,
        0,
        0,
        0,
        0,
        0,
        0,
        0,
        0,
        116,
        0,
        0,
        0,
        0,
        0,
        0,
        0,
        116,
        0,
        0,
        0,
        0,
        0,
        0,
        116,
        0,
        0,
        0,
        0,
        0,
        0,
        0,
        0,
        0,
        116,
        0,
        0,
        0,
        0,
        0,
        0,
        0,
        0,
        116,
        0,
        0,
        0,
        0,
        0,
        0,
        0,
        0,
        0,
        116,
        0,
        0,
        0,
        0,
        0,
        0,
        0,
        116,
        0,
        0,
        0,
        0,
        0,
        0,
        116,
        0,
        0,
        0,
        0,
        0,
        0,
        0,
        0,
        0,
        116,
        0,
        0,
        0,
        0,
        0,
        0,
        0,
        0,
        116,
        0,
        0,
        0,
        0,
        0,
        0,
        0,
        0,
        0,
        116,
        0,
        0,
        0,
        0,
        0,
        0,
        0,
        116,
        0,
        0,
        0,
        0,
        0,
        0,
        116,
        0,
        0,
        0,
        0,
        0,
        0,
        0,
        0,
        0,
        116,
        0,
        0,
        0,
        0,
        0,
        0,
        0,
        0,
        116,
        0,
        0,
        0,
        0,
        0,
        0,
        0,
        0,
        0,
        116,
        0,
        0,
        0,
        0,
        0,
        0,
        0,
        116,
        0,
        0,
        0,
        0,
        0,
        0,
        116,
        0,
        0,
        0,
        0,
        0,
        0,
        0,
        0,
        0,
        116,
        0,
        0,
        0,
        0,
        0,
        0,
        0,
        0,
        0,
        0,
        0,
        0,
        0,
        0,
        0,
        0,
        0,
        0,
        0,
        0,
        0,
        0,
        0,
        0,
        0,
        0,
        0,
        0,
        0,
        0,
        0,
        0,
        0,
        0,
        0,
        0,
        0,
        0,
        0,
        0,
        0,
        0,
        0,
        116,
        0,
        0,
        0,
        0,
        0,
        0,
        0,
        0,
        0,
        0,
        0,
        0,
        0,
        0,
        0,
        0,
        0,
        0,
        0,
        0,
        0,
        0,
        0,
        0,
        0,
        0,
        0,
        0,
        0,
        0,
        0,
        0,
        0,
        0,
        0,
        0,
        0,
        0,
        0,
        0,
        0,
        0,
        0,
        116,
        0,
        0,
        0,
        0,
        0,
        0,
        0,
        0,
        0,
        0,
        0,
        0,
        0,
        0,
        0,
        0,
        0,
        0,
        0,
        0,
        0,
        0,
        0,
        0,
        0,
        0,
        0,
        0,
        0,
        0,
        0,
        0,
        0,
        0,
        0,
        0,
        0,
        0,
        0,
        0,
        0,
        0,
        0,
        116,
        115,
        115,
        115,
        114,
        115,
        115,
        115,
        115,
        115,
        115,
        115,
        114,
        115,
        115,
        115,
        115,
        115,
        115,
        114,
        115,
        115,
        115,
        115,
        115,
        114,
        115,
        115,
        115,
        114,
        115,
        115,
        115,
        114,
        115,
        115,
        115,
        115,
        115,
        114,
        115,
        115,
        115,
        115,
        116,
        0,
        0,
        0,
        0,
        0,
        0,
        0,
        116,
        0,
        0,
        0,
        0,
        0,
        0,
        116,
        0,
        0,
        0,
        0,
        0,
        0,
        0,
        116,
        0,
        0,
        0,
        116,
        0,
        0,
        0,
        116,
        0,
        0,
        0,
        116,
        0,
        0,
        0,
        0,
        0,
        0,
        0,
        0,
        116,
        0,
        0,
        0,
        0,
        0,
        0,
        0,
        116,
        0,
        0,
        0,
        0,
        0,
        0,
        116,
        0,
        0,
        0,
        0,
        0,
        0,
        0,
        116,
        0,
        0,
        0,
        116,
        0,
        0,
        0,
        116,
        0,
        0,
        0,
        116,
        0,
        0,
        0,
        0,
        0,
        0,
        0,
        0,
        116,
        0,
        0,
        0,
        0,
        0,
        0,
        0,
        116,
        0,
        0,
        0,
        0,
        0,
        0,
        116,
        0,
        0,
        0,
        0,
        0,
        0,
        0,
        116,
        0,
        0,
        0,
        116,
        0,
        0,
        0,
        116,
        0,
        0,
        0,
        116,
        0,
        0,
        0,
        0,
        0,
        0,
        0,
        0,
        116,
        0,
        0,
        0,
        0,
        0,
        0,
        0,
        116,
        0,
        0,
        0,
        0,
        0,
        0,
        116,
        0,
        0,
        0,
        0,
        0,
        0,
        0,
        114,
        0,
        0,
        0,
        114,
        0,
        0,
        0,
        114,
        0,
        0,
        0,
        114,
        0,
        0,
        0,
        0,
        0,
        0,
        0,
        0,
        116,
        0,
        0,
        0,
        0,
        0,
        0,
        0,
        116,
        0,
        0,
        0,
        0,
        0,
        0,
        116,
        0,
        0,
        0,
        0,
        0,
        0,
        0,
        116,
        0,
        0,
        0,
        116,
        0,
        0,
        0,
        116,
        0,
        0,
        0,
        116,
        0,
        0,
        0,
        0,
        0,
        0,
        0,
        0,
        116,
        0,
        0,
        0,
        0,
        0,
        0,
        0,
        116,
        0,
        0,
        0,
        0,
        0,
        0,
        116,
        0,
        0,
        0,
        0,
        0,
        0,
        0,
        116,
        0,
        0,
        0,
        116,
        0,
        0,
        0,
        116,
        0,
        0,
        0,
        116,
        0,
        0,
        0,
        0,
        0,
        0,
        0,
        0,
        116,
        0,
        0,
        0,
        0,
        0,
        0,
        0,
        116,
        0,
        0,
        0,
        0,
        0,
        0,
        116,
        0,
        0,
        0,
        0,
        0,
        0,
        0,
        116,
        0,
        0,
        0,
        116,
        0,
        0,
        0,
        116,
        0,
        0,
        0,
        116,
        0,
        0,
        0,
        0,
        0,
        0,
        0,
        0,
        116,
        0,
        0,
        0,
        0,
        0,
        0,
        0,
        116,
        0,
        0,
        0,
        0,
        0,
        0,
        116,
        0,
        0,
        0,
        0,
        0,
        0,
        0,
        116,
        0,
        0,
        0,
        116,
        0,
        0,
        0,
        116,
        0,
        0,
        0,
        116,
        0,
        0,
        0,
        0,
        0,
        0,
        0,
        0,
        116,
        0,
        0,
        0,
        0,
        0,
        0,
        0,
        0,
        0,
        0,
        0,
        0,
        0,
        0,
        0,
        0,
        0,
        0,
        0,
        0,
        0,
        0,
        0,
        0,
        0,
        0,
        0,
        0,
        0,
        0,
        0,
        0,
        0,
        0,
        0,
        0,
        0,
        0,
        0,
        0,
        0,
        0,
        0,
        116,
        0,
        0,
        0,
        0,
        0,
        0,
        0,
        0,
        0,
        0,
        0,
        0,
        0,
        0,
        0,
        0,
        0,
        0,
        0,
        0,
        0,
        0,
        0,
        0,
        0,
        0,
        0,
        0,
        0,
        0,
        0,
        0,
        0,
        0,
        0,
        0,
        0,
        0,
        0,
        0,
        0,
        0,
        0,
        116,
        0,
        0,
        0,
        0,
        0,
        0,
        0,
        0,
        0,
        0,
        0,
        0,
        0,
        0,
        0,
        0,
        0,
        0,
        0,
        0,
        0,
        0,
        0,
        0,
        0,
        0,
        0,
        0,
        0,
        0,
        0,
        0,
        0,
        0,
        0,
        0,
        0,
        0,
        0,
        0,
        0,
        0,
        0,
        116,
        0,
        0,
        0,
        0,
        0,
        0,
        0,
        0,
        0,
        0,
        0,
        0,
        0,
        0,
        0,
        0,
        0,
        0,
        0,
        0,
        0,
        0,
        0,
        0,
        0,
        0,
        0,
        0,
        116,
        115,
        115,
        115,
        114,
        115,
        115,
        115,
        0,
        0,
        0,
        0,
        0,
        0,
        0,
        116,
        0,
        0,
        0,
        0,
        0,
        0,
        0,
        0,
        0,
        0,
        0,
        0,
        0,
        0,
        0,
        0,
        0,
        0,
        0,
        0,
        0,
        0,
        0,
        0,
        0,
        0,
        0,
        0,
        116,
        0,
        0,
        0,
        0,
        0,
        0,
        116,
        0,
        0,
        0,
        0,
        0,
        0,
        0,
        116,
        0,
        0,
        0,
        0,
        0,
        0,
        0,
        0,
        0,
        0,
        0,
        0,
        0,
        0,
        0,
        0,
        0,
        0,
        0,
        0,
        0,
        0,
        0,
        0,
        0,
        0,
        0,
        0,
        116,
        0,
        0,
        0,
        0,
        0,
        0,
        116,
        0,
        0,
        0,
        0,
        0,
        0,
        0,
        116,
        0,
        0,
        0,
        0,
        0,
        0,
        0,
        0,
        0,
        0,
        0,
        0,
        0,
        0,
        0,
        0,
        0,
        0,
        0,
        0,
        0,
        0,
        0,
        0,
        0,
        0,
        0,
        0,
        116,
        0,
        0,
        0,
        0,
        0,
        0,
        116,
        0,
        0,
        0,
        0,
        0,
        0,
        0,
        116,
        0,
        0,
        0,
        0,
        0,
        0,
        0,
        0,
        0,
        0,
        0,
        0,
        0,
        0,
        0,
        0,
        0,
        0,
        0,
        0,
        0,
        0,
        0,
        0,
        0,
        0,
        0,
        0,
        116,
        0,
        0,
        0,
        0,
        0,
        0,
        116,
        0,
        0,
        0,
        0,
        0,
        0,
        0,
        116,
        0,
        0,
        0,
        0,
        0,
        0,
        0,
        0,
        0,
        0,
        0,
        0,
        0,
        0,
        0,
        0,
        0,
        0,
        0,
        0,
        0,
        0,
        0,
        0,
        0,
        0,
        0,
        0,
        116,
        0,
        0,
        0,
        0,
        0,
        0,
        116,
        0,
        0,
        0,
        0,
        0,
        0,
        0,
        116,
        0,
        0,
        0,
        0,
        0,
        0,
        0,
        0,
        0,
        0,
        0,
        0,
        0,
        0,
        0,
        0,
        0,
        0,
        0,
        0,
        0,
        0,
        0,
        0,
        0,
        0,
        0,
        0,
        116,
        0,
        0,
        0,
        0,
        0,
        0,
        116,
        0,
        0,
        0,
        0,
        0,
        0,
        0,
        116,
        0,
        0,
        0,
        0,
        0,
        0,
        0,
        0,
        0,
        0,
        0,
        0,
        0,
        0,
        0,
        0,
        0,
        0,
        0,
        0,
        0,
        0,
        0,
        0,
        0,
        0,
        0,
        0,
        116,
        0,
        0,
        0,
        0,
        0,
        0,
        116,
        0,
        0,
        0,
        0,
        0,
        0,
        0,
        116,
        0,
        0,
        0,
        0,
        0,
        0,
        0,
        0,
        0,
        0,
        0,
        0,
        0,
        0,
        0,
        0,
        0,
        0,
        0,
        0,
        0,
        0,
        0,
        0,
        0,
        0,
        0,
        0,
        116,
        0,
        0,
        0,
        0,
        0,
        0,
        116,
        0,
        0,
        0,
        0,
        0,
        0,
        0,
        116,
        0,
        0,
        0,
        0,
        0,
        0,
        0,
        0,
        0,
        0,
        0,
        0,
        0,
        0,
        0,
        0,
        0,
        0,
        0,
        0,
        0,
        0,
        0,
        0,
        0,
        0,
        0,
        0,
        0,
        0,
        0,
        0,
        0,
        0,
        0,
        0,
        0,
        0,
        0,
        0,
        0,
        0,
        0
      ],
      "visible": true,
      "opacity": 1.0,
      "x": 0,
      "y": 0
    },
    {
      "id": 3,
      "name": "walls_front",
      "type": "tilelayer",
      "width": 44,
      "height": 32,
      "data": [
        0,
        0,
        0,
        0,
        0,
        0,
        0,
        0,
        0,
        0,
        0,
        0,
        0,
        0,
        0,
        0,
        0,
        0,
        0,
        0,
        0,
        0,
        0,
        0,
        0,
        0,
        0,
        0,
        0,
        0,
        0,
        0,
        0,
        0,
        0,
        0,
        0,
        0,
        0,
        0,
        0,
        0,
        0,
        0,
        0,
        0,
        0,
        0,
        0,
        0,
        0,
        0,
        0,
        0,
        0,
        0,
        0,
        0,
        0,
        0,
        0,
        0,
        0,
        0,
        0,
        0,
        0,
        0,
        0,
        0,
        0,
        0,
        0,
        0,
        0,
        0,
        0,
        0,
        0,
        0,
        0,
        0,
        0,
        0,
        0,
        0,
        0,
        121,
        0,
        0,
        0,
        0,
        0,
        0,
        0,
        0,
        0,
        0,
        0,
        0,
        0,
        0,
        0,
        0,
        0,
        0,
        0,
        0,
        0,
        0,
        0,
        0,
        0,
        0,
        0,
        0,
        0,
        0,
        0,
        0,
        0,
        0,
        0,
        0,
        0,
        0,
        0,
        0,
        0,
        0,
        0,
        121,
        0,
        0,
        0,
        0,
        0,
        0,
        0,
        0,
        0,
        0,
        0,
        0,
        0,
        0,
        0,
        0,
        0,
        0,
        0,
        0,
        0,
        0,
        0,
        0,
        0,
        0,
        0,
        0,
        0,
        0,
        0,
        0,
        0,
        0,
        0,
        0,
        0,
        0,
        0,
        0,
        0,
        0,
        0,
        121,
        0,
        0,
        0,
        0,
        0,
        0,
        0,
        0,
        0,
        0,
        0,
        0,
        0,
        0,
        0,
        0,
        0,
        0,
        0,
        0,
        0,
        0,
        0,
        0,
        0,
        0,
        0,
        0,
        0,
        0,
        0,
        0,
        0,
        0,
        0,
        0,
        0,
        0,
        0,
        0,
        0,
        0,
        0,
        121,
        0,
        0,
        0,
        0,
        0,
        0,
        0,
        0,
        0,
        0,
        0,
        0,
        0,
        0,
        0,
        0,
        0,
        0,
        0,
        0,
        0,
        0,
        0,
        0,
        0,
        0,
        0,
        0,
        0,
        0,
        0,
        0,
        0,
        0,
        0,
        0,
        0,
        0,
        0,
        0,
        0,
        0,
        0,
        121,
        0,
        0,
        0,
        0,
        0,
        0,
        0,
        0,
        0,
        0,
        0,
        0,
        0,
        0,
        0,
        0,
        0,
        0,
        0,
        0,
        0,
        0,
        0,
        0,
        0,
        0,
        0,
        0,
        0,
        0,
        0,
        0,
        0,
        0,
        0,
        0,
        0,
        0,
        0,
        0,
        0,
        0,
        0,
        121,
        0,
        122,
        122,
        122,
        122,
        120,
        122,
        122,
        122,
        122,
        122,
        122,
        122,
        122,
        122,
        120,
        122,
        122,
        122,
        122,
        122,
        122,
        122,
        120,
        122,
        122,
        122,
        122,
        122,
        122,
        122,
        120,
        122,
        122,
        122,
        122,
        122,
        122,
        122,
        120,
        122,
        122,
        122,
        121,
        0,
        0,
        0,
        0,
        0,
        0,
        0,
        0,
        0,
        0,
        0,
        0,
        0,
        0,
        0,
        0,
        0,
        0,
        0,
        0,
        0,
        0,
        0,
        0,
        0,
        0,
        0,
        0,
        0,
        0,
        0,
        0,
        0,
        0,
        0,
        0,
        0,
        0,
        0,
        0,
        0,
        0,
        0,
        121,
        0,
        0,
        0,
        0,
        0,
        0,
        0,
        0,
        0,
        0,
        0,
        0,
        0,
        0,
        0,
        0,
        0,
        0,
        0,
        0,
        0,
        0,
        0,
        0,
        0,
        0,
        0,
        0,
        0,
        0,
        0,
        0,
        0,
        0,
        0,
        0,
        0,
        0,
        0,
        0,
        0,
        0,
        0,
        121,
        0,
        0,
        0,
        0,
        0,
        0,
        0,
        0,
        0,
        0,
        0,
        0,
        0,
        0,
        0,
        0,
        0,
        0,
        0,
        0,
        0,
        0,
        0,
        0,
        0,
        0,
        0,
        0,
        0,
        0,
        0,
        0,
        0,
        0,
        0,
        0,
        0,
        0,
        0,
        0,
        0,
        0,
        0,
        121,
        0,
        0,
        0,
        0,
        0,
        0,
        0,
        0,
        0,
        0,
        0,
        0,
        0,
        0,
        0,
        0,
        0,
        0,
        0,
        0,
        0,
        0,
        0,
        0,
        0,
        0,
        0,
        0,
        0,
        0,
        0,
        0,
        0,
        0,
        0,
        0,
        0,
        0,
        0,
        0,
        0,
        0,
        0,
        121,
        0,
        0,
        0,
        0,
        0,
        0,
        0,
        0,
        0,
        0,
        0,
        0,
        0,
        0,
        0,
        0,
        0,
        0,
        0,
        0,
        0,
        0,
        0,
        0,
        0,
        0,
        0,
        0,
        0,
        0,
        0,
        0,
        0,
        0,
        0,
        0,
        0,
        0,
        0,
        0,
        0,
        0,
        0,
        121,
        0,
        0,
        0,
        0,
        0,
        0,
        0,
        0,
        0,
        0,
        0,
        0,
        0,
        0,
        0,
        0,
        0,
        0,
        0,
        0,
        0,
        0,
        0,
        0,
        0,
        0,
        0,
        0,
        0,
        0,
        0,
        0,
        0,
        0,
        0,
        0,
        0,
        0,
        0,
        0,
        0,
        0,
        0,
        121,
        0,
        0,
        0,
        0,
        0,
        0,
        0,
        0,
        0,
        0,
        0,
        0,
        0,
        0,
        0,
        0,
        0,
        0,
        0,
        0,
        0,
        0,
        0,
        0,
        0,
        0,
        0,
        0,
        0,
        0,
        0,
        0,
        0,
        0,
        0,
        0,
        0,
        0,
        0,
        0,
        0,
        0,
        0,
        121,
        0,
        0,
        0,
        0,
        0,
        0,
        0,
        0,
        0,
        0,
        0,
        0,
        0,
        0,
        0,
        0,
        0,
        0,
        0,
        0,
        0,
        0,
        0,
        0,
        0,
        0,
        0,
        0,
        0,
        0,
        0,
        0,
        0,
        0,
        0,
        0,
        0,
        0,
        0,
        0,
        0,
        0,
        0,
        121,
        0,
        0,
        0,
        0,
        0,
        0,
        0,
        0,
        0,
        0,
        0,
        0,
        0,
        0,
        0,
        0,
        0,
        0,
        0,
        0,
        0,
        0,
        0,
        0,
        0,
        0,
        0,
        0,
        0,
        0,
        0,
        0,
        0,
        0,
        0,
        0,
        0,
        0,
        0,
        0,
        0,
        0,
        0,
        121,
        0,
        0,
        0,
        0,
        0,
        0,
        0,
        0,
        0,
        0,
        0,
        0,
        0,
        0,
        0,
        0,
        0,
        0,
        0,
        0,
        0,
        0,
        0,
        0,
        0,
        0,
        0,
        0,
        0,
        0,
        0,
        0,
        0,
        0,
        0,
        0,
        0,
        0,
        0,
        0,
        0,
        0,
        0,
        121,
        0,
        0,
        0,
        0,
        0,
        0,
        0,
        0,
        0,
        0,
        0,
        0,
        0,
        0,
        0,
        0,
        0,
        0,
        0,
        0,
        0,
        0,
        0,
        0,
        0,
        0,
        0,
        0,
        0,
        0,
        0,
        0,
        0,
        0,
        0,
        0,
        0,
        0,
        0,
        0,
        0,
        0,
        0,
        121,
        0,
        122,
        122,
        122,
        120,
        122,
        122,
        122,
        122,
        122,
        122,
        122,
        120,
        122,
        122,
        122,
        122,
        122,
        122,
        120,
        122,
        122,
        122,
        122,
        122,
        120,
        122,
        122,
        122,
        120,
        122,
        122,
        122,
        120,
        122,
        122,
        122,
        122,
        122,
        120,
        122,
        122,
        122,
        121,
        0,
        0,
        0,
        0,
        0,
        0,
        0,
        0,
        0,
        0,
        0,
        0,
        0,
        0,
        0,
        0,
        0,
        0,
        0,
        0,
        0,
        0,
        0,
        0,
        0,
        0,
        0,
        0,
        0,
        0,
        0,
        0,
        0,
        0,
        0,
        0,
        0,
        0,
        0,
        0,
        0,
        0,
        0,
        121,
        0,
        0,
        0,
        0,
        0,
        0,
        0,
        0,
        0,
        0,
        0,
        0,
        0,
        0,
        0,
        0,
        0,
        0,
        0,
        0,
        0,
        0,
        0,
        0,
        0,
        0,
        0,
        0,
        0,
        0,
        0,
        0,
        0,
        0,
        0,
        0,
        0,
        0,
        0,
        0,
        0,
        0,
        0,
        121,
        0,
        0,
        0,
        0,
        0,
        0,
        0,
        0,
        0,
        0,
        0,
        0,
        0,
        0,
        0,
        0,
        0,
        0,
        0,
        0,
        0,
        0,
        0,
        0,
        0,
        0,
        0,
        0,
        0,
        0,
        0,
        0,
        0,
        0,
        0,
        0,
        0,
        0,
        0,
        0,
        0,
        0,
        0,
        121,
        0,
        0,
        0,
        0,
        0,
        0,
        0,
        0,
        0,
        0,
        0,
        0,
        0,
        0,
        0,
        0,
        0,
        0,
        0,
        0,
        0,
        0,
        0,
        0,
        0,
        0,
        0,
        0,
        0,
        0,
        0,
        0,
        0,
        0,
        0,
        0,
        0,
        0,
        0,
        0,
        0,
        0,
        0,
        121,
        0,
        0,
        0,
        0,
        0,
        0,
        0,
        0,
        0,
        0,
        0,
        0,
        0,
        0,
        0,
        0,
        0,
        0,
        0,
        0,
        0,
        0,
        0,
        0,
        0,
        0,
        0,
        0,
        0,
        0,
        0,
        0,
        0,
        0,
        0,
        0,
        0,
        0,
        0,
        0,
        0,
        0,
        0,
        121,
        0,
        0,
        0,
        0,
        0,
        0,
        0,
        0,
        0,
        0,
        0,
        0,
        0,
        0,
        0,
        0,
        0,
        0,
        0,
        0,
        0,
        0,
        0,
        0,
        0,
        0,
        0,
        0,
        0,
        0,
        0,
        0,
        0,
        0,
        0,
        0,
        0,
        0,
        0,
        0,
        0,
        0,
        0,
        121,
        0,
        0,
        0,
        0,
        0,
        0,
        0,
        0,
        0,
        0,
        0,
        0,
        0,
        0,
        0,
        0,
        0,
        0,
        0,
        0,
        0,
        0,
        0,
        0,
        0,
        0,
        0,
        0,
        0,
        0,
        0,
        0,
        0,
        0,
        0,
        0,
        0,
        0,
        0,
        0,
        0,
        0,
        0,
        121,
        0,
        0,
        0,
        0,
        0,
        0,
        0,
        0,
        0,
        0,
        0,
        0,
        0,
        0,
        0,
        0,
        0,
        0,
        0,
        0,
        0,
        0,
        0,
        0,
        0,
        0,
        0,
        0,
        0,
        0,
        0,
        0,
        0,
        0,
        0,
        0,
        0,
        0,
        0,
        0,
        0,
        0,
        0,
        121,
        0,
        0,
        0,
        0,
        0,
        0,
        0,
        0,
        0,
        0,
        0,
        0,
        0,
        0,
        0,
        0,
        0,
        0,
        0,
        0,
        0,
        0,
        0,
        0,
        0,
        0,
        0,
        0,
        0,
        0,
        0,
        0,
        0,
        0,
        0,
        0,
        0,
        0,
        0,
        0,
        0,
        0,
        0,
        121,
        0,
        0,
        0,
        0,
        0,
        0,
        0,
        0,
        0,
        0,
        0,
        0,
        0,
        0,
        0,
        0,
        0,
        0,
        0,
        0,
        0,
        0,
        0,
        0,
        0,
        0,
        0,
        0,
        0,
        0,
        0,
        0,
        0,
        0,
        0,
        0,
        0,
        0,
        0,
        0,
        0,
        0,
        0,
        121,
        0,
        0,
        0,
        0,
        0,
        0,
        0,
        0,
        0,
        0,
        0,
        0,
        0,
        0,
        0,
        0,
        0,
        0,
        0,
        0,
        0,
        0,
        0,
        0,
        0,
        0,
        0,
        0,
        0,
        0,
        0,
        0,
        0,
        0,
        0,
        0,
        0,
        0,
        0,
        0,
        0,
        0,
        0,
        121,
        119,
        122,
        122,
        122,
        120,
        122,
        122,
        122,
        122,
        122,
        122,
        122,
        122,
        122,
        122,
        122,
        122,
        122,
        122,
        122,
        122,
        122,
        122,
        122,
        122,
        122,
        122,
        122,
        122,
        122,
        122,
        122,
        122,
        122,
        122,
        122,
        122,
        122,
        122,
        122,
        122,
        122,
        122,
        119
      ],
      "visible": true,
      "opacity": 1.0,
      "x": 0,
      "y": 0
    },
    {
      "id": 4,
      "name": "furniture",
      "type": "tilelayer",
      "width": 44,
      "height": 32,
      "data": [
        0,
        0,
        0,
        0,
        0,
        0,
        0,
        0,
        0,
        0,
        0,
        0,
        0,
        0,
        0,
        0,
        0,
        0,
        0,
        0,
        0,
        0,
        0,
        0,
        0,
        0,
        0,
        0,
        0,
        0,
        0,
        0,
        0,
        0,
        0,
        0,
        0,
        0,
        0,
        0,
        0,
        0,
        0,
        0,
        0,
        0,
        0,
        0,
        0,
        0,
        0,
        0,
        0,
        0,
        0,
        0,
        0,
        0,
        58,
        0,
        0,
        0,
        0,
        0,
        0,
        76,
        0,
        0,
        0,
        0,
        9,
        0,
        0,
        0,
        0,
        85,
        0,
        0,
        0,
        0,
        13,
        0,
        13,
        0,
        13,
        0,
        13,
        0,
        0,
        0,
        0,
        0,
        83,
        0,
        0,
        0,
        81,
        0,
        26,
        0,
        0,
        16,
        16,
        16,
        16,
        0,
        0,
        0,
        0,
        0,
        0,
        20,
        0,
        0,
        0,
        0,
        0,
        0,
        0,
        0,
        0,
        0,
        0,
        0,
        0,
        0,
        0,
        0,
        0,
        0,
        0,
        0,
        0,
        0,
        0,
        0,
        0,
        0,
        0,
        0,
        0,
        0,
        0,
        0,
        16,
        0,
        11,
        11,
        0,
        16,
        0,
        0,
        0,
        0,
        0,
        0,
        0,
        0,
        0,
        0,
        0,
        0,
        0,
        0,
        0,
        0,
        0,
        0,
        20,
        28,
        0,
        0,
        39,
        39,
        0,
        0,
        0,
        72,
        0,
        0,
        21,
        0,
        0,
        0,
        0,
        0,
        26,
        0,
        16,
        0,
        11,
        11,
        0,
        16,
        0,
        0,
        0,
        10,
        0,
        0,
        0,
        10,
        0,
        0,
        0,
        17,
        0,
        17,
        0,
        17,
        0,
        0,
        0,
        0,
        0,
        0,
        0,
        0,
        0,
        0,
        0,
        0,
        0,
        0,
        0,
        0,
        0,
        0,
        0,
        0,
        0,
        0,
        0,
        16,
        16,
        16,
        16,
        0,
        0,
        0,
        0,
        0,
        0,
        0,
        0,
        0,
        0,
        0,
        0,
        17,
        0,
        17,
        0,
        17,
        0,
        0,
        0,
        0,
        0,
        0,
        0,
        0,
        60,
        0,
        0,
        0,
        0,
        0,
        0,
        0,
        0,
        0,
        0,
        0,
        26,
        0,
        0,
        0,
        0,
        0,
        0,
        0,
        0,
        0,
        0,
        0,
        0,
        0,
        0,
        0,
        0,
        0,
        0,
        0,
        0,
        0,
        0,
        0,
        0,
        0,
        0,
        0,
        0,
        0,
        0,
        0,
        0,
        0,
        0,
        0,
        0,
        0,
        0,
        0,
        0,
        0,
        0,
        0,
        0,
        0,
        0,
        0,
        0,
        0,
        0,
        0,
        0,
        0,
        0,
        0,
        0,
        0,
        0,
        0,
        0,
        0,
        0,
        0,
        0,
        0,
        0,
        0,
        0,
        0,
        0,
        0,
        0,
        0,
        0,
        0,
        0,
        0,
        0,
        0,
        0,
        0,
        0,
        0,
        0,
        0,
        0,
        0,
        0,
        0,
        0,
        0,
        0,
        0,
        0,
        0,
        0,
        0,
        0,
        0,
        0,
        0,
        0,
        0,
        0,
        0,
        0,
        0,
        0,
        0,
        0,
        0,
        0,
        0,
        0,
        0,
        0,
        0,
        0,
        0,
        0,
        0,
        0,
        0,
        0,
        0,
        0,
        0,
        0,
        0,
        0,
        0,
        0,
        0,
        0,
        0,
        0,
        0,
        0,
        0,
        0,
        0,
        0,
        0,
        0,
        0,
        0,
        0,
        0,
        0,
        0,
        0,
        0,
        0,
        0,
        0,
        0,
        0,
        0,
        0,
        0,
        0,
        0,
        0,
        0,
        0,
        0,
        0,
        0,
        0,
        0,
        0,
        0,
        0,
        0,
        0,
        0,
        0,
        0,
        0,
        0,
        0,
        0,
        0,
        0,
        0,
        0,
        0,
        0,
        0,
        0,
        0,
        0,
        0,
        0,
        0,
        0,
        0,
        0,
        0,
        0,
        0,
        0,
        0,
        0,
        0,
        0,
        0,
        0,
        0,
        0,
        0,
        0,
        0,
        0,
        0,
        0,
        0,
        0,
        0,
        0,
        0,
        0,
        0,
        75,
        0,
        0,
        0,
        0,
        0,
        0,
        0,
        0,
        0,
        0,
        0,
        0,
        0,
        0,
        0,
        0,
        0,
        0,
        0,
        18,
        0,
        0,
        0,
        0,
        70,
        0,
        0,
        0,
        0,
        0,
        32,
        0,
        0,
        0,
        0,
        20,
        0,
        0,
        0,
        20,
        0,
        0,
        0,
        0,
        0,
        87,
        0,
        15,
        0,
        0,
        0,
        0,
        0,
        0,
        0,
        37,
        0,
        0,
        0,
        61,
        0,
        0,
        0,
        0,
        0,
        0,
        20,
        0,
        2,
        0,
        20,
        0,
        0,
        0,
        43,
        0,
        0,
        0,
        0,
        0,
        0,
        0,
        0,
        0,
        0,
        0,
        0,
        0,
        0,
        0,
        0,
        0,
        0,
        0,
        0,
        48,
        0,
        0,
        20,
        0,
        0,
        0,
        74,
        35,
        0,
        0,
        20,
        0,
        0,
        0,
        0,
        0,
        0,
        0,
        0,
        0,
        0,
        0,
        86,
        0,
        0,
        0,
        0,
        0,
        0,
        0,
        0,
        22,
        0,
        0,
        0,
        45,
        0,
        87,
        0,
        15,
        0,
        0,
        0,
        0,
        0,
        0,
        0,
        0,
        0,
        0,
        0,
        0,
        0,
        0,
        0,
        19,
        0,
        0,
        0,
        0,
        0,
        0,
        0,
        0,
        0,
        0,
        79,
        0,
        0,
        0,
        0,
        0,
        0,
        0,
        0,
        0,
        0,
        0,
        0,
        0,
        0,
        0,
        0,
        0,
        0,
        0,
        0,
        0,
        0,
        0,
        0,
        0,
        0,
        0,
        0,
        0,
        0,
        0,
        0,
        19,
        0,
        0,
        0,
        0,
        0,
        0,
        0,
        0,
        0,
        0,
        32,
        0,
        0,
        0,
        0,
        0,
        30,
        0,
        0,
        0,
        0,
        0,
        0,
        0,
        0,
        87,
        0,
        15,
        0,
        0,
        0,
        0,
        0,
        0,
        0,
        73,
        0,
        0,
        0,
        65,
        0,
        49,
        0,
        19,
        0,
        67,
        0,
        0,
        0,
        0,
        0,
        67,
        0,
        0,
        0,
        0,
        0,
        0,
        0,
        0,
        0,
        0,
        0,
        0,
        0,
        0,
        0,
        0,
        0,
        0,
        0,
        0,
        0,
        0,
        0,
        48,
        0,
        0,
        0,
        0,
        0,
        0,
        0,
        0,
        0,
        0,
        14,
        0,
        0,
        67,
        0,
        0,
        0,
        0,
        0,
        67,
        0,
        0,
        0,
        0,
        0,
        0,
        0,
        0,
        0,
        0,
        0,
        0,
        0,
        0,
        0,
        0,
        0,
        89,
        0,
        15,
        0,
        0,
        0,
        0,
        0,
        0,
        0,
        0,
        0,
        0,
        0,
        0,
        0,
        49,
        0,
        0,
        0,
        67,
        0,
        0,
        0,
        0,
        0,
        67,
        0,
        0,
        0,
        0,
        0,
        0,
        0,
        0,
        0,
        0,
        0,
        0,
        0,
        0,
        0,
        0,
        0,
        0,
        0,
        0,
        0,
        0,
        0,
        0,
        0,
        0,
        0,
        0,
        0,
        0,
        0,
        0,
        0,
        0,
        0,
        0,
        0,
        0,
        0,
        0,
        0,
        0,
        0,
        0,
        0,
        0,
        0,
        0,
        0,
        0,
        0,
        0,
        0,
        0,
        0,
        0,
        0,
        0,
        0,
        0,
        0,
        0,
        0,
        0,
        0,
        0,
        0,
        0,
        0,
        0,
        0,
        0,
        0,
        0,
        0,
        0,
        0,
        0,
        0,
        0,
        0,
        0,
        0,
        0,
        0,
        0,
        0,
        0,
        0,
        0,
        0,
        0,
        0,
        0,
        0,
        0,
        0,
        0,
        0,
        0,
        0,
        0,
        0,
        0,
        0,
        0,
        0,
        0,
        0,
        0,
        0,
        0,
        0,
        0,
        0,
        0,
        0,
        0,
        0,
        0,
        0,
        0,
        0,
        0,
        0,
        0,
        0,
        0,
        0,
        0,
        0,
        0,
        0,
        0,
        0,
        0,
        0,
        0,
        0,
        0,
        0,
        0,
        0,
        0,
        0,
        0,
        0,
        0,
        0,
        0,
        0,
        0,
        0,
        0,
        0,
        0,
        0,
        0,
        0,
        0,
        0,
        0,
        0,
        0,
        0,
        0,
        0,
        0,
        0,
        0,
        0,
        0,
        0,
        0,
        0,
        0,
        0,
        0,
        0,
        0,
        0,
        0,
        0,
        0,
        0,
        0,
        0,
        1,
        0,
        0,
        25,
        0,
        0,
        0,
        40,
        40,
        40,
        41,
        0,
        0,
        4,
        4,
        4,
        0,
        46,
        0,
        0,
        63,
        91,
        91,
        0,
        91,
        91,
        0,
        0,
        0,
        0,
        0,
        0,
        0,
        0,
        0,
        0,
        0,
        0,
        0,
        0,
        0,
        0,
        0,
        0,
        31,
        0,
        42,
        42,
        42,
        0,
        0,
        0,
        0,
        0,
        0,
        0,
        0,
        0,
        0,
        0,
        0,
        0,
        0,
        0,
        0,
        0,
        0,
        0,
        0,
        0,
        0,
        53,
        0,
        0,
        0,
        0,
        0,
        82,
        0,
        6,
        0,
        0,
        0,
        0,
        0,
        0,
        0,
        0,
        80,
        0,
        0,
        0,
        0,
        0,
        0,
        0,
        0,
        0,
        0,
        0,
        0,
        0,
        0,
        0,
        0,
        8,
        8,
        0,
        0,
        0,
        0,
        44,
        0,
        0,
        0,
        54,
        52,
        52,
        52,
        52,
        52,
        0,
        0,
        0,
        0,
        0,
        64,
        64,
        0,
        0,
        0,
        0,
        0,
        0,
        0,
        0,
        0,
        0,
        0,
        0,
        0,
        0,
        0,
        0,
        0,
        0,
        0,
        0,
        0,
        8,
        8,
        0,
        69,
        0,
        0,
        0,
        0,
        0,
        69,
        53,
        52,
        55,
        55,
        55,
        52,
        0,
        0,
        0,
        0,
        0,
        0,
        0,
        0,
        0,
        0,
        0,
        0,
        0,
        0,
        0,
        0,
        0,
        0,
        0,
        0,
        0,
        0,
        0,
        0,
        0,
        7,
        0,
        7,
        0,
        7,
        0,
        57,
        57,
        57,
        57,
        57,
        57,
        57,
        54,
        52,
        55,
        55,
        55,
        52,
        0,
        0,
        56,
        0,
        0,
        0,
        0,
        0,
        0,
        56,
        0,
        0,
        78,
        0,
        0,
        78,
        0,
        0,
        78,
        0,
        0,
        78,
        0,
        0,
        0,
        0,
        0,
        0,
        0,
        0,
        0,
        0,
        0,
        0,
        0,
        0,
        0,
        0,
        53,
        52,
        55,
        55,
        55,
        52,
        0,
        0,
        0,
        0,
        0,
        0,
        0,
        0,
        0,
        0,
        0,
        0,
        0,
        0,
        0,
        0,
        0,
        0,
        0,
        0,
        0,
        0,
        0,
        0,
        0,
        0,
        0,
        0,
        0,
        0,
        0,
        57,
        57,
        57,
        57,
        57,
        57,
        57,
        0,
        52,
        52,
        52,
        52,
        52,
        0,
        0,
        0,
        0,
        0,
        0,
        0,
        0,
        0,
        0,
        0,
        0,
        0,
        0,
        0,
        0,
        0,
        0,
        0,
        0,
        0,
        0,
        0,
        0,
        0,
        0,
        0,
        0,
        0,
        0,
        0,
        0,
        0,
        0,
        0,
        0,
        0,
        0,
        82,
        0,
        0,
        0,
        0,
        0,
        0,
        0,
        0,
        0,
        0,
        24,
        24,
        0,
        0,
        0,
        0,
        0,
        0,
        0,
        0,
        0,
        0,
        0,
        0,
        0,
        0,
        0,
        0,
        0,
        0,
        0,
        0,
        0,
        0,
        0,
        0,
        0,
        0,
        0,
        0,
        0,
        0,
        0,
        0,
        0,
        0,
        0,
        0,
        0,
        0
      ],
      "visible": true,
      "opacity": 1.0,
      "x": 0,
      "y": 0
    },
    {
      "id": 5,
      "name": "collision",
      "type": "tilelayer",
      "width": 44,
      "height": 32,
      "data": [
        123,
        123,
        123,
        123,
        123,
        123,
        123,
        123,
        123,
        123,
        123,
        123,
        123,
        123,
        123,
        123,
        123,
        123,
        123,
        123,
        123,
        123,
        123,
        123,
        123,
        123,
        123,
        123,
        123,
        123,
        123,
        123,
        123,
        123,
        123,
        123,
        123,
        123,
        123,
        123,
        123,
        123,
        123,
        123,
        123,
        0,
        0,
        0,
        0,
        0,
        0,
        0,
        0,
        123,
        0,
        0,
        0,
        0,
        123,
        0,
        0,
        0,
        0,
        123,
        0,
        123,
        0,
        0,
        0,
        0,
        123,
        123,
        0,
        0,
        0,
        123,
        0,
        0,
        123,
        0,
        123,
        0,
        123,
        0,
        123,
        0,
        123,
        123,
        123,
        0,
        0,
        0,
        123,
        0,
        0,
        0,
        123,
        123,
        123,
        0,
        0,
        0,
        0,
        0,
        0,
        0,
        0,
        123,
        0,
        0,
        0,
        0,
        0,
        0,
        0,
        123,
        0,
        0,
        0,
        0,
        0,
        0,
        123,
        0,
        0,
        0,
        0,
        0,
        0,
        0,
        0,
        123,
        123,
        0,
        0,
        0,
        0,
        0,
        0,
        0,
        0,
        123,
        0,
        0,
        0,
        0,
        123,
        123,
        0,
        0,
        0,
        123,
        0,
        0,
        0,
        0,
        0,
        0,
        0,
        123,
        0,
        0,
        0,
        0,
        0,
        0,
        123,
        0,
        0,
        0,
        0,
        0,
        0,
        0,
        0,
        123,
        123,
        0,
        0,
        0,
        0,
        0,
        0,
        0,
        0,
        123,
        123,
        0,
        0,
        0,
        123,
        123,
        0,
        0,
        0,
        123,
        0,
        0,
        0,
        0,
        0,
        0,
        0,
        123,
        0,
        0,
        0,
        0,
        0,
        0,
        123,
        0,
        0,
        0,
        0,
        0,
        0,
        0,
        0,
        123,
        123,
        0,
        0,
        0,
        0,
        0,
        0,
        0,
        0,
        123,
        0,
        0,
        0,
        0,
        0,
        0,
        0,
        0,
        0,
        123,
        0,
        0,
        0,
        0,
        0,
        0,
        0,
        123,
        0,
        0,
        0,
        0,
        0,
        0,
        123,
        0,
        0,
        0,
        0,
        0,
        0,
        0,
        123,
        123,
        123,
        0,
        0,
        0,
        0,
        0,
        0,
        0,
        0,
        123,
        123,
        0,
        0,
        0,
        0,
        0,
        0,
        0,
        0,
        123,
        0,
        0,
        0,
        0,
        0,
        0,
        0,
        123,
        0,
        0,
        0,
        0,
        0,
        0,
        123,
        0,
        0,
        0,
        0,
        0,
        0,
        0,
        0,
        123,
        123,
        123,
        123,
        123,
        123,
        0,
        123,
        123,
        123,
        123,
        123,
        123,
        123,
        123,
        123,
        0,
        123,
        123,
        123,
        123,
        123,
        123,
        123,
        0,
        123,
        123,
        123,
        123,
        123,
        123,
        123,
        0,
        123,
        123,
        123,
        123,
        123,
        123,
        123,
        0,
        123,
        123,
        123,
        123,
        123,
        0,
        0,
        0,
        0,
        0,
        0,
        0,
        0,
        0,
        0,
        0,
        0,
        0,
        0,
        0,
        0,
        0,
        0,
        0,
        0,
        0,
        0,
        0,
        0,
        0,
        0,
        0,
        0,
        0,
        0,
        0,
        0,
        0,
        0,
        0,
        0,
        0,
        0,
        0,
        0,
        0,
        0,
        123,
        123,
        0,
        0,
        0,
        0,
        0,
        0,
        0,
        0,
        0,
        0,
        0,
        0,
        0,
        0,
        0,
        0,
        0,
        0,
        0,
        0,
        0,
        0,
        0,
        0,
        0,
        0,
        0,
        0,
        0,
        0,
        0,
        0,
        0,
        0,
        0,
        0,
        0,
        0,
        0,
        0,
        0,
        0,
        123,
        123,
        123,
        123,
        123,
        0,
        123,
        123,
        123,
        123,
        123,
        123,
        123,
        0,
        123,
        123,
        123,
        123,
        123,
        123,
        0,
        123,
        123,
        123,
        123,
        123,
        0,
        123,
        123,
        123,
        0,
        123,
        123,
        123,
        0,
        123,
        123,
        123,
        123,
        123,
        0,
        123,
        123,
        123,
        123,
        123,
        0,
        0,
        0,
        0,
        0,
        0,
        0,
        123,
        0,
        0,
        0,
        0,
        0,
        123,
        123,
        0,
        0,
        0,
        0,
        0,
        0,
        0,
        123,
        0,
        0,
        0,
        123,
        0,
        0,
        0,
        123,
        0,
        0,
        123,
        123,
        0,
        0,
        0,
        123,
        0,
        0,
        0,
        123,
        123,
        123,
        0,
        0,
        0,
        0,
        0,
        0,
        123,
        0,
        0,
        0,
        0,
        0,
        0,
        123,
        123,
        0,
        0,
        0,
        0,
        0,
        0,
        123,
        0,
        0,
        123,
        123,
        0,
        0,
        123,
        123,
        0,
        0,
        0,
        123,
        0,
        0,
        0,
        123,
        0,
        0,
        0,
        123,
        123,
        0,
        0,
        0,
        0,
        0,
        0,
        0,
        123,
        0,
        0,
        0,
        0,
        0,
        0,
        123,
        0,
        0,
        0,
        0,
        0,
        0,
        123,
        123,
        0,
        0,
        0,
        123,
        0,
        0,
        123,
        123,
        0,
        0,
        0,
        123,
        0,
        0,
        0,
        0,
        0,
        0,
        0,
        123,
        123,
        123,
        0,
        0,
        0,
        0,
        0,
        0,
        123,
        0,
        0,
        0,
        0,
        0,
        123,
        123,
        123,
        0,
        0,
        0,
        0,
        0,
        0,
        0,
        0,
        0,
        0,
        0,
        0,
        0,
        0,
        0,
        0,
        0,
        123,
        0,
        0,
        0,
        0,
        0,
        0,
        0,
        0,
        123,
        123,
        0,
        0,
        0,
        0,
        0,
        0,
        0,
        123,
        0,
        0,
        0,
        0,
        0,
        0,
        123,
        0,
        0,
        0,
        0,
        0,
        0,
        0,
        123,
        0,
        0,
        0,
        123,
        0,
        0,
        0,
        123,
        0,
        0,
        123,
        123,
        0,
        0,
        0,
        0,
        0,
        0,
        0,
        123,
        123,
        123,
        0,
        0,
        0,
        0,
        0,
        123,
        123,
        0,
        0,
        0,
        0,
        0,
        0,
        123,
        123,
        0,
        0,
        0,
        0,
        0,
        0,
        123,
        0,
        0,
        123,
        123,
        0,
        0,
        0,
        123,
        123,
        0,
        123,
        123,
        123,
        0,
        0,
        0,
        0,
        0,
        123,
        123,
        123,
        0,
        0,
        0,
        0,
        0,
        0,
        0,
        123,
        0,
        0,
        0,
        0,
        0,
        0,
        123,
        0,
        0,
        0,
        0,
        0,
        0,
        123,
        123,
        0,
        0,
        0,
        123,
        0,
        0,
        0,
        123,
        0,
        0,
        0,
        123,
        123,
        0,
        0,
        0,
        0,
        0,
        123,
        123,
        123,
        0,
        0,
        0,
        0,
        0,
        0,
        0,
        123,
        0,
        0,
        0,
        0,
        0,
        0,
        123,
        123,
        0,
        0,
        0,
        0,
        0,
        0,
        123,
        0,
        0,
        0,
        123,
        0,
        0,
        0,
        123,
        123,
        0,
        0,
        123,
        123,
        0,
        0,
        0,
        0,
        0,
        123,
        123,
        123,
        123,
        123,
        123,
        0,
        123,
        123,
        123,
        123,
        123,
        123,
        123,
        0,
        123,
        123,
        123,
        123,
        123,
        123,
        0,
        123,
        123,
        123,
        123,
        123,
        0,
        123,
        123,
        123,
        0,
        123,
        123,
        123,
        0,
        123,
        123,
        123,
        123,
        123,
        0,
        123,
        123,
        123,
        123,
        123,
        0,
        0,
        0,
        0,
        0,
        0,
        0,
        0,
        0,
        0,
        0,
        0,
        0,
        0,
        0,
        0,
        0,
        0,
        0,
        0,
        0,
        0,
        0,
        0,
        0,
        0,
        0,
        0,
        0,
        0,
        0,
        0,
        0,
        0,
        0,
        0,
        0,
        0,
        0,
        0,
        0,
        0,
        123,
        123,
        0,
        0,
        0,
        0,
        0,
        0,
        0,
        0,
        0,
        0,
        0,
        0,
        0,
        0,
        0,
        0,
        0,
        0,
        0,
        0,
        0,
        0,
        0,
        0,
        0,
        0,
        0,
        0,
        0,
        0,
        0,
        0,
        0,
        0,
        0,
        0,
        0,
        0,
        0,
        0,
        0,
        0,
        123,
        123,
        0,
        0,
        0,
        0,
        0,
        0,
        0,
        0,
        0,
        0,
        0,
        0,
        0,
        0,
        0,
        0,
        0,
        0,
        0,
        0,
        0,
        0,
        0,
        0,
        0,
        0,
        0,
        0,
        123,
        123,
        123,
        123,
        0,
        123,
        123,
        123,
        0,
        0,
        0,
        0,
        0,
        0,
        123,
        123,
        0,
        0,
        0,
        0,
        0,
        0,
        0,
        0,
        0,
        123,
        0,
        0,
        123,
        0,
        0,
        0,
        0,
        0,
        0,
        0,
        0,
        0,
        123,
        123,
        123,
        0,
        123,
        0,
        123,
        123,
        123,
        123,
        0,
        123,
        123,
        123,
        0,
        0,
        0,
        0,
        0,
        0,
        123,
        123,
        0,
        0,
        0,
        0,
        0,
        0,
        0,
        0,
        0,
        123,
        0,
        123,
        123,
        123,
        0,
        0,
        0,
        0,
        0,
        0,
        0,
        0,
        0,
        0,
        0,
        0,
        0,
        0,
        123,
        0,
        0,
        0,
        0,
        0,
        0,
        123,
        0,
        0,
        0,
        0,
        0,
        0,
        123,
        123,
        0,
        0,
        0,
        0,
        0,
        0,
        0,
        0,
        0,
        0,
        0,
        0,
        0,
        0,
        0,
        0,
        0,
        0,
        0,
        0,
        0,
        0,
        0,
        0,
        0,
        0,
        123,
        123,
        123,
        0,
        0,
        0,
        123,
        0,
        0,
        123,
        0,
        0,
        0,
        0,
        0,
        0,
        123,
        123,
        0,
        0,
        0,
        123,
        123,
        0,
        0,
        0,
        0,
        0,
        0,
        0,
        0,
        0,
        0,
        0,
        0,
        0,
        0,
        0,
        0,
        0,
        0,
        0,
        0,
        0,
        123,
        123,
        0,
        0,
        0,
        0,
        0,
        0,
        0,
        123,
        0,
        0,
        0,
        0,
        0,
        0,
        123,
        123,
        0,
        0,
        0,
        0,
        0,
        0,
        0,
        0,
        0,
        0,
        0,
        0,
        0,
        0,
        0,
        0,
        0,
        0,
        0,
        0,
        0,
        0,
        0,
        0,
        0,
        0,
        0,
        0,
        123,
        0,
        0,
        0,
        0,
        0,
        0,
        0,
        0,
        0,
        0,
        0,
        0,
        0,
        123,
        123,
        123,
        0,
        0,
        0,
        0,
        0,
        0,
        123,
        0,
        0,
        123,
        0,
        0,
        123,
        0,
        0,
        123,
        0,
        0,
        123,
        0,
        0,
        0,
        0,
        0,
        0,
        0,
        0,
        123,
        0,
        0,
        0,
        0,
        0,
        0,
        123,
        0,
        0,
        0,
        0,
        0,
        0,
        123,
        123,
        0,
        0,
        0,
        0,
        0,
        0,
        0,
        0,
        0,
        0,
        0,
        0,
        0,
        0,
        0,
        0,
        0,
        0,
        0,
        0,
        0,
        0,
        0,
        0,
        0,
        0,
        0,
        0,
        123,
        0,
        0,
        0,
        0,
        0,
        0,
        0,
        0,
        0,
        0,
        0,
        0,
        0,
        123,
        123,
        0,
        0,
        0,
        0,
        0,
        0,
        0,
        0,
        0,
        0,
        0,
        0,
        0,
        0,
        0,
        0,
        0,
        0,
        0,
        0,
        0,
        0,
        0,
        0,
        0,
        0,
        0,
        0,
        123,
        0,
        0,
        0,
        0,
        0,
        0,
        123,
        0,
        0,
        0,
        0,
        0,
        0,
        123,
        123,
        123,
        123,
        123,
        0,
        123,
        123,
        123,
        123,
        123,
        123,
        123,
        123,
        123,
        123,
        123,
        123,
        123,
        123,
        123,
        123,
        123,
        123,
        123,
        123,
        123,
        123,
        123,
        123,
        123,
        123,
        123,
        123,
        123,
        123,
        123,
        123,
        123,
        123,
        123,
        123,
        123,
        123,
        123
      ],
      "visible": false,
      "opacity": 0.5,
      "x": 0,
      "y": 0
    },
    {
      "id": 6,
      "name": "slots",
      "type": "objectgroup",
      "objects": [
        {
          "id": 1,
          "name": "slot_z01_desk_jarvis",
          "type": "desk:jarvis",
          "point": true,
          "x": 144,
          "y": 112,
          "width": 0,
          "height": 0,
          "visible": true,
          "properties": [
            {
              "name": "type",
              "type": "string",
              "value": "desk:jarvis"
            },
            {
              "name": "capacity",
              "type": "int",
              "value": 1
            },
            {
              "name": "facing",
              "type": "string",
              "value": "SE"
            },
            {
              "name": "anim",
              "type": "string",
              "value": "sit_type"
            },
            {
              "name": "y_offset",
              "type": "int",
              "value": -6
            },
            {
              "name": "zone",
              "type": "string",
              "value": "Z01"
            },
            {
              "name": "gx",
              "type": "int",
              "value": 4
            },
            {
              "name": "gy",
              "type": "int",
              "value": 3
            }
          ]
        },
        {
          "id": 2,
          "name": "slot_z01_sofa_1",
          "type": "sofa",
          "point": true,
          "x": 48,
          "y": 176,
          "width": 0,
          "height": 0,
          "visible": true,
          "properties": [
            {
              "name": "type",
              "type": "string",
              "value": "sofa"
            },
            {
              "name": "capacity",
              "type": "int",
              "value": 1
            },
            {
              "name": "facing",
              "type": "string",
              "value": "SE"
            },
            {
              "name": "anim",
              "type": "string",
              "value": "sit_type"
            },
            {
              "name": "y_offset",
              "type": "int",
              "value": -4
            },
            {
              "name": "zone",
              "type": "string",
              "value": "Z01"
            },
            {
              "name": "gx",
              "type": "int",
              "value": 1
            },
            {
              "name": "gy",
              "type": "int",
              "value": 5
            }
          ]
        },
        {
          "id": 3,
          "name": "slot_z01_sofa_2",
          "type": "sofa",
          "point": true,
          "x": 80,
          "y": 176,
          "width": 0,
          "height": 0,
          "visible": true,
          "properties": [
            {
              "name": "type",
              "type": "string",
              "value": "sofa"
            },
            {
              "name": "capacity",
              "type": "int",
              "value": 1
            },
            {
              "name": "facing",
              "type": "string",
              "value": "SE"
            },
            {
              "name": "anim",
              "type": "string",
              "value": "sit_type"
            },
            {
              "name": "y_offset",
              "type": "int",
              "value": -4
            },
            {
              "name": "zone",
              "type": "string",
              "value": "Z01"
            },
            {
              "name": "gx",
              "type": "int",
              "value": 2
            },
            {
              "name": "gy",
              "type": "int",
              "value": 5
            }
          ]
        },
        {
          "id": 4,
          "name": "slot_z01_door_queue_1",
          "type": "door_queue",
          "point": true,
          "x": 144,
          "y": 208,
          "width": 0,
          "height": 0,
          "visible": true,
          "properties": [
            {
              "name": "type",
              "type": "string",
              "value": "door_queue"
            },
            {
              "name": "capacity",
              "type": "int",
              "value": 1
            },
            {
              "name": "facing",
              "type": "string",
              "value": "SE"
            },
            {
              "name": "anim",
              "type": "string",
              "value": "idle"
            },
            {
              "name": "y_offset",
              "type": "int",
              "value": 0
            },
            {
              "name": "zone",
              "type": "string",
              "value": "Z01"
            },
            {
              "name": "gx",
              "type": "int",
              "value": 4
            },
            {
              "name": "gy",
              "type": "int",
              "value": 6
            }
          ]
        },
        {
          "id": 5,
          "name": "slot_z01_door_queue_2",
          "type": "door_queue",
          "point": true,
          "x": 176,
          "y": 208,
          "width": 0,
          "height": 0,
          "visible": true,
          "properties": [
            {
              "name": "type",
              "type": "string",
              "value": "door_queue"
            },
            {
              "name": "capacity",
              "type": "int",
              "value": 1
            },
            {
              "name": "facing",
              "type": "string",
              "value": "SE"
            },
            {
              "name": "anim",
              "type": "string",
              "value": "idle"
            },
            {
              "name": "y_offset",
              "type": "int",
              "value": 0
            },
            {
              "name": "zone",
              "type": "string",
              "value": "Z01"
            },
            {
              "name": "gx",
              "type": "int",
              "value": 5
            },
            {
              "name": "gy",
              "type": "int",
              "value": 6
            }
          ]
        },
        {
          "id": 6,
          "name": "slot_z01_door_queue_3",
          "type": "door_queue",
          "point": true,
          "x": 208,
          "y": 208,
          "width": 0,
          "height": 0,
          "visible": true,
          "properties": [
            {
              "name": "type",
              "type": "string",
              "value": "door_queue"
            },
            {
              "name": "capacity",
              "type": "int",
              "value": 1
            },
            {
              "name": "facing",
              "type": "string",
              "value": "SE"
            },
            {
              "name": "anim",
              "type": "string",
              "value": "idle"
            },
            {
              "name": "y_offset",
              "type": "int",
              "value": 0
            },
            {
              "name": "zone",
              "type": "string",
              "value": "Z01"
            },
            {
              "name": "gx",
              "type": "int",
              "value": 6
            },
            {
              "name": "gy",
              "type": "int",
              "value": 6
            }
          ]
        },
        {
          "id": 7,
          "name": "slot_z02_presenter",
          "type": "presenter",
          "point": true,
          "x": 368,
          "y": 80,
          "width": 0,
          "height": 0,
          "visible": true,
          "properties": [
            {
              "name": "type",
              "type": "string",
              "value": "presenter"
            },
            {
              "name": "capacity",
              "type": "int",
              "value": 1
            },
            {
              "name": "facing",
              "type": "string",
              "value": "SW"
            },
            {
              "name": "anim",
              "type": "string",
              "value": "stand_talk"
            },
            {
              "name": "y_offset",
              "type": "int",
              "value": 0
            },
            {
              "name": "zone",
              "type": "string",
              "value": "Z02"
            },
            {
              "name": "gx",
              "type": "int",
              "value": 11
            },
            {
              "name": "gy",
              "type": "int",
              "value": 2
            }
          ]
        },
        {
          "id": 8,
          "name": "slot_z02_seat_1",
          "type": "meeting_seat",
          "point": true,
          "x": 432,
          "y": 80,
          "width": 0,
          "height": 0,
          "visible": true,
          "properties": [
            {
              "name": "type",
              "type": "string",
              "value": "meeting_seat"
            },
            {
              "name": "capacity",
              "type": "int",
              "value": 1
            },
            {
              "name": "facing",
              "type": "string",
              "value": "SE"
            },
            {
              "name": "anim",
              "type": "string",
              "value": "sit_type"
            },
            {
              "name": "y_offset",
              "type": "int",
              "value": -4
            },
            {
              "name": "zone",
              "type": "string",
              "value": "Z02"
            },
            {
              "name": "gx",
              "type": "int",
              "value": 13
            },
            {
              "name": "gy",
              "type": "int",
              "value": 2
            }
          ]
        },
        {
          "id": 9,
          "name": "slot_z02_seat_2",
          "type": "meeting_seat",
          "point": true,
          "x": 464,
          "y": 80,
          "width": 0,
          "height": 0,
          "visible": true,
          "properties": [
            {
              "name": "type",
              "type": "string",
              "value": "meeting_seat"
            },
            {
              "name": "capacity",
              "type": "int",
              "value": 1
            },
            {
              "name": "facing",
              "type": "string",
              "value": "SE"
            },
            {
              "name": "anim",
              "type": "string",
              "value": "sit_type"
            },
            {
              "name": "y_offset",
              "type": "int",
              "value": -4
            },
            {
              "name": "zone",
              "type": "string",
              "value": "Z02"
            },
            {
              "name": "gx",
              "type": "int",
              "value": 14
            },
            {
              "name": "gy",
              "type": "int",
              "value": 2
            }
          ]
        },
        {
          "id": 10,
          "name": "slot_z02_seat_3",
          "type": "meeting_seat",
          "point": true,
          "x": 496,
          "y": 80,
          "width": 0,
          "height": 0,
          "visible": true,
          "properties": [
            {
              "name": "type",
              "type": "string",
              "value": "meeting_seat"
            },
            {
              "name": "capacity",
              "type": "int",
              "value": 1
            },
            {
              "name": "facing",
              "type": "string",
              "value": "SE"
            },
            {
              "name": "anim",
              "type": "string",
              "value": "sit_type"
            },
            {
              "name": "y_offset",
              "type": "int",
              "value": -4
            },
            {
              "name": "zone",
              "type": "string",
              "value": "Z02"
            },
            {
              "name": "gx",
              "type": "int",
              "value": 15
            },
            {
              "name": "gy",
              "type": "int",
              "value": 2
            }
          ]
        },
        {
          "id": 11,
          "name": "slot_z02_seat_4",
          "type": "meeting_seat",
          "point": true,
          "x": 528,
          "y": 80,
          "width": 0,
          "height": 0,
          "visible": true,
          "properties": [
            {
              "name": "type",
              "type": "string",
              "value": "meeting_seat"
            },
            {
              "name": "capacity",
              "type": "int",
              "value": 1
            },
            {
              "name": "facing",
              "type": "string",
              "value": "SE"
            },
            {
              "name": "anim",
              "type": "string",
              "value": "sit_type"
            },
            {
              "name": "y_offset",
              "type": "int",
              "value": -4
            },
            {
              "name": "zone",
              "type": "string",
              "value": "Z02"
            },
            {
              "name": "gx",
              "type": "int",
              "value": 16
            },
            {
              "name": "gy",
              "type": "int",
              "value": 2
            }
          ]
        },
        {
          "id": 12,
          "name": "slot_z02_seat_5",
          "type": "meeting_seat",
          "point": true,
          "x": 400,
          "y": 112,
          "width": 0,
          "height": 0,
          "visible": true,
          "properties": [
            {
              "name": "type",
              "type": "string",
              "value": "meeting_seat"
            },
            {
              "name": "capacity",
              "type": "int",
              "value": 1
            },
            {
              "name": "facing",
              "type": "string",
              "value": "NE"
            },
            {
              "name": "anim",
              "type": "string",
              "value": "sit_type"
            },
            {
              "name": "y_offset",
              "type": "int",
              "value": -4
            },
            {
              "name": "zone",
              "type": "string",
              "value": "Z02"
            },
            {
              "name": "gx",
              "type": "int",
              "value": 12
            },
            {
              "name": "gy",
              "type": "int",
              "value": 3
            }
          ]
        },
        {
          "id": 13,
          "name": "slot_z02_seat_6",
          "type": "meeting_seat",
          "point": true,
          "x": 400,
          "y": 144,
          "width": 0,
          "height": 0,
          "visible": true,
          "properties": [
            {
              "name": "type",
              "type": "string",
              "value": "meeting_seat"
            },
            {
              "name": "capacity",
              "type": "int",
              "value": 1
            },
            {
              "name": "facing",
              "type": "string",
              "value": "NE"
            },
            {
              "name": "anim",
              "type": "string",
              "value": "sit_type"
            },
            {
              "name": "y_offset",
              "type": "int",
              "value": -4
            },
            {
              "name": "zone",
              "type": "string",
              "value": "Z02"
            },
            {
              "name": "gx",
              "type": "int",
              "value": 12
            },
            {
              "name": "gy",
              "type": "int",
              "value": 4
            }
          ]
        },
        {
          "id": 14,
          "name": "slot_z02_seat_7",
          "type": "meeting_seat",
          "point": true,
          "x": 560,
          "y": 112,
          "width": 0,
          "height": 0,
          "visible": true,
          "properties": [
            {
              "name": "type",
              "type": "string",
              "value": "meeting_seat"
            },
            {
              "name": "capacity",
              "type": "int",
              "value": 1
            },
            {
              "name": "facing",
              "type": "string",
              "value": "SW"
            },
            {
              "name": "anim",
              "type": "string",
              "value": "sit_type"
            },
            {
              "name": "y_offset",
              "type": "int",
              "value": -4
            },
            {
              "name": "zone",
              "type": "string",
              "value": "Z02"
            },
            {
              "name": "gx",
              "type": "int",
              "value": 17
            },
            {
              "name": "gy",
              "type": "int",
              "value": 3
            }
          ]
        },
        {
          "id": 15,
          "name": "slot_z02_seat_8",
          "type": "meeting_seat",
          "point": true,
          "x": 560,
          "y": 144,
          "width": 0,
          "height": 0,
          "visible": true,
          "properties": [
            {
              "name": "type",
              "type": "string",
              "value": "meeting_seat"
            },
            {
              "name": "capacity",
              "type": "int",
              "value": 1
            },
            {
              "name": "facing",
              "type": "string",
              "value": "SW"
            },
            {
              "name": "anim",
              "type": "string",
              "value": "sit_type"
            },
            {
              "name": "y_offset",
              "type": "int",
              "value": -4
            },
            {
              "name": "zone",
              "type": "string",
              "value": "Z02"
            },
            {
              "name": "gx",
              "type": "int",
              "value": 17
            },
            {
              "name": "gy",
              "type": "int",
              "value": 4
            }
          ]
        },
        {
          "id": 16,
          "name": "slot_z02_seat_9",
          "type": "meeting_seat",
          "point": true,
          "x": 432,
          "y": 176,
          "width": 0,
          "height": 0,
          "visible": true,
          "properties": [
            {
              "name": "type",
              "type": "string",
              "value": "meeting_seat"
            },
            {
              "name": "capacity",
              "type": "int",
              "value": 1
            },
            {
              "name": "facing",
              "type": "string",
              "value": "NW"
            },
            {
              "name": "anim",
              "type": "string",
              "value": "sit_type"
            },
            {
              "name": "y_offset",
              "type": "int",
              "value": -4
            },
            {
              "name": "zone",
              "type": "string",
              "value": "Z02"
            },
            {
              "name": "gx",
              "type": "int",
              "value": 13
            },
            {
              "name": "gy",
              "type": "int",
              "value": 5
            }
          ]
        },
        {
          "id": 17,
          "name": "slot_z02_seat_10",
          "type": "meeting_seat",
          "point": true,
          "x": 464,
          "y": 176,
          "width": 0,
          "height": 0,
          "visible": true,
          "properties": [
            {
              "name": "type",
              "type": "string",
              "value": "meeting_seat"
            },
            {
              "name": "capacity",
              "type": "int",
              "value": 1
            },
            {
              "name": "facing",
              "type": "string",
              "value": "NW"
            },
            {
              "name": "anim",
              "type": "string",
              "value": "sit_type"
            },
            {
              "name": "y_offset",
              "type": "int",
              "value": -4
            },
            {
              "name": "zone",
              "type": "string",
              "value": "Z02"
            },
            {
              "name": "gx",
              "type": "int",
              "value": 14
            },
            {
              "name": "gy",
              "type": "int",
              "value": 5
            }
          ]
        },
        {
          "id": 18,
          "name": "slot_z02_seat_11",
          "type": "meeting_seat",
          "point": true,
          "x": 496,
          "y": 176,
          "width": 0,
          "height": 0,
          "visible": true,
          "properties": [
            {
              "name": "type",
              "type": "string",
              "value": "meeting_seat"
            },
            {
              "name": "capacity",
              "type": "int",
              "value": 1
            },
            {
              "name": "facing",
              "type": "string",
              "value": "NW"
            },
            {
              "name": "anim",
              "type": "string",
              "value": "sit_type"
            },
            {
              "name": "y_offset",
              "type": "int",
              "value": -4
            },
            {
              "name": "zone",
              "type": "string",
              "value": "Z02"
            },
            {
              "name": "gx",
              "type": "int",
              "value": 15
            },
            {
              "name": "gy",
              "type": "int",
              "value": 5
            }
          ]
        },
        {
          "id": 19,
          "name": "slot_z02_seat_12",
          "type": "meeting_seat",
          "point": true,
          "x": 528,
          "y": 176,
          "width": 0,
          "height": 0,
          "visible": true,
          "properties": [
            {
              "name": "type",
              "type": "string",
              "value": "meeting_seat"
            },
            {
              "name": "capacity",
              "type": "int",
              "value": 1
            },
            {
              "name": "facing",
              "type": "string",
              "value": "NW"
            },
            {
              "name": "anim",
              "type": "string",
              "value": "sit_type"
            },
            {
              "name": "y_offset",
              "type": "int",
              "value": -4
            },
            {
              "name": "zone",
              "type": "string",
              "value": "Z02"
            },
            {
              "name": "gx",
              "type": "int",
              "value": 16
            },
            {
              "name": "gy",
              "type": "int",
              "value": 5
            }
          ]
        },
        {
          "id": 20,
          "name": "slot_z03_desk_daedalus",
          "type": "desk:daedalus",
          "point": true,
          "x": 752,
          "y": 112,
          "width": 0,
          "height": 0,
          "visible": true,
          "properties": [
            {
              "name": "type",
              "type": "string",
              "value": "desk:daedalus"
            },
            {
              "name": "capacity",
              "type": "int",
              "value": 1
            },
            {
              "name": "facing",
              "type": "string",
              "value": "SE"
            },
            {
              "name": "anim",
              "type": "string",
              "value": "sit_type"
            },
            {
              "name": "y_offset",
              "type": "int",
              "value": -6
            },
            {
              "name": "zone",
              "type": "string",
              "value": "Z03"
            },
            {
              "name": "gx",
              "type": "int",
              "value": 23
            },
            {
              "name": "gy",
              "type": "int",
              "value": 3
            }
          ]
        },
        {
          "id": 21,
          "name": "slot_z03_bp_1",
          "type": "blueprint_table",
          "point": true,
          "x": 688,
          "y": 176,
          "width": 0,
          "height": 0,
          "visible": true,
          "properties": [
            {
              "name": "type",
              "type": "string",
              "value": "blueprint_table"
            },
            {
              "name": "capacity",
              "type": "int",
              "value": 1
            },
            {
              "name": "facing",
              "type": "string",
              "value": "NE"
            },
            {
              "name": "anim",
              "type": "string",
              "value": "sit_type"
            },
            {
              "name": "y_offset",
              "type": "int",
              "value": -4
            },
            {
              "name": "zone",
              "type": "string",
              "value": "Z03"
            },
            {
              "name": "gx",
              "type": "int",
              "value": 21
            },
            {
              "name": "gy",
              "type": "int",
              "value": 5
            }
          ]
        },
        {
          "id": 22,
          "name": "slot_z03_bp_2",
          "type": "blueprint_table",
          "point": true,
          "x": 816,
          "y": 176,
          "width": 0,
          "height": 0,
          "visible": true,
          "properties": [
            {
              "name": "type",
              "type": "string",
              "value": "blueprint_table"
            },
            {
              "name": "capacity",
              "type": "int",
              "value": 1
            },
            {
              "name": "facing",
              "type": "string",
              "value": "NW"
            },
            {
              "name": "anim",
              "type": "string",
              "value": "sit_type"
            },
            {
              "name": "y_offset",
              "type": "int",
              "value": -4
            },
            {
              "name": "zone",
              "type": "string",
              "value": "Z03"
            },
            {
              "name": "gx",
              "type": "int",
              "value": 25
            },
            {
              "name": "gy",
              "type": "int",
              "value": 5
            }
          ]
        },
        {
          "id": 23,
          "name": "slot_z04_whiteboard",
          "type": "whiteboard",
          "point": true,
          "x": 1008,
          "y": 80,
          "width": 0,
          "height": 0,
          "visible": true,
          "properties": [
            {
              "name": "type",
              "type": "string",
              "value": "whiteboard"
            },
            {
              "name": "capacity",
              "type": "int",
              "value": 1
            },
            {
              "name": "facing",
              "type": "string",
              "value": "SW"
            },
            {
              "name": "anim",
              "type": "string",
              "value": "stand_talk"
            },
            {
              "name": "y_offset",
              "type": "int",
              "value": 0
            },
            {
              "name": "zone",
              "type": "string",
              "value": "Z04"
            },
            {
              "name": "gx",
              "type": "int",
              "value": 31
            },
            {
              "name": "gy",
              "type": "int",
              "value": 2
            }
          ]
        },
        {
          "id": 24,
          "name": "slot_z04_seat_1",
          "type": "class_seat",
          "point": true,
          "x": 944,
          "y": 144,
          "width": 0,
          "height": 0,
          "visible": true,
          "properties": [
            {
              "name": "type",
              "type": "string",
              "value": "class_seat"
            },
            {
              "name": "capacity",
              "type": "int",
              "value": 1
            },
            {
              "name": "facing",
              "type": "string",
              "value": "NE"
            },
            {
              "name": "anim",
              "type": "string",
              "value": "sit_type"
            },
            {
              "name": "y_offset",
              "type": "int",
              "value": -4
            },
            {
              "name": "zone",
              "type": "string",
              "value": "Z04"
            },
            {
              "name": "gx",
              "type": "int",
              "value": 29
            },
            {
              "name": "gy",
              "type": "int",
              "value": 4
            }
          ]
        },
        {
          "id": 25,
          "name": "slot_z04_seat_2",
          "type": "class_seat",
          "point": true,
          "x": 1008,
          "y": 144,
          "width": 0,
          "height": 0,
          "visible": true,
          "properties": [
            {
              "name": "type",
              "type": "string",
              "value": "class_seat"
            },
            {
              "name": "capacity",
              "type": "int",
              "value": 1
            },
            {
              "name": "facing",
              "type": "string",
              "value": "NE"
            },
            {
              "name": "anim",
              "type": "string",
              "value": "sit_type"
            },
            {
              "name": "y_offset",
              "type": "int",
              "value": -4
            },
            {
              "name": "zone",
              "type": "string",
              "value": "Z04"
            },
            {
              "name": "gx",
              "type": "int",
              "value": 31
            },
            {
              "name": "gy",
              "type": "int",
              "value": 4
            }
          ]
        },
        {
          "id": 26,
          "name": "slot_z04_seat_3",
          "type": "class_seat",
          "point": true,
          "x": 1072,
          "y": 144,
          "width": 0,
          "height": 0,
          "visible": true,
          "properties": [
            {
              "name": "type",
              "type": "string",
              "value": "class_seat"
            },
            {
              "name": "capacity",
              "type": "int",
              "value": 1
            },
            {
              "name": "facing",
              "type": "string",
              "value": "NE"
            },
            {
              "name": "anim",
              "type": "string",
              "value": "sit_type"
            },
            {
              "name": "y_offset",
              "type": "int",
              "value": -4
            },
            {
              "name": "zone",
              "type": "string",
              "value": "Z04"
            },
            {
              "name": "gx",
              "type": "int",
              "value": 33
            },
            {
              "name": "gy",
              "type": "int",
              "value": 4
            }
          ]
        },
        {
          "id": 27,
          "name": "slot_z04_seat_4",
          "type": "class_seat",
          "point": true,
          "x": 944,
          "y": 176,
          "width": 0,
          "height": 0,
          "visible": true,
          "properties": [
            {
              "name": "type",
              "type": "string",
              "value": "class_seat"
            },
            {
              "name": "capacity",
              "type": "int",
              "value": 1
            },
            {
              "name": "facing",
              "type": "string",
              "value": "NE"
            },
            {
              "name": "anim",
              "type": "string",
              "value": "sit_type"
            },
            {
              "name": "y_offset",
              "type": "int",
              "value": -4
            },
            {
              "name": "zone",
              "type": "string",
              "value": "Z04"
            },
            {
              "name": "gx",
              "type": "int",
              "value": 29
            },
            {
              "name": "gy",
              "type": "int",
              "value": 5
            }
          ]
        },
        {
          "id": 28,
          "name": "slot_z04_seat_5",
          "type": "class_seat",
          "point": true,
          "x": 1008,
          "y": 176,
          "width": 0,
          "height": 0,
          "visible": true,
          "properties": [
            {
              "name": "type",
              "type": "string",
              "value": "class_seat"
            },
            {
              "name": "capacity",
              "type": "int",
              "value": 1
            },
            {
              "name": "facing",
              "type": "string",
              "value": "NE"
            },
            {
              "name": "anim",
              "type": "string",
              "value": "sit_type"
            },
            {
              "name": "y_offset",
              "type": "int",
              "value": -4
            },
            {
              "name": "zone",
              "type": "string",
              "value": "Z04"
            },
            {
              "name": "gx",
              "type": "int",
              "value": 31
            },
            {
              "name": "gy",
              "type": "int",
              "value": 5
            }
          ]
        },
        {
          "id": 29,
          "name": "slot_z04_seat_6",
          "type": "class_seat",
          "point": true,
          "x": 1072,
          "y": 176,
          "width": 0,
          "height": 0,
          "visible": true,
          "properties": [
            {
              "name": "type",
              "type": "string",
              "value": "class_seat"
            },
            {
              "name": "capacity",
              "type": "int",
              "value": 1
            },
            {
              "name": "facing",
              "type": "string",
              "value": "NE"
            },
            {
              "name": "anim",
              "type": "string",
              "value": "sit_type"
            },
            {
              "name": "y_offset",
              "type": "int",
              "value": -4
            },
            {
              "name": "zone",
              "type": "string",
              "value": "Z04"
            },
            {
              "name": "gx",
              "type": "int",
              "value": 33
            },
            {
              "name": "gy",
              "type": "int",
              "value": 5
            }
          ]
        },
        {
          "id": 30,
          "name": "slot_z05_desk_scribe",
          "type": "desk:scribe",
          "point": true,
          "x": 1168,
          "y": 144,
          "width": 0,
          "height": 0,
          "visible": true,
          "properties": [
            {
              "name": "type",
              "type": "string",
              "value": "desk:scribe"
            },
            {
              "name": "capacity",
              "type": "int",
              "value": 1
            },
            {
              "name": "facing",
              "type": "string",
              "value": "SE"
            },
            {
              "name": "anim",
              "type": "string",
              "value": "sit_type"
            },
            {
              "name": "y_offset",
              "type": "int",
              "value": -6
            },
            {
              "name": "zone",
              "type": "string",
              "value": "Z05"
            },
            {
              "name": "gx",
              "type": "int",
              "value": 36
            },
            {
              "name": "gy",
              "type": "int",
              "value": 4
            }
          ]
        },
        {
          "id": 31,
          "name": "slot_z05_browse_1",
          "type": "bookshelf_browse",
          "point": true,
          "x": 1200,
          "y": 80,
          "width": 0,
          "height": 0,
          "visible": true,
          "properties": [
            {
              "name": "type",
              "type": "string",
              "value": "bookshelf_browse"
            },
            {
              "name": "capacity",
              "type": "int",
              "value": 1
            },
            {
              "name": "facing",
              "type": "string",
              "value": "NW"
            },
            {
              "name": "anim",
              "type": "string",
              "value": "idle"
            },
            {
              "name": "y_offset",
              "type": "int",
              "value": 0
            },
            {
              "name": "zone",
              "type": "string",
              "value": "Z05"
            },
            {
              "name": "gx",
              "type": "int",
              "value": 37
            },
            {
              "name": "gy",
              "type": "int",
              "value": 2
            }
          ]
        },
        {
          "id": 32,
          "name": "slot_z05_browse_2",
          "type": "bookshelf_browse",
          "point": true,
          "x": 1264,
          "y": 80,
          "width": 0,
          "height": 0,
          "visible": true,
          "properties": [
            {
              "name": "type",
              "type": "string",
              "value": "bookshelf_browse"
            },
            {
              "name": "capacity",
              "type": "int",
              "value": 1
            },
            {
              "name": "facing",
              "type": "string",
              "value": "NW"
            },
            {
              "name": "anim",
              "type": "string",
              "value": "idle"
            },
            {
              "name": "y_offset",
              "type": "int",
              "value": 0
            },
            {
              "name": "zone",
              "type": "string",
              "value": "Z05"
            },
            {
              "name": "gx",
              "type": "int",
              "value": 39
            },
            {
              "name": "gy",
              "type": "int",
              "value": 2
            }
          ]
        },
        {
          "id": 33,
          "name": "slot_z05_browse_3",
          "type": "bookshelf_browse",
          "point": true,
          "x": 1328,
          "y": 80,
          "width": 0,
          "height": 0,
          "visible": true,
          "properties": [
            {
              "name": "type",
              "type": "string",
              "value": "bookshelf_browse"
            },
            {
              "name": "capacity",
              "type": "int",
              "value": 1
            },
            {
              "name": "facing",
              "type": "string",
              "value": "NW"
            },
            {
              "name": "anim",
              "type": "string",
              "value": "idle"
            },
            {
              "name": "y_offset",
              "type": "int",
              "value": 0
            },
            {
              "name": "zone",
              "type": "string",
              "value": "Z05"
            },
            {
              "name": "gx",
              "type": "int",
              "value": 41
            },
            {
              "name": "gy",
              "type": "int",
              "value": 2
            }
          ]
        },
        {
          "id": 34,
          "name": "slot_z05_chair_1",
          "type": "reading_chair",
          "point": true,
          "x": 1296,
          "y": 144,
          "width": 0,
          "height": 0,
          "visible": true,
          "properties": [
            {
              "name": "type",
              "type": "string",
              "value": "reading_chair"
            },
            {
              "name": "capacity",
              "type": "int",
              "value": 1
            },
            {
              "name": "facing",
              "type": "string",
              "value": "SE"
            },
            {
              "name": "anim",
              "type": "string",
              "value": "sit_type"
            },
            {
              "name": "y_offset",
              "type": "int",
              "value": -4
            },
            {
              "name": "zone",
              "type": "string",
              "value": "Z05"
            },
            {
              "name": "gx",
              "type": "int",
              "value": 40
            },
            {
              "name": "gy",
              "type": "int",
              "value": 4
            }
          ]
        },
        {
          "id": 35,
          "name": "slot_z05_chair_2",
          "type": "reading_chair",
          "point": true,
          "x": 1328,
          "y": 144,
          "width": 0,
          "height": 0,
          "visible": true,
          "properties": [
            {
              "name": "type",
              "type": "string",
              "value": "reading_chair"
            },
            {
              "name": "capacity",
              "type": "int",
              "value": 1
            },
            {
              "name": "facing",
              "type": "string",
              "value": "SE"
            },
            {
              "name": "anim",
              "type": "string",
              "value": "sit_type"
            },
            {
              "name": "y_offset",
              "type": "int",
              "value": -4
            },
            {
              "name": "zone",
              "type": "string",
              "value": "Z05"
            },
            {
              "name": "gx",
              "type": "int",
              "value": 41
            },
            {
              "name": "gy",
              "type": "int",
              "value": 4
            }
          ]
        },
        {
          "id": 36,
          "name": "slot_z06_desk_oracle",
          "type": "desk:oracle",
          "point": true,
          "x": 208,
          "y": 432,
          "width": 0,
          "height": 0,
          "visible": true,
          "properties": [
            {
              "name": "type",
              "type": "string",
              "value": "desk:oracle"
            },
            {
              "name": "capacity",
              "type": "int",
              "value": 1
            },
            {
              "name": "facing",
              "type": "string",
              "value": "SE"
            },
            {
              "name": "anim",
              "type": "string",
              "value": "sit_type"
            },
            {
              "name": "y_offset",
              "type": "int",
              "value": -6
            },
            {
              "name": "zone",
              "type": "string",
              "value": "Z06"
            },
            {
              "name": "gx",
              "type": "int",
              "value": 6
            },
            {
              "name": "gy",
              "type": "int",
              "value": 13
            }
          ]
        },
        {
          "id": 37,
          "name": "slot_z06_bench_1",
          "type": "lab_bench",
          "point": true,
          "x": 80,
          "y": 432,
          "width": 0,
          "height": 0,
          "visible": true,
          "properties": [
            {
              "name": "type",
              "type": "string",
              "value": "lab_bench"
            },
            {
              "name": "capacity",
              "type": "int",
              "value": 1
            },
            {
              "name": "facing",
              "type": "string",
              "value": "NW"
            },
            {
              "name": "anim",
              "type": "string",
              "value": "stand_talk"
            },
            {
              "name": "y_offset",
              "type": "int",
              "value": 0
            },
            {
              "name": "zone",
              "type": "string",
              "value": "Z06"
            },
            {
              "name": "gx",
              "type": "int",
              "value": 2
            },
            {
              "name": "gy",
              "type": "int",
              "value": 13
            }
          ]
        },
        {
          "id": 38,
          "name": "slot_z06_bench_2",
          "type": "lab_bench",
          "point": true,
          "x": 80,
          "y": 560,
          "width": 0,
          "height": 0,
          "visible": true,
          "properties": [
            {
              "name": "type",
              "type": "string",
              "value": "lab_bench"
            },
            {
              "name": "capacity",
              "type": "int",
              "value": 1
            },
            {
              "name": "facing",
              "type": "string",
              "value": "NW"
            },
            {
              "name": "anim",
              "type": "string",
              "value": "stand_talk"
            },
            {
              "name": "y_offset",
              "type": "int",
              "value": 0
            },
            {
              "name": "zone",
              "type": "string",
              "value": "Z06"
            },
            {
              "name": "gx",
              "type": "int",
              "value": 2
            },
            {
              "name": "gy",
              "type": "int",
              "value": 17
            }
          ]
        },
        {
          "id": 39,
          "name": "slot_z06_whiteboard",
          "type": "whiteboard",
          "point": true,
          "x": 80,
          "y": 496,
          "width": 0,
          "height": 0,
          "visible": true,
          "properties": [
            {
              "name": "type",
              "type": "string",
              "value": "whiteboard"
            },
            {
              "name": "capacity",
              "type": "int",
              "value": 1
            },
            {
              "name": "facing",
              "type": "string",
              "value": "NW"
            },
            {
              "name": "anim",
              "type": "string",
              "value": "stand_talk"
            },
            {
              "name": "y_offset",
              "type": "int",
              "value": 0
            },
            {
              "name": "zone",
              "type": "string",
              "value": "Z06"
            },
            {
              "name": "gx",
              "type": "int",
              "value": 2
            },
            {
              "name": "gy",
              "type": "int",
              "value": 15
            }
          ]
        },
        {
          "id": 40,
          "name": "slot_z07_desk_muse",
          "type": "desk:muse",
          "point": true,
          "x": 336,
          "y": 432,
          "width": 0,
          "height": 0,
          "visible": true,
          "properties": [
            {
              "name": "type",
              "type": "string",
              "value": "desk:muse"
            },
            {
              "name": "capacity",
              "type": "int",
              "value": 1
            },
            {
              "name": "facing",
              "type": "string",
              "value": "SE"
            },
            {
              "name": "anim",
              "type": "string",
              "value": "sit_type"
            },
            {
              "name": "y_offset",
              "type": "int",
              "value": -6
            },
            {
              "name": "zone",
              "type": "string",
              "value": "Z07"
            },
            {
              "name": "gx",
              "type": "int",
              "value": 10
            },
            {
              "name": "gy",
              "type": "int",
              "value": 13
            }
          ]
        },
        {
          "id": 41,
          "name": "slot_z07_moodboard",
          "type": "moodboard",
          "point": true,
          "x": 432,
          "y": 464,
          "width": 0,
          "height": 0,
          "visible": true,
          "properties": [
            {
              "name": "type",
              "type": "string",
              "value": "moodboard"
            },
            {
              "name": "capacity",
              "type": "int",
              "value": 1
            },
            {
              "name": "facing",
              "type": "string",
              "value": "NE"
            },
            {
              "name": "anim",
              "type": "string",
              "value": "idle"
            },
            {
              "name": "y_offset",
              "type": "int",
              "value": 0
            },
            {
              "name": "zone",
              "type": "string",
              "value": "Z07"
            },
            {
              "name": "gx",
              "type": "int",
              "value": 13
            },
            {
              "name": "gy",
              "type": "int",
              "value": 14
            }
          ]
        },
        {
          "id": 42,
          "name": "slot_z08_desk_prism",
          "type": "desk:prism",
          "point": true,
          "x": 560,
          "y": 400,
          "width": 0,
          "height": 0,
          "visible": true,
          "properties": [
            {
              "name": "type",
              "type": "string",
              "value": "desk:prism"
            },
            {
              "name": "capacity",
              "type": "int",
              "value": 1
            },
            {
              "name": "facing",
              "type": "string",
              "value": "SE"
            },
            {
              "name": "anim",
              "type": "string",
              "value": "sit_type"
            },
            {
              "name": "y_offset",
              "type": "int",
              "value": -6
            },
            {
              "name": "zone",
              "type": "string",
              "value": "Z08"
            },
            {
              "name": "gx",
              "type": "int",
              "value": 17
            },
            {
              "name": "gy",
              "type": "int",
              "value": 12
            }
          ]
        },
        {
          "id": 43,
          "name": "slot_z08_desk_forge",
          "type": "desk:forge",
          "point": true,
          "x": 560,
          "y": 464,
          "width": 0,
          "height": 0,
          "visible": true,
          "properties": [
            {
              "name": "type",
              "type": "string",
              "value": "desk:forge"
            },
            {
              "name": "capacity",
              "type": "int",
              "value": 1
            },
            {
              "name": "facing",
              "type": "string",
              "value": "SE"
            },
            {
              "name": "anim",
              "type": "string",
              "value": "sit_type"
            },
            {
              "name": "y_offset",
              "type": "int",
              "value": -6
            },
            {
              "name": "zone",
              "type": "string",
              "value": "Z08"
            },
            {
              "name": "gx",
              "type": "int",
              "value": 17
            },
            {
              "name": "gy",
              "type": "int",
              "value": 14
            }
          ]
        },
        {
          "id": 44,
          "name": "slot_z08_desk_nova",
          "type": "desk:nova",
          "point": true,
          "x": 560,
          "y": 528,
          "width": 0,
          "height": 0,
          "visible": true,
          "properties": [
            {
              "name": "type",
              "type": "string",
              "value": "desk:nova"
            },
            {
              "name": "capacity",
              "type": "int",
              "value": 1
            },
            {
              "name": "facing",
              "type": "string",
              "value": "SE"
            },
            {
              "name": "anim",
              "type": "string",
              "value": "sit_type"
            },
            {
              "name": "y_offset",
              "type": "int",
              "value": -6
            },
            {
              "name": "zone",
              "type": "string",
              "value": "Z08"
            },
            {
              "name": "gx",
              "type": "int",
              "value": 17
            },
            {
              "name": "gy",
              "type": "int",
              "value": 16
            }
          ]
        },
        {
          "id": 45,
          "name": "slot_z08_desk_guest",
          "type": "desk:guest",
          "point": true,
          "x": 560,
          "y": 592,
          "width": 0,
          "height": 0,
          "visible": true,
          "properties": [
            {
              "name": "type",
              "type": "string",
              "value": "desk:guest"
            },
            {
              "name": "capacity",
              "type": "int",
              "value": 1
            },
            {
              "name": "facing",
              "type": "string",
              "value": "SE"
            },
            {
              "name": "anim",
              "type": "string",
              "value": "sit_type"
            },
            {
              "name": "y_offset",
              "type": "int",
              "value": -6
            },
            {
              "name": "zone",
              "type": "string",
              "value": "Z08"
            },
            {
              "name": "gx",
              "type": "int",
              "value": 17
            },
            {
              "name": "gy",
              "type": "int",
              "value": 18
            }
          ]
        },
        {
          "id": 46,
          "name": "slot_z08_pair_1",
          "type": "pair_stand",
          "point": true,
          "x": 688,
          "y": 432,
          "width": 0,
          "height": 0,
          "visible": true,
          "properties": [
            {
              "name": "type",
              "type": "string",
              "value": "pair_stand"
            },
            {
              "name": "capacity",
              "type": "int",
              "value": 1
            },
            {
              "name": "facing",
              "type": "string",
              "value": "NW"
            },
            {
              "name": "anim",
              "type": "string",
              "value": "stand_talk"
            },
            {
              "name": "y_offset",
              "type": "int",
              "value": 0
            },
            {
              "name": "zone",
              "type": "string",
              "value": "Z08"
            },
            {
              "name": "gx",
              "type": "int",
              "value": 21
            },
            {
              "name": "gy",
              "type": "int",
              "value": 13
            }
          ]
        },
        {
          "id": 47,
          "name": "slot_z08_pair_2",
          "type": "pair_stand",
          "point": true,
          "x": 688,
          "y": 560,
          "width": 0,
          "height": 0,
          "visible": true,
          "properties": [
            {
              "name": "type",
              "type": "string",
              "value": "pair_stand"
            },
            {
              "name": "capacity",
              "type": "int",
              "value": 1
            },
            {
              "name": "facing",
              "type": "string",
              "value": "NW"
            },
            {
              "name": "anim",
              "type": "string",
              "value": "stand_talk"
            },
            {
              "name": "y_offset",
              "type": "int",
              "value": 0
            },
            {
              "name": "zone",
              "type": "string",
              "value": "Z08"
            },
            {
              "name": "gx",
              "type": "int",
              "value": 21
            },
            {
              "name": "gy",
              "type": "int",
              "value": 17
            }
          ]
        },
        {
          "id": 48,
          "name": "slot_z09_desk_steward",
          "type": "desk:steward",
          "point": true,
          "x": 816,
          "y": 400,
          "width": 0,
          "height": 0,
          "visible": true,
          "properties": [
            {
              "name": "type",
              "type": "string",
              "value": "desk:steward"
            },
            {
              "name": "capacity",
              "type": "int",
              "value": 1
            },
            {
              "name": "facing",
              "type": "string",
              "value": "SE"
            },
            {
              "name": "anim",
              "type": "string",
              "value": "sit_type"
            },
            {
              "name": "y_offset",
              "type": "int",
              "value": -6
            },
            {
              "name": "zone",
              "type": "string",
              "value": "Z09"
            },
            {
              "name": "gx",
              "type": "int",
              "value": 25
            },
            {
              "name": "gy",
              "type": "int",
              "value": 12
            }
          ]
        },
        {
          "id": 49,
          "name": "slot_z09_tile_repair",
          "type": "tile_repair",
          "point": true,
          "x": 816,
          "y": 528,
          "width": 0,
          "height": 0,
          "visible": true,
          "properties": [
            {
              "name": "type",
              "type": "string",
              "value": "tile_repair"
            },
            {
              "name": "capacity",
              "type": "int",
              "value": 1
            },
            {
              "name": "facing",
              "type": "string",
              "value": "SE"
            },
            {
              "name": "anim",
              "type": "string",
              "value": "idle"
            },
            {
              "name": "y_offset",
              "type": "int",
              "value": 0
            },
            {
              "name": "zone",
              "type": "string",
              "value": "Z09"
            },
            {
              "name": "gx",
              "type": "int",
              "value": 25
            },
            {
              "name": "gy",
              "type": "int",
              "value": 16
            }
          ]
        },
        {
          "id": 50,
          "name": "slot_z10_desk_sentinel",
          "type": "desk:sentinel",
          "point": true,
          "x": 944,
          "y": 400,
          "width": 0,
          "height": 0,
          "visible": true,
          "properties": [
            {
              "name": "type",
              "type": "string",
              "value": "desk:sentinel"
            },
            {
              "name": "capacity",
              "type": "int",
              "value": 1
            },
            {
              "name": "facing",
              "type": "string",
              "value": "SE"
            },
            {
              "name": "anim",
              "type": "string",
              "value": "sit_type"
            },
            {
              "name": "y_offset",
              "type": "int",
              "value": -6
            },
            {
              "name": "zone",
              "type": "string",
              "value": "Z10"
            },
            {
              "name": "gx",
              "type": "int",
              "value": 29
            },
            {
              "name": "gy",
              "type": "int",
              "value": 12
            }
          ]
        },
        {
          "id": 51,
          "name": "slot_z10_inspect",
          "type": "inspect_stand",
          "point": true,
          "x": 944,
          "y": 528,
          "width": 0,
          "height": 0,
          "visible": true,
          "properties": [
            {
              "name": "type",
              "type": "string",
              "value": "inspect_stand"
            },
            {
              "name": "capacity",
              "type": "int",
              "value": 1
            },
            {
              "name": "facing",
              "type": "string",
              "value": "NE"
            },
            {
              "name": "anim",
              "type": "string",
              "value": "stand_talk"
            },
            {
              "name": "y_offset",
              "type": "int",
              "value": 0
            },
            {
              "name": "zone",
              "type": "string",
              "value": "Z10"
            },
            {
              "name": "gx",
              "type": "int",
              "value": 29
            },
            {
              "name": "gy",
              "type": "int",
              "value": 16
            }
          ]
        },
        {
          "id": 52,
          "name": "slot_z11_desk_relay",
          "type": "desk:relay",
          "point": true,
          "x": 1072,
          "y": 400,
          "width": 0,
          "height": 0,
          "visible": true,
          "properties": [
            {
              "name": "type",
              "type": "string",
              "value": "desk:relay"
            },
            {
              "name": "capacity",
              "type": "int",
              "value": 1
            },
            {
              "name": "facing",
              "type": "string",
              "value": "SE"
            },
            {
              "name": "anim",
              "type": "string",
              "value": "sit_type"
            },
            {
              "name": "y_offset",
              "type": "int",
              "value": -6
            },
            {
              "name": "zone",
              "type": "string",
              "value": "Z11"
            },
            {
              "name": "gx",
              "type": "int",
              "value": 33
            },
            {
              "name": "gy",
              "type": "int",
              "value": 12
            }
          ]
        },
        {
          "id": 53,
          "name": "slot_z11_parcel_1",
          "type": "parcel_rack",
          "point": true,
          "x": 1072,
          "y": 528,
          "width": 0,
          "height": 0,
          "visible": true,
          "properties": [
            {
              "name": "type",
              "type": "string",
              "value": "parcel_rack"
            },
            {
              "name": "capacity",
              "type": "int",
              "value": 1
            },
            {
              "name": "facing",
              "type": "string",
              "value": "NW"
            },
            {
              "name": "anim",
              "type": "string",
              "value": "idle"
            },
            {
              "name": "y_offset",
              "type": "int",
              "value": 0
            },
            {
              "name": "zone",
              "type": "string",
              "value": "Z11"
            },
            {
              "name": "gx",
              "type": "int",
              "value": 33
            },
            {
              "name": "gy",
              "type": "int",
              "value": 16
            }
          ]
        },
        {
          "id": 54,
          "name": "slot_z11_parcel_2",
          "type": "parcel_rack",
          "point": true,
          "x": 1072,
          "y": 592,
          "width": 0,
          "height": 0,
          "visible": true,
          "properties": [
            {
              "name": "type",
              "type": "string",
              "value": "parcel_rack"
            },
            {
              "name": "capacity",
              "type": "int",
              "value": 1
            },
            {
              "name": "facing",
              "type": "string",
              "value": "NW"
            },
            {
              "name": "anim",
              "type": "string",
              "value": "idle"
            },
            {
              "name": "y_offset",
              "type": "int",
              "value": 0
            },
            {
              "name": "zone",
              "type": "string",
              "value": "Z11"
            },
            {
              "name": "gx",
              "type": "int",
              "value": 33
            },
            {
              "name": "gy",
              "type": "int",
              "value": 18
            }
          ]
        },
        {
          "id": 55,
          "name": "slot_z12_desk_vector",
          "type": "desk:vector",
          "point": true,
          "x": 1200,
          "y": 432,
          "width": 0,
          "height": 0,
          "visible": true,
          "properties": [
            {
              "name": "type",
              "type": "string",
              "value": "desk:vector"
            },
            {
              "name": "capacity",
              "type": "int",
              "value": 1
            },
            {
              "name": "facing",
              "type": "string",
              "value": "SE"
            },
            {
              "name": "anim",
              "type": "string",
              "value": "sit_type"
            },
            {
              "name": "y_offset",
              "type": "int",
              "value": -6
            },
            {
              "name": "zone",
              "type": "string",
              "value": "Z12"
            },
            {
              "name": "gx",
              "type": "int",
              "value": 37
            },
            {
              "name": "gy",
              "type": "int",
              "value": 13
            }
          ]
        },
        {
          "id": 56,
          "name": "slot_z12_desk_bastion",
          "type": "desk:bastion",
          "point": true,
          "x": 1328,
          "y": 432,
          "width": 0,
          "height": 0,
          "visible": true,
          "properties": [
            {
              "name": "type",
              "type": "string",
              "value": "desk:bastion"
            },
            {
              "name": "capacity",
              "type": "int",
              "value": 1
            },
            {
              "name": "facing",
              "type": "string",
              "value": "SE"
            },
            {
              "name": "anim",
              "type": "string",
              "value": "sit_type"
            },
            {
              "name": "y_offset",
              "type": "int",
              "value": -6
            },
            {
              "name": "zone",
              "type": "string",
              "value": "Z12"
            },
            {
              "name": "gx",
              "type": "int",
              "value": 41
            },
            {
              "name": "gy",
              "type": "int",
              "value": 13
            }
          ]
        },
        {
          "id": 57,
          "name": "slot_z12_rack_1",
          "type": "rack_inspect",
          "point": true,
          "x": 1232,
          "y": 528,
          "width": 0,
          "height": 0,
          "visible": true,
          "properties": [
            {
              "name": "type",
              "type": "string",
              "value": "rack_inspect"
            },
            {
              "name": "capacity",
              "type": "int",
              "value": 1
            },
            {
              "name": "facing",
              "type": "string",
              "value": "NW"
            },
            {
              "name": "anim",
              "type": "string",
              "value": "idle"
            },
            {
              "name": "y_offset",
              "type": "int",
              "value": 0
            },
            {
              "name": "zone",
              "type": "string",
              "value": "Z12"
            },
            {
              "name": "gx",
              "type": "int",
              "value": 38
            },
            {
              "name": "gy",
              "type": "int",
              "value": 16
            }
          ]
        },
        {
          "id": 58,
          "name": "slot_z12_rack_2",
          "type": "rack_inspect",
          "point": true,
          "x": 1232,
          "y": 560,
          "width": 0,
          "height": 0,
          "visible": true,
          "properties": [
            {
              "name": "type",
              "type": "string",
              "value": "rack_inspect"
            },
            {
              "name": "capacity",
              "type": "int",
              "value": 1
            },
            {
              "name": "facing",
              "type": "string",
              "value": "NW"
            },
            {
              "name": "anim",
              "type": "string",
              "value": "idle"
            },
            {
              "name": "y_offset",
              "type": "int",
              "value": 0
            },
            {
              "name": "zone",
              "type": "string",
              "value": "Z12"
            },
            {
              "name": "gx",
              "type": "int",
              "value": 38
            },
            {
              "name": "gy",
              "type": "int",
              "value": 17
            }
          ]
        },
        {
          "id": 59,
          "name": "slot_z12_rack_3",
          "type": "rack_inspect",
          "point": true,
          "x": 1328,
          "y": 528,
          "width": 0,
          "height": 0,
          "visible": true,
          "properties": [
            {
              "name": "type",
              "type": "string",
              "value": "rack_inspect"
            },
            {
              "name": "capacity",
              "type": "int",
              "value": 1
            },
            {
              "name": "facing",
              "type": "string",
              "value": "NE"
            },
            {
              "name": "anim",
              "type": "string",
              "value": "idle"
            },
            {
              "name": "y_offset",
              "type": "int",
              "value": 0
            },
            {
              "name": "zone",
              "type": "string",
              "value": "Z12"
            },
            {
              "name": "gx",
              "type": "int",
              "value": 41
            },
            {
              "name": "gy",
              "type": "int",
              "value": 16
            }
          ]
        },
        {
          "id": 60,
          "name": "slot_z12_rack_4",
          "type": "rack_inspect",
          "point": true,
          "x": 1328,
          "y": 560,
          "width": 0,
          "height": 0,
          "visible": true,
          "properties": [
            {
              "name": "type",
              "type": "string",
              "value": "rack_inspect"
            },
            {
              "name": "capacity",
              "type": "int",
              "value": 1
            },
            {
              "name": "facing",
              "type": "string",
              "value": "NE"
            },
            {
              "name": "anim",
              "type": "string",
              "value": "idle"
            },
            {
              "name": "y_offset",
              "type": "int",
              "value": 0
            },
            {
              "name": "zone",
              "type": "string",
              "value": "Z12"
            },
            {
              "name": "gx",
              "type": "int",
              "value": 41
            },
            {
              "name": "gy",
              "type": "int",
              "value": 17
            }
          ]
        },
        {
          "id": 61,
          "name": "slot_z13_desk_warden",
          "type": "desk:warden",
          "point": true,
          "x": 144,
          "y": 816,
          "width": 0,
          "height": 0,
          "visible": true,
          "properties": [
            {
              "name": "type",
              "type": "string",
              "value": "desk:warden"
            },
            {
              "name": "capacity",
              "type": "int",
              "value": 1
            },
            {
              "name": "facing",
              "type": "string",
              "value": "SE"
            },
            {
              "name": "anim",
              "type": "string",
              "value": "sit_type"
            },
            {
              "name": "y_offset",
              "type": "int",
              "value": -6
            },
            {
              "name": "zone",
              "type": "string",
              "value": "Z13"
            },
            {
              "name": "gx",
              "type": "int",
              "value": 4
            },
            {
              "name": "gy",
              "type": "int",
              "value": 25
            }
          ]
        },
        {
          "id": 62,
          "name": "slot_z13_attendance",
          "type": "attendance_board",
          "point": true,
          "x": 80,
          "y": 816,
          "width": 0,
          "height": 0,
          "visible": true,
          "properties": [
            {
              "name": "type",
              "type": "string",
              "value": "attendance_board"
            },
            {
              "name": "capacity",
              "type": "int",
              "value": 1
            },
            {
              "name": "facing",
              "type": "string",
              "value": "NW"
            },
            {
              "name": "anim",
              "type": "string",
              "value": "stand_talk"
            },
            {
              "name": "y_offset",
              "type": "int",
              "value": 0
            },
            {
              "name": "zone",
              "type": "string",
              "value": "Z13"
            },
            {
              "name": "gx",
              "type": "int",
              "value": 2
            },
            {
              "name": "gy",
              "type": "int",
              "value": 25
            }
          ]
        },
        {
          "id": 63,
          "name": "slot_z13_spawn",
          "type": "spawn",
          "point": true,
          "x": 144,
          "y": 976,
          "width": 0,
          "height": 0,
          "visible": true,
          "properties": [
            {
              "name": "type",
              "type": "string",
              "value": "spawn"
            },
            {
              "name": "capacity",
              "type": "int",
              "value": 1
            },
            {
              "name": "facing",
              "type": "string",
              "value": "NE"
            },
            {
              "name": "anim",
              "type": "string",
              "value": "walk"
            },
            {
              "name": "y_offset",
              "type": "int",
              "value": 0
            },
            {
              "name": "zone",
              "type": "string",
              "value": "Z13"
            },
            {
              "name": "gx",
              "type": "int",
              "value": 4
            },
            {
              "name": "gy",
              "type": "int",
              "value": 30
            }
          ]
        },
        {
          "id": 64,
          "name": "slot_z14_seat_1",
          "type": "cafe_seat",
          "point": true,
          "x": 368,
          "y": 880,
          "width": 0,
          "height": 0,
          "visible": true,
          "properties": [
            {
              "name": "type",
              "type": "string",
              "value": "cafe_seat"
            },
            {
              "name": "capacity",
              "type": "int",
              "value": 1
            },
            {
              "name": "facing",
              "type": "string",
              "value": "SE"
            },
            {
              "name": "anim",
              "type": "string",
              "value": "sit_type"
            },
            {
              "name": "y_offset",
              "type": "int",
              "value": -4
            },
            {
              "name": "zone",
              "type": "string",
              "value": "Z14"
            },
            {
              "name": "gx",
              "type": "int",
              "value": 11
            },
            {
              "name": "gy",
              "type": "int",
              "value": 27
            }
          ]
        },
        {
          "id": 65,
          "name": "slot_z14_seat_2",
          "type": "cafe_seat",
          "point": true,
          "x": 368,
          "y": 944,
          "width": 0,
          "height": 0,
          "visible": true,
          "properties": [
            {
              "name": "type",
              "type": "string",
              "value": "cafe_seat"
            },
            {
              "name": "capacity",
              "type": "int",
              "value": 1
            },
            {
              "name": "facing",
              "type": "string",
              "value": "NW"
            },
            {
              "name": "anim",
              "type": "string",
              "value": "sit_type"
            },
            {
              "name": "y_offset",
              "type": "int",
              "value": -4
            },
            {
              "name": "zone",
              "type": "string",
              "value": "Z14"
            },
            {
              "name": "gx",
              "type": "int",
              "value": 11
            },
            {
              "name": "gy",
              "type": "int",
              "value": 29
            }
          ]
        },
        {
          "id": 66,
          "name": "slot_z14_seat_3",
          "type": "cafe_seat",
          "point": true,
          "x": 464,
          "y": 880,
          "width": 0,
          "height": 0,
          "visible": true,
          "properties": [
            {
              "name": "type",
              "type": "string",
              "value": "cafe_seat"
            },
            {
              "name": "capacity",
              "type": "int",
              "value": 1
            },
            {
              "name": "facing",
              "type": "string",
              "value": "SE"
            },
            {
              "name": "anim",
              "type": "string",
              "value": "sit_type"
            },
            {
              "name": "y_offset",
              "type": "int",
              "value": -4
            },
            {
              "name": "zone",
              "type": "string",
              "value": "Z14"
            },
            {
              "name": "gx",
              "type": "int",
              "value": 14
            },
            {
              "name": "gy",
              "type": "int",
              "value": 27
            }
          ]
        },
        {
          "id": 67,
          "name": "slot_z14_seat_4",
          "type": "cafe_seat",
          "point": true,
          "x": 464,
          "y": 944,
          "width": 0,
          "height": 0,
          "visible": true,
          "properties": [
            {
              "name": "type",
              "type": "string",
              "value": "cafe_seat"
            },
            {
              "name": "capacity",
              "type": "int",
              "value": 1
            },
            {
              "name": "facing",
              "type": "string",
              "value": "NW"
            },
            {
              "name": "anim",
              "type": "string",
              "value": "sit_type"
            },
            {
              "name": "y_offset",
              "type": "int",
              "value": -4
            },
            {
              "name": "zone",
              "type": "string",
              "value": "Z14"
            },
            {
              "name": "gx",
              "type": "int",
              "value": 14
            },
            {
              "name": "gy",
              "type": "int",
              "value": 29
            }
          ]
        },
        {
          "id": 68,
          "name": "slot_z14_seat_5",
          "type": "cafe_seat",
          "point": true,
          "x": 560,
          "y": 880,
          "width": 0,
          "height": 0,
          "visible": true,
          "properties": [
            {
              "name": "type",
              "type": "string",
              "value": "cafe_seat"
            },
            {
              "name": "capacity",
              "type": "int",
              "value": 1
            },
            {
              "name": "facing",
              "type": "string",
              "value": "SE"
            },
            {
              "name": "anim",
              "type": "string",
              "value": "sit_type"
            },
            {
              "name": "y_offset",
              "type": "int",
              "value": -4
            },
            {
              "name": "zone",
              "type": "string",
              "value": "Z14"
            },
            {
              "name": "gx",
              "type": "int",
              "value": 17
            },
            {
              "name": "gy",
              "type": "int",
              "value": 27
            }
          ]
        },
        {
          "id": 69,
          "name": "slot_z14_seat_6",
          "type": "cafe_seat",
          "point": true,
          "x": 560,
          "y": 944,
          "width": 0,
          "height": 0,
          "visible": true,
          "properties": [
            {
              "name": "type",
              "type": "string",
              "value": "cafe_seat"
            },
            {
              "name": "capacity",
              "type": "int",
              "value": 1
            },
            {
              "name": "facing",
              "type": "string",
              "value": "NW"
            },
            {
              "name": "anim",
              "type": "string",
              "value": "sit_type"
            },
            {
              "name": "y_offset",
              "type": "int",
              "value": -4
            },
            {
              "name": "zone",
              "type": "string",
              "value": "Z14"
            },
            {
              "name": "gx",
              "type": "int",
              "value": 17
            },
            {
              "name": "gy",
              "type": "int",
              "value": 29
            }
          ]
        },
        {
          "id": 70,
          "name": "slot_z14_seat_7",
          "type": "cafe_seat",
          "point": true,
          "x": 656,
          "y": 880,
          "width": 0,
          "height": 0,
          "visible": true,
          "properties": [
            {
              "name": "type",
              "type": "string",
              "value": "cafe_seat"
            },
            {
              "name": "capacity",
              "type": "int",
              "value": 1
            },
            {
              "name": "facing",
              "type": "string",
              "value": "SE"
            },
            {
              "name": "anim",
              "type": "string",
              "value": "sit_type"
            },
            {
              "name": "y_offset",
              "type": "int",
              "value": -4
            },
            {
              "name": "zone",
              "type": "string",
              "value": "Z14"
            },
            {
              "name": "gx",
              "type": "int",
              "value": 20
            },
            {
              "name": "gy",
              "type": "int",
              "value": 27
            }
          ]
        },
        {
          "id": 71,
          "name": "slot_z14_seat_8",
          "type": "cafe_seat",
          "point": true,
          "x": 656,
          "y": 944,
          "width": 0,
          "height": 0,
          "visible": true,
          "properties": [
            {
              "name": "type",
              "type": "string",
              "value": "cafe_seat"
            },
            {
              "name": "capacity",
              "type": "int",
              "value": 1
            },
            {
              "name": "facing",
              "type": "string",
              "value": "NW"
            },
            {
              "name": "anim",
              "type": "string",
              "value": "sit_type"
            },
            {
              "name": "y_offset",
              "type": "int",
              "value": -4
            },
            {
              "name": "zone",
              "type": "string",
              "value": "Z14"
            },
            {
              "name": "gx",
              "type": "int",
              "value": 20
            },
            {
              "name": "gy",
              "type": "int",
              "value": 29
            }
          ]
        },
        {
          "id": 72,
          "name": "slot_z14_queue_1",
          "type": "counter_queue",
          "point": true,
          "x": 400,
          "y": 816,
          "width": 0,
          "height": 0,
          "visible": true,
          "properties": [
            {
              "name": "type",
              "type": "string",
              "value": "counter_queue"
            },
            {
              "name": "capacity",
              "type": "int",
              "value": 1
            },
            {
              "name": "facing",
              "type": "string",
              "value": "NW"
            },
            {
              "name": "anim",
              "type": "string",
              "value": "stand_talk"
            },
            {
              "name": "y_offset",
              "type": "int",
              "value": 0
            },
            {
              "name": "zone",
              "type": "string",
              "value": "Z14"
            },
            {
              "name": "gx",
              "type": "int",
              "value": 12
            },
            {
              "name": "gy",
              "type": "int",
              "value": 25
            }
          ]
        },
        {
          "id": 73,
          "name": "slot_z14_queue_2",
          "type": "counter_queue",
          "point": true,
          "x": 432,
          "y": 816,
          "width": 0,
          "height": 0,
          "visible": true,
          "properties": [
            {
              "name": "type",
              "type": "string",
              "value": "counter_queue"
            },
            {
              "name": "capacity",
              "type": "int",
              "value": 1
            },
            {
              "name": "facing",
              "type": "string",
              "value": "NW"
            },
            {
              "name": "anim",
              "type": "string",
              "value": "stand_talk"
            },
            {
              "name": "y_offset",
              "type": "int",
              "value": 0
            },
            {
              "name": "zone",
              "type": "string",
              "value": "Z14"
            },
            {
              "name": "gx",
              "type": "int",
              "value": 13
            },
            {
              "name": "gy",
              "type": "int",
              "value": 25
            }
          ]
        },
        {
          "id": 74,
          "name": "slot_z14_queue_3",
          "type": "counter_queue",
          "point": true,
          "x": 464,
          "y": 816,
          "width": 0,
          "height": 0,
          "visible": true,
          "properties": [
            {
              "name": "type",
              "type": "string",
              "value": "counter_queue"
            },
            {
              "name": "capacity",
              "type": "int",
              "value": 1
            },
            {
              "name": "facing",
              "type": "string",
              "value": "NW"
            },
            {
              "name": "anim",
              "type": "string",
              "value": "stand_talk"
            },
            {
              "name": "y_offset",
              "type": "int",
              "value": 0
            },
            {
              "name": "zone",
              "type": "string",
              "value": "Z14"
            },
            {
              "name": "gx",
              "type": "int",
              "value": 14
            },
            {
              "name": "gy",
              "type": "int",
              "value": 25
            }
          ]
        },
        {
          "id": 75,
          "name": "slot_z14_sofa_1",
          "type": "lounge_sofa",
          "point": true,
          "x": 560,
          "y": 784,
          "width": 0,
          "height": 0,
          "visible": true,
          "properties": [
            {
              "name": "type",
              "type": "string",
              "value": "lounge_sofa"
            },
            {
              "name": "capacity",
              "type": "int",
              "value": 1
            },
            {
              "name": "facing",
              "type": "string",
              "value": "SE"
            },
            {
              "name": "anim",
              "type": "string",
              "value": "sit_type"
            },
            {
              "name": "y_offset",
              "type": "int",
              "value": -4
            },
            {
              "name": "zone",
              "type": "string",
              "value": "Z14"
            },
            {
              "name": "gx",
              "type": "int",
              "value": 17
            },
            {
              "name": "gy",
              "type": "int",
              "value": 24
            }
          ]
        },
        {
          "id": 76,
          "name": "slot_z14_sofa_2",
          "type": "lounge_sofa",
          "point": true,
          "x": 592,
          "y": 784,
          "width": 0,
          "height": 0,
          "visible": true,
          "properties": [
            {
              "name": "type",
              "type": "string",
              "value": "lounge_sofa"
            },
            {
              "name": "capacity",
              "type": "int",
              "value": 1
            },
            {
              "name": "facing",
              "type": "string",
              "value": "SE"
            },
            {
              "name": "anim",
              "type": "string",
              "value": "sit_type"
            },
            {
              "name": "y_offset",
              "type": "int",
              "value": -4
            },
            {
              "name": "zone",
              "type": "string",
              "value": "Z14"
            },
            {
              "name": "gx",
              "type": "int",
              "value": 18
            },
            {
              "name": "gy",
              "type": "int",
              "value": 24
            }
          ]
        },
        {
          "id": 77,
          "name": "slot_z14_sofa_3",
          "type": "lounge_sofa",
          "point": true,
          "x": 624,
          "y": 784,
          "width": 0,
          "height": 0,
          "visible": true,
          "properties": [
            {
              "name": "type",
              "type": "string",
              "value": "lounge_sofa"
            },
            {
              "name": "capacity",
              "type": "int",
              "value": 1
            },
            {
              "name": "facing",
              "type": "string",
              "value": "SE"
            },
            {
              "name": "anim",
              "type": "string",
              "value": "sit_type"
            },
            {
              "name": "y_offset",
              "type": "int",
              "value": -4
            },
            {
              "name": "zone",
              "type": "string",
              "value": "Z14"
            },
            {
              "name": "gx",
              "type": "int",
              "value": 19
            },
            {
              "name": "gy",
              "type": "int",
              "value": 24
            }
          ]
        },
        {
          "id": 78,
          "name": "slot_z14_sofa_4",
          "type": "lounge_sofa",
          "point": true,
          "x": 656,
          "y": 784,
          "width": 0,
          "height": 0,
          "visible": true,
          "properties": [
            {
              "name": "type",
              "type": "string",
              "value": "lounge_sofa"
            },
            {
              "name": "capacity",
              "type": "int",
              "value": 1
            },
            {
              "name": "facing",
              "type": "string",
              "value": "SE"
            },
            {
              "name": "anim",
              "type": "string",
              "value": "sit_type"
            },
            {
              "name": "y_offset",
              "type": "int",
              "value": -4
            },
            {
              "name": "zone",
              "type": "string",
              "value": "Z14"
            },
            {
              "name": "gx",
              "type": "int",
              "value": 20
            },
            {
              "name": "gy",
              "type": "int",
              "value": 24
            }
          ]
        },
        {
          "id": 79,
          "name": "slot_z15_arcade_1",
          "type": "arcade",
          "point": true,
          "x": 752,
          "y": 784,
          "width": 0,
          "height": 0,
          "visible": true,
          "properties": [
            {
              "name": "type",
              "type": "string",
              "value": "arcade"
            },
            {
              "name": "capacity",
              "type": "int",
              "value": 1
            },
            {
              "name": "facing",
              "type": "string",
              "value": "NW"
            },
            {
              "name": "anim",
              "type": "string",
              "value": "stand_talk"
            },
            {
              "name": "y_offset",
              "type": "int",
              "value": 0
            },
            {
              "name": "zone",
              "type": "string",
              "value": "Z15"
            },
            {
              "name": "gx",
              "type": "int",
              "value": 23
            },
            {
              "name": "gy",
              "type": "int",
              "value": 24
            }
          ]
        },
        {
          "id": 80,
          "name": "slot_z15_arcade_2",
          "type": "arcade",
          "point": true,
          "x": 784,
          "y": 784,
          "width": 0,
          "height": 0,
          "visible": true,
          "properties": [
            {
              "name": "type",
              "type": "string",
              "value": "arcade"
            },
            {
              "name": "capacity",
              "type": "int",
              "value": 1
            },
            {
              "name": "facing",
              "type": "string",
              "value": "NW"
            },
            {
              "name": "anim",
              "type": "string",
              "value": "stand_talk"
            },
            {
              "name": "y_offset",
              "type": "int",
              "value": 0
            },
            {
              "name": "zone",
              "type": "string",
              "value": "Z15"
            },
            {
              "name": "gx",
              "type": "int",
              "value": 24
            },
            {
              "name": "gy",
              "type": "int",
              "value": 24
            }
          ]
        },
        {
          "id": 81,
          "name": "slot_z15_arcade_3",
          "type": "arcade",
          "point": true,
          "x": 816,
          "y": 784,
          "width": 0,
          "height": 0,
          "visible": true,
          "properties": [
            {
              "name": "type",
              "type": "string",
              "value": "arcade"
            },
            {
              "name": "capacity",
              "type": "int",
              "value": 1
            },
            {
              "name": "facing",
              "type": "string",
              "value": "NW"
            },
            {
              "name": "anim",
              "type": "string",
              "value": "stand_talk"
            },
            {
              "name": "y_offset",
              "type": "int",
              "value": 0
            },
            {
              "name": "zone",
              "type": "string",
              "value": "Z15"
            },
            {
              "name": "gx",
              "type": "int",
              "value": 25
            },
            {
              "name": "gy",
              "type": "int",
              "value": 24
            }
          ]
        },
        {
          "id": 82,
          "name": "slot_z15_billiard_1",
          "type": "billiard",
          "point": true,
          "x": 848,
          "y": 816,
          "width": 0,
          "height": 0,
          "visible": true,
          "properties": [
            {
              "name": "type",
              "type": "string",
              "value": "billiard"
            },
            {
              "name": "capacity",
              "type": "int",
              "value": 1
            },
            {
              "name": "facing",
              "type": "string",
              "value": "SE"
            },
            {
              "name": "anim",
              "type": "string",
              "value": "stand_talk"
            },
            {
              "name": "y_offset",
              "type": "int",
              "value": 0
            },
            {
              "name": "zone",
              "type": "string",
              "value": "Z15"
            },
            {
              "name": "gx",
              "type": "int",
              "value": 26
            },
            {
              "name": "gy",
              "type": "int",
              "value": 25
            }
          ]
        },
        {
          "id": 83,
          "name": "slot_z15_billiard_2",
          "type": "billiard",
          "point": true,
          "x": 944,
          "y": 848,
          "width": 0,
          "height": 0,
          "visible": true,
          "properties": [
            {
              "name": "type",
              "type": "string",
              "value": "billiard"
            },
            {
              "name": "capacity",
              "type": "int",
              "value": 1
            },
            {
              "name": "facing",
              "type": "string",
              "value": "NW"
            },
            {
              "name": "anim",
              "type": "string",
              "value": "stand_talk"
            },
            {
              "name": "y_offset",
              "type": "int",
              "value": 0
            },
            {
              "name": "zone",
              "type": "string",
              "value": "Z15"
            },
            {
              "name": "gx",
              "type": "int",
              "value": 29
            },
            {
              "name": "gy",
              "type": "int",
              "value": 26
            }
          ]
        },
        {
          "id": 84,
          "name": "slot_z15_beanbag_1",
          "type": "beanbag",
          "point": true,
          "x": 784,
          "y": 912,
          "width": 0,
          "height": 0,
          "visible": true,
          "properties": [
            {
              "name": "type",
              "type": "string",
              "value": "beanbag"
            },
            {
              "name": "capacity",
              "type": "int",
              "value": 1
            },
            {
              "name": "facing",
              "type": "string",
              "value": "SE"
            },
            {
              "name": "anim",
              "type": "string",
              "value": "sit_type"
            },
            {
              "name": "y_offset",
              "type": "int",
              "value": -4
            },
            {
              "name": "zone",
              "type": "string",
              "value": "Z15"
            },
            {
              "name": "gx",
              "type": "int",
              "value": 24
            },
            {
              "name": "gy",
              "type": "int",
              "value": 28
            }
          ]
        },
        {
          "id": 85,
          "name": "slot_z15_beanbag_2",
          "type": "beanbag",
          "point": true,
          "x": 848,
          "y": 912,
          "width": 0,
          "height": 0,
          "visible": true,
          "properties": [
            {
              "name": "type",
              "type": "string",
              "value": "beanbag"
            },
            {
              "name": "capacity",
              "type": "int",
              "value": 1
            },
            {
              "name": "facing",
              "type": "string",
              "value": "SE"
            },
            {
              "name": "anim",
              "type": "string",
              "value": "sit_type"
            },
            {
              "name": "y_offset",
              "type": "int",
              "value": -4
            },
            {
              "name": "zone",
              "type": "string",
              "value": "Z15"
            },
            {
              "name": "gx",
              "type": "int",
              "value": 26
            },
            {
              "name": "gy",
              "type": "int",
              "value": 28
            }
          ]
        },
        {
          "id": 86,
          "name": "slot_z15_beanbag_3",
          "type": "beanbag",
          "point": true,
          "x": 912,
          "y": 912,
          "width": 0,
          "height": 0,
          "visible": true,
          "properties": [
            {
              "name": "type",
              "type": "string",
              "value": "beanbag"
            },
            {
              "name": "capacity",
              "type": "int",
              "value": 1
            },
            {
              "name": "facing",
              "type": "string",
              "value": "SE"
            },
            {
              "name": "anim",
              "type": "string",
              "value": "sit_type"
            },
            {
              "name": "y_offset",
              "type": "int",
              "value": -4
            },
            {
              "name": "zone",
              "type": "string",
              "value": "Z15"
            },
            {
              "name": "gx",
              "type": "int",
              "value": 28
            },
            {
              "name": "gy",
              "type": "int",
              "value": 28
            }
          ]
        },
        {
          "id": 87,
          "name": "slot_z16_imam",
          "type": "imam",
          "point": true,
          "x": 1072,
          "y": 848,
          "width": 0,
          "height": 0,
          "visible": true,
          "properties": [
            {
              "name": "type",
              "type": "string",
              "value": "imam"
            },
            {
              "name": "capacity",
              "type": "int",
              "value": 1
            },
            {
              "name": "facing",
              "type": "string",
              "value": "NW"
            },
            {
              "name": "anim",
              "type": "string",
              "value": "pray"
            },
            {
              "name": "y_offset",
              "type": "int",
              "value": 0
            },
            {
              "name": "zone",
              "type": "string",
              "value": "Z16"
            },
            {
              "name": "gx",
              "type": "int",
              "value": 33
            },
            {
              "name": "gy",
              "type": "int",
              "value": 26
            }
          ]
        },
        {
          "id": 88,
          "name": "slot_z16_shaf1_1",
          "type": "prayer_row",
          "point": true,
          "x": 976,
          "y": 880,
          "width": 0,
          "height": 0,
          "visible": true,
          "properties": [
            {
              "name": "type",
              "type": "string",
              "value": "prayer_row"
            },
            {
              "name": "capacity",
              "type": "int",
              "value": 1
            },
            {
              "name": "facing",
              "type": "string",
              "value": "NW"
            },
            {
              "name": "anim",
              "type": "string",
              "value": "pray"
            },
            {
              "name": "y_offset",
              "type": "int",
              "value": 0
            },
            {
              "name": "zone",
              "type": "string",
              "value": "Z16"
            },
            {
              "name": "gx",
              "type": "int",
              "value": 30
            },
            {
              "name": "gy",
              "type": "int",
              "value": 27
            }
          ]
        },
        {
          "id": 89,
          "name": "slot_z16_shaf1_2",
          "type": "prayer_row",
          "point": true,
          "x": 1008,
          "y": 880,
          "width": 0,
          "height": 0,
          "visible": true,
          "properties": [
            {
              "name": "type",
              "type": "string",
              "value": "prayer_row"
            },
            {
              "name": "capacity",
              "type": "int",
              "value": 1
            },
            {
              "name": "facing",
              "type": "string",
              "value": "NW"
            },
            {
              "name": "anim",
              "type": "string",
              "value": "pray"
            },
            {
              "name": "y_offset",
              "type": "int",
              "value": 0
            },
            {
              "name": "zone",
              "type": "string",
              "value": "Z16"
            },
            {
              "name": "gx",
              "type": "int",
              "value": 31
            },
            {
              "name": "gy",
              "type": "int",
              "value": 27
            }
          ]
        },
        {
          "id": 90,
          "name": "slot_z16_shaf1_3",
          "type": "prayer_row",
          "point": true,
          "x": 1040,
          "y": 880,
          "width": 0,
          "height": 0,
          "visible": true,
          "properties": [
            {
              "name": "type",
              "type": "string",
              "value": "prayer_row"
            },
            {
              "name": "capacity",
              "type": "int",
              "value": 1
            },
            {
              "name": "facing",
              "type": "string",
              "value": "NW"
            },
            {
              "name": "anim",
              "type": "string",
              "value": "pray"
            },
            {
              "name": "y_offset",
              "type": "int",
              "value": 0
            },
            {
              "name": "zone",
              "type": "string",
              "value": "Z16"
            },
            {
              "name": "gx",
              "type": "int",
              "value": 32
            },
            {
              "name": "gy",
              "type": "int",
              "value": 27
            }
          ]
        },
        {
          "id": 91,
          "name": "slot_z16_shaf1_4",
          "type": "prayer_row",
          "point": true,
          "x": 1072,
          "y": 880,
          "width": 0,
          "height": 0,
          "visible": true,
          "properties": [
            {
              "name": "type",
              "type": "string",
              "value": "prayer_row"
            },
            {
              "name": "capacity",
              "type": "int",
              "value": 1
            },
            {
              "name": "facing",
              "type": "string",
              "value": "NW"
            },
            {
              "name": "anim",
              "type": "string",
              "value": "pray"
            },
            {
              "name": "y_offset",
              "type": "int",
              "value": 0
            },
            {
              "name": "zone",
              "type": "string",
              "value": "Z16"
            },
            {
              "name": "gx",
              "type": "int",
              "value": 33
            },
            {
              "name": "gy",
              "type": "int",
              "value": 27
            }
          ]
        },
        {
          "id": 92,
          "name": "slot_z16_shaf1_5",
          "type": "prayer_row",
          "point": true,
          "x": 1104,
          "y": 880,
          "width": 0,
          "height": 0,
          "visible": true,
          "properties": [
            {
              "name": "type",
              "type": "string",
              "value": "prayer_row"
            },
            {
              "name": "capacity",
              "type": "int",
              "value": 1
            },
            {
              "name": "facing",
              "type": "string",
              "value": "NW"
            },
            {
              "name": "anim",
              "type": "string",
              "value": "pray"
            },
            {
              "name": "y_offset",
              "type": "int",
              "value": 0
            },
            {
              "name": "zone",
              "type": "string",
              "value": "Z16"
            },
            {
              "name": "gx",
              "type": "int",
              "value": 34
            },
            {
              "name": "gy",
              "type": "int",
              "value": 27
            }
          ]
        },
        {
          "id": 93,
          "name": "slot_z16_shaf1_6",
          "type": "prayer_row",
          "point": true,
          "x": 1136,
          "y": 880,
          "width": 0,
          "height": 0,
          "visible": true,
          "properties": [
            {
              "name": "type",
              "type": "string",
              "value": "prayer_row"
            },
            {
              "name": "capacity",
              "type": "int",
              "value": 1
            },
            {
              "name": "facing",
              "type": "string",
              "value": "NW"
            },
            {
              "name": "anim",
              "type": "string",
              "value": "pray"
            },
            {
              "name": "y_offset",
              "type": "int",
              "value": 0
            },
            {
              "name": "zone",
              "type": "string",
              "value": "Z16"
            },
            {
              "name": "gx",
              "type": "int",
              "value": 35
            },
            {
              "name": "gy",
              "type": "int",
              "value": 27
            }
          ]
        },
        {
          "id": 94,
          "name": "slot_z16_shaf1_7",
          "type": "prayer_row",
          "point": true,
          "x": 1168,
          "y": 880,
          "width": 0,
          "height": 0,
          "visible": true,
          "properties": [
            {
              "name": "type",
              "type": "string",
              "value": "prayer_row"
            },
            {
              "name": "capacity",
              "type": "int",
              "value": 1
            },
            {
              "name": "facing",
              "type": "string",
              "value": "NW"
            },
            {
              "name": "anim",
              "type": "string",
              "value": "pray"
            },
            {
              "name": "y_offset",
              "type": "int",
              "value": 0
            },
            {
              "name": "zone",
              "type": "string",
              "value": "Z16"
            },
            {
              "name": "gx",
              "type": "int",
              "value": 36
            },
            {
              "name": "gy",
              "type": "int",
              "value": 27
            }
          ]
        },
        {
          "id": 95,
          "name": "slot_z16_shaf1_8",
          "type": "prayer_row",
          "point": true,
          "x": 1072,
          "y": 912,
          "width": 0,
          "height": 0,
          "visible": true,
          "properties": [
            {
              "name": "type",
              "type": "string",
              "value": "prayer_row"
            },
            {
              "name": "capacity",
              "type": "int",
              "value": 1
            },
            {
              "name": "facing",
              "type": "string",
              "value": "NW"
            },
            {
              "name": "anim",
              "type": "string",
              "value": "pray"
            },
            {
              "name": "y_offset",
              "type": "int",
              "value": 0
            },
            {
              "name": "zone",
              "type": "string",
              "value": "Z16"
            },
            {
              "name": "gx",
              "type": "int",
              "value": 33
            },
            {
              "name": "gy",
              "type": "int",
              "value": 28
            }
          ]
        },
        {
          "id": 96,
          "name": "slot_z16_shaf2_1",
          "type": "prayer_row",
          "point": true,
          "x": 976,
          "y": 944,
          "width": 0,
          "height": 0,
          "visible": true,
          "properties": [
            {
              "name": "type",
              "type": "string",
              "value": "prayer_row"
            },
            {
              "name": "capacity",
              "type": "int",
              "value": 1
            },
            {
              "name": "facing",
              "type": "string",
              "value": "NW"
            },
            {
              "name": "anim",
              "type": "string",
              "value": "pray"
            },
            {
              "name": "y_offset",
              "type": "int",
              "value": 0
            },
            {
              "name": "zone",
              "type": "string",
              "value": "Z16"
            },
            {
              "name": "gx",
              "type": "int",
              "value": 30
            },
            {
              "name": "gy",
              "type": "int",
              "value": 29
            }
          ]
        },
        {
          "id": 97,
          "name": "slot_z16_shaf2_2",
          "type": "prayer_row",
          "point": true,
          "x": 1008,
          "y": 944,
          "width": 0,
          "height": 0,
          "visible": true,
          "properties": [
            {
              "name": "type",
              "type": "string",
              "value": "prayer_row"
            },
            {
              "name": "capacity",
              "type": "int",
              "value": 1
            },
            {
              "name": "facing",
              "type": "string",
              "value": "NW"
            },
            {
              "name": "anim",
              "type": "string",
              "value": "pray"
            },
            {
              "name": "y_offset",
              "type": "int",
              "value": 0
            },
            {
              "name": "zone",
              "type": "string",
              "value": "Z16"
            },
            {
              "name": "gx",
              "type": "int",
              "value": 31
            },
            {
              "name": "gy",
              "type": "int",
              "value": 29
            }
          ]
        },
        {
          "id": 98,
          "name": "slot_z16_shaf2_3",
          "type": "prayer_row",
          "point": true,
          "x": 1040,
          "y": 944,
          "width": 0,
          "height": 0,
          "visible": true,
          "properties": [
            {
              "name": "type",
              "type": "string",
              "value": "prayer_row"
            },
            {
              "name": "capacity",
              "type": "int",
              "value": 1
            },
            {
              "name": "facing",
              "type": "string",
              "value": "NW"
            },
            {
              "name": "anim",
              "type": "string",
              "value": "pray"
            },
            {
              "name": "y_offset",
              "type": "int",
              "value": 0
            },
            {
              "name": "zone",
              "type": "string",
              "value": "Z16"
            },
            {
              "name": "gx",
              "type": "int",
              "value": 32
            },
            {
              "name": "gy",
              "type": "int",
              "value": 29
            }
          ]
        },
        {
          "id": 99,
          "name": "slot_z16_shaf2_4",
          "type": "prayer_row",
          "point": true,
          "x": 1104,
          "y": 944,
          "width": 0,
          "height": 0,
          "visible": true,
          "properties": [
            {
              "name": "type",
              "type": "string",
              "value": "prayer_row"
            },
            {
              "name": "capacity",
              "type": "int",
              "value": 1
            },
            {
              "name": "facing",
              "type": "string",
              "value": "NW"
            },
            {
              "name": "anim",
              "type": "string",
              "value": "pray"
            },
            {
              "name": "y_offset",
              "type": "int",
              "value": 0
            },
            {
              "name": "zone",
              "type": "string",
              "value": "Z16"
            },
            {
              "name": "gx",
              "type": "int",
              "value": 34
            },
            {
              "name": "gy",
              "type": "int",
              "value": 29
            }
          ]
        },
        {
          "id": 100,
          "name": "slot_z16_shaf2_5",
          "type": "prayer_row",
          "point": true,
          "x": 1136,
          "y": 944,
          "width": 0,
          "height": 0,
          "visible": true,
          "properties": [
            {
              "name": "type",
              "type": "string",
              "value": "prayer_row"
            },
            {
              "name": "capacity",
              "type": "int",
              "value": 1
            },
            {
              "name": "facing",
              "type": "string",
              "value": "NW"
            },
            {
              "name": "anim",
              "type": "string",
              "value": "pray"
            },
            {
              "name": "y_offset",
              "type": "int",
              "value": 0
            },
            {
              "name": "zone",
              "type": "string",
              "value": "Z16"
            },
            {
              "name": "gx",
              "type": "int",
              "value": 35
            },
            {
              "name": "gy",
              "type": "int",
              "value": 29
            }
          ]
        },
        {
          "id": 101,
          "name": "slot_z16_shaf2_6",
          "type": "prayer_row",
          "point": true,
          "x": 1168,
          "y": 944,
          "width": 0,
          "height": 0,
          "visible": true,
          "properties": [
            {
              "name": "type",
              "type": "string",
              "value": "prayer_row"
            },
            {
              "name": "capacity",
              "type": "int",
              "value": 1
            },
            {
              "name": "facing",
              "type": "string",
              "value": "NW"
            },
            {
              "name": "anim",
              "type": "string",
              "value": "pray"
            },
            {
              "name": "y_offset",
              "type": "int",
              "value": 0
            },
            {
              "name": "zone",
              "type": "string",
              "value": "Z16"
            },
            {
              "name": "gx",
              "type": "int",
              "value": 36
            },
            {
              "name": "gy",
              "type": "int",
              "value": 29
            }
          ]
        },
        {
          "id": 102,
          "name": "slot_z16_shaf2_7",
          "type": "prayer_row",
          "point": true,
          "x": 1040,
          "y": 976,
          "width": 0,
          "height": 0,
          "visible": true,
          "properties": [
            {
              "name": "type",
              "type": "string",
              "value": "prayer_row"
            },
            {
              "name": "capacity",
              "type": "int",
              "value": 1
            },
            {
              "name": "facing",
              "type": "string",
              "value": "NW"
            },
            {
              "name": "anim",
              "type": "string",
              "value": "pray"
            },
            {
              "name": "y_offset",
              "type": "int",
              "value": 0
            },
            {
              "name": "zone",
              "type": "string",
              "value": "Z16"
            },
            {
              "name": "gx",
              "type": "int",
              "value": 32
            },
            {
              "name": "gy",
              "type": "int",
              "value": 30
            }
          ]
        },
        {
          "id": 103,
          "name": "slot_z16_shaf2_8",
          "type": "prayer_row",
          "point": true,
          "x": 1104,
          "y": 976,
          "width": 0,
          "height": 0,
          "visible": true,
          "properties": [
            {
              "name": "type",
              "type": "string",
              "value": "prayer_row"
            },
            {
              "name": "capacity",
              "type": "int",
              "value": 1
            },
            {
              "name": "facing",
              "type": "string",
              "value": "NW"
            },
            {
              "name": "anim",
              "type": "string",
              "value": "pray"
            },
            {
              "name": "y_offset",
              "type": "int",
              "value": 0
            },
            {
              "name": "zone",
              "type": "string",
              "value": "Z16"
            },
            {
              "name": "gx",
              "type": "int",
              "value": 34
            },
            {
              "name": "gy",
              "type": "int",
              "value": 30
            }
          ]
        },
        {
          "id": 104,
          "name": "slot_z16_wudhu_1",
          "type": "wudhu",
          "point": true,
          "x": 1008,
          "y": 784,
          "width": 0,
          "height": 0,
          "visible": true,
          "properties": [
            {
              "name": "type",
              "type": "string",
              "value": "wudhu"
            },
            {
              "name": "capacity",
              "type": "int",
              "value": 1
            },
            {
              "name": "facing",
              "type": "string",
              "value": "SE"
            },
            {
              "name": "anim",
              "type": "string",
              "value": "idle"
            },
            {
              "name": "y_offset",
              "type": "int",
              "value": 0
            },
            {
              "name": "zone",
              "type": "string",
              "value": "Z16"
            },
            {
              "name": "gx",
              "type": "int",
              "value": 31
            },
            {
              "name": "gy",
              "type": "int",
              "value": 24
            }
          ]
        },
        {
          "id": 105,
          "name": "slot_z16_wudhu_2",
          "type": "wudhu",
          "point": true,
          "x": 1040,
          "y": 784,
          "width": 0,
          "height": 0,
          "visible": true,
          "properties": [
            {
              "name": "type",
              "type": "string",
              "value": "wudhu"
            },
            {
              "name": "capacity",
              "type": "int",
              "value": 1
            },
            {
              "name": "facing",
              "type": "string",
              "value": "SE"
            },
            {
              "name": "anim",
              "type": "string",
              "value": "idle"
            },
            {
              "name": "y_offset",
              "type": "int",
              "value": 0
            },
            {
              "name": "zone",
              "type": "string",
              "value": "Z16"
            },
            {
              "name": "gx",
              "type": "int",
              "value": 32
            },
            {
              "name": "gy",
              "type": "int",
              "value": 24
            }
          ]
        },
        {
          "id": 106,
          "name": "slot_z16_wudhu_3",
          "type": "wudhu",
          "point": true,
          "x": 1104,
          "y": 784,
          "width": 0,
          "height": 0,
          "visible": true,
          "properties": [
            {
              "name": "type",
              "type": "string",
              "value": "wudhu"
            },
            {
              "name": "capacity",
              "type": "int",
              "value": 1
            },
            {
              "name": "facing",
              "type": "string",
              "value": "SW"
            },
            {
              "name": "anim",
              "type": "string",
              "value": "idle"
            },
            {
              "name": "y_offset",
              "type": "int",
              "value": 0
            },
            {
              "name": "zone",
              "type": "string",
              "value": "Z16"
            },
            {
              "name": "gx",
              "type": "int",
              "value": 34
            },
            {
              "name": "gy",
              "type": "int",
              "value": 24
            }
          ]
        },
        {
          "id": 107,
          "name": "slot_z16_wudhu_4",
          "type": "wudhu",
          "point": true,
          "x": 1136,
          "y": 784,
          "width": 0,
          "height": 0,
          "visible": true,
          "properties": [
            {
              "name": "type",
              "type": "string",
              "value": "wudhu"
            },
            {
              "name": "capacity",
              "type": "int",
              "value": 1
            },
            {
              "name": "facing",
              "type": "string",
              "value": "SW"
            },
            {
              "name": "anim",
              "type": "string",
              "value": "idle"
            },
            {
              "name": "y_offset",
              "type": "int",
              "value": 0
            },
            {
              "name": "zone",
              "type": "string",
              "value": "Z16"
            },
            {
              "name": "gx",
              "type": "int",
              "value": 35
            },
            {
              "name": "gy",
              "type": "int",
              "value": 24
            }
          ]
        },
        {
          "id": 108,
          "name": "slot_z17_swim_1",
          "type": "pool_swim",
          "point": true,
          "x": 1264,
          "y": 848,
          "width": 0,
          "height": 0,
          "visible": true,
          "properties": [
            {
              "name": "type",
              "type": "string",
              "value": "pool_swim"
            },
            {
              "name": "capacity",
              "type": "int",
              "value": 1
            },
            {
              "name": "facing",
              "type": "string",
              "value": "SE"
            },
            {
              "name": "anim",
              "type": "string",
              "value": "idle"
            },
            {
              "name": "y_offset",
              "type": "int",
              "value": 0
            },
            {
              "name": "zone",
              "type": "string",
              "value": "Z17"
            },
            {
              "name": "gx",
              "type": "int",
              "value": 39
            },
            {
              "name": "gy",
              "type": "int",
              "value": 26
            }
          ]
        },
        {
          "id": 109,
          "name": "slot_z17_swim_2",
          "type": "pool_swim",
          "point": true,
          "x": 1328,
          "y": 848,
          "width": 0,
          "height": 0,
          "visible": true,
          "properties": [
            {
              "name": "type",
              "type": "string",
              "value": "pool_swim"
            },
            {
              "name": "capacity",
              "type": "int",
              "value": 1
            },
            {
              "name": "facing",
              "type": "string",
              "value": "SW"
            },
            {
              "name": "anim",
              "type": "string",
              "value": "idle"
            },
            {
              "name": "y_offset",
              "type": "int",
              "value": 0
            },
            {
              "name": "zone",
              "type": "string",
              "value": "Z17"
            },
            {
              "name": "gx",
              "type": "int",
              "value": 41
            },
            {
              "name": "gy",
              "type": "int",
              "value": 26
            }
          ]
        },
        {
          "id": 110,
          "name": "slot_z17_swim_3",
          "type": "pool_swim",
          "point": true,
          "x": 1328,
          "y": 880,
          "width": 0,
          "height": 0,
          "visible": true,
          "properties": [
            {
              "name": "type",
              "type": "string",
              "value": "pool_swim"
            },
            {
              "name": "capacity",
              "type": "int",
              "value": 1
            },
            {
              "name": "facing",
              "type": "string",
              "value": "NW"
            },
            {
              "name": "anim",
              "type": "string",
              "value": "idle"
            },
            {
              "name": "y_offset",
              "type": "int",
              "value": 0
            },
            {
              "name": "zone",
              "type": "string",
              "value": "Z17"
            },
            {
              "name": "gx",
              "type": "int",
              "value": 41
            },
            {
              "name": "gy",
              "type": "int",
              "value": 27
            }
          ]
        },
        {
          "id": 111,
          "name": "slot_z17_swim_4",
          "type": "pool_swim",
          "point": true,
          "x": 1328,
          "y": 912,
          "width": 0,
          "height": 0,
          "visible": true,
          "properties": [
            {
              "name": "type",
              "type": "string",
              "value": "pool_swim"
            },
            {
              "name": "capacity",
              "type": "int",
              "value": 1
            },
            {
              "name": "facing",
              "type": "string",
              "value": "NW"
            },
            {
              "name": "anim",
              "type": "string",
              "value": "idle"
            },
            {
              "name": "y_offset",
              "type": "int",
              "value": 0
            },
            {
              "name": "zone",
              "type": "string",
              "value": "Z17"
            },
            {
              "name": "gx",
              "type": "int",
              "value": 41
            },
            {
              "name": "gy",
              "type": "int",
              "value": 28
            }
          ]
        },
        {
          "id": 112,
          "name": "slot_z17_swim_5",
          "type": "pool_swim",
          "point": true,
          "x": 1264,
          "y": 912,
          "width": 0,
          "height": 0,
          "visible": true,
          "properties": [
            {
              "name": "type",
              "type": "string",
              "value": "pool_swim"
            },
            {
              "name": "capacity",
              "type": "int",
              "value": 1
            },
            {
              "name": "facing",
              "type": "string",
              "value": "NE"
            },
            {
              "name": "anim",
              "type": "string",
              "value": "idle"
            },
            {
              "name": "y_offset",
              "type": "int",
              "value": 0
            },
            {
              "name": "zone",
              "type": "string",
              "value": "Z17"
            },
            {
              "name": "gx",
              "type": "int",
              "value": 39
            },
            {
              "name": "gy",
              "type": "int",
              "value": 28
            }
          ]
        },
        {
          "id": 113,
          "name": "slot_z17_swim_6",
          "type": "pool_swim",
          "point": true,
          "x": 1264,
          "y": 880,
          "width": 0,
          "height": 0,
          "visible": true,
          "properties": [
            {
              "name": "type",
              "type": "string",
              "value": "pool_swim"
            },
            {
              "name": "capacity",
              "type": "int",
              "value": 1
            },
            {
              "name": "facing",
              "type": "string",
              "value": "SE"
            },
            {
              "name": "anim",
              "type": "string",
              "value": "idle"
            },
            {
              "name": "y_offset",
              "type": "int",
              "value": 0
            },
            {
              "name": "zone",
              "type": "string",
              "value": "Z17"
            },
            {
              "name": "gx",
              "type": "int",
              "value": 39
            },
            {
              "name": "gy",
              "type": "int",
              "value": 27
            }
          ]
        },
        {
          "id": 114,
          "name": "slot_z17_lounger_1",
          "type": "pool_lounger",
          "point": true,
          "x": 1200,
          "y": 784,
          "width": 0,
          "height": 0,
          "visible": true,
          "properties": [
            {
              "name": "type",
              "type": "string",
              "value": "pool_lounger"
            },
            {
              "name": "capacity",
              "type": "int",
              "value": 1
            },
            {
              "name": "facing",
              "type": "string",
              "value": "SE"
            },
            {
              "name": "anim",
              "type": "string",
              "value": "sit_type"
            },
            {
              "name": "y_offset",
              "type": "int",
              "value": -4
            },
            {
              "name": "zone",
              "type": "string",
              "value": "Z17"
            },
            {
              "name": "gx",
              "type": "int",
              "value": 37
            },
            {
              "name": "gy",
              "type": "int",
              "value": 24
            }
          ]
        },
        {
          "id": 115,
          "name": "slot_z17_lounger_2",
          "type": "pool_lounger",
          "point": true,
          "x": 1200,
          "y": 848,
          "width": 0,
          "height": 0,
          "visible": true,
          "properties": [
            {
              "name": "type",
              "type": "string",
              "value": "pool_lounger"
            },
            {
              "name": "capacity",
              "type": "int",
              "value": 1
            },
            {
              "name": "facing",
              "type": "string",
              "value": "SE"
            },
            {
              "name": "anim",
              "type": "string",
              "value": "sit_type"
            },
            {
              "name": "y_offset",
              "type": "int",
              "value": -4
            },
            {
              "name": "zone",
              "type": "string",
              "value": "Z17"
            },
            {
              "name": "gx",
              "type": "int",
              "value": 37
            },
            {
              "name": "gy",
              "type": "int",
              "value": 26
            }
          ]
        },
        {
          "id": 116,
          "name": "slot_z17_lounger_3",
          "type": "pool_lounger",
          "point": true,
          "x": 1200,
          "y": 912,
          "width": 0,
          "height": 0,
          "visible": true,
          "properties": [
            {
              "name": "type",
              "type": "string",
              "value": "pool_lounger"
            },
            {
              "name": "capacity",
              "type": "int",
              "value": 1
            },
            {
              "name": "facing",
              "type": "string",
              "value": "SE"
            },
            {
              "name": "anim",
              "type": "string",
              "value": "sit_type"
            },
            {
              "name": "y_offset",
              "type": "int",
              "value": -4
            },
            {
              "name": "zone",
              "type": "string",
              "value": "Z17"
            },
            {
              "name": "gx",
              "type": "int",
              "value": 37
            },
            {
              "name": "gy",
              "type": "int",
              "value": 28
            }
          ]
        }
      ],
      "visible": true,
      "opacity": 1.0,
      "x": 0,
      "y": 0,
      "draworder": "topdown"
    },
    {
      "id": 7,
      "name": "doors",
      "type": "objectgroup",
      "objects": [
        {
          "id": 117,
          "name": "door_z01",
          "type": "door",
          "point": true,
          "x": 176,
          "y": 240,
          "width": 0,
          "height": 0,
          "visible": true,
          "properties": [
            {
              "name": "from",
              "type": "string",
              "value": "Z01"
            },
            {
              "name": "to",
              "type": "string",
              "value": "corridor_north"
            },
            {
              "name": "gx",
              "type": "int",
              "value": 5
            },
            {
              "name": "gy",
              "type": "int",
              "value": 7
            }
          ]
        },
        {
          "id": 118,
          "name": "door_z02",
          "type": "door",
          "point": true,
          "x": 496,
          "y": 240,
          "width": 0,
          "height": 0,
          "visible": true,
          "properties": [
            {
              "name": "from",
              "type": "string",
              "value": "Z02"
            },
            {
              "name": "to",
              "type": "string",
              "value": "corridor_north"
            },
            {
              "name": "gx",
              "type": "int",
              "value": 15
            },
            {
              "name": "gy",
              "type": "int",
              "value": 7
            }
          ]
        },
        {
          "id": 119,
          "name": "door_z03",
          "type": "door",
          "point": true,
          "x": 752,
          "y": 240,
          "width": 0,
          "height": 0,
          "visible": true,
          "properties": [
            {
              "name": "from",
              "type": "string",
              "value": "Z03"
            },
            {
              "name": "to",
              "type": "string",
              "value": "corridor_north"
            },
            {
              "name": "gx",
              "type": "int",
              "value": 23
            },
            {
              "name": "gy",
              "type": "int",
              "value": 7
            }
          ]
        },
        {
          "id": 120,
          "name": "door_z04",
          "type": "door",
          "point": true,
          "x": 1008,
          "y": 240,
          "width": 0,
          "height": 0,
          "visible": true,
          "properties": [
            {
              "name": "from",
              "type": "string",
              "value": "Z04"
            },
            {
              "name": "to",
              "type": "string",
              "value": "corridor_north"
            },
            {
              "name": "gx",
              "type": "int",
              "value": 31
            },
            {
              "name": "gy",
              "type": "int",
              "value": 7
            }
          ]
        },
        {
          "id": 121,
          "name": "door_z05",
          "type": "door",
          "point": true,
          "x": 1264,
          "y": 240,
          "width": 0,
          "height": 0,
          "visible": true,
          "properties": [
            {
              "name": "from",
              "type": "string",
              "value": "Z05"
            },
            {
              "name": "to",
              "type": "string",
              "value": "corridor_north"
            },
            {
              "name": "gx",
              "type": "int",
              "value": 39
            },
            {
              "name": "gy",
              "type": "int",
              "value": 7
            }
          ]
        },
        {
          "id": 122,
          "name": "door_z06_north",
          "type": "door",
          "point": true,
          "x": 144,
          "y": 336,
          "width": 0,
          "height": 0,
          "visible": true,
          "properties": [
            {
              "name": "from",
              "type": "string",
              "value": "Z06"
            },
            {
              "name": "to",
              "type": "string",
              "value": "corridor_north"
            },
            {
              "name": "gx",
              "type": "int",
              "value": 4
            },
            {
              "name": "gy",
              "type": "int",
              "value": 10
            }
          ]
        },
        {
          "id": 123,
          "name": "door_z07_north",
          "type": "door",
          "point": true,
          "x": 400,
          "y": 336,
          "width": 0,
          "height": 0,
          "visible": true,
          "properties": [
            {
              "name": "from",
              "type": "string",
              "value": "Z07"
            },
            {
              "name": "to",
              "type": "string",
              "value": "corridor_north"
            },
            {
              "name": "gx",
              "type": "int",
              "value": 12
            },
            {
              "name": "gy",
              "type": "int",
              "value": 10
            }
          ]
        },
        {
          "id": 124,
          "name": "door_z08_north",
          "type": "door",
          "point": true,
          "x": 624,
          "y": 336,
          "width": 0,
          "height": 0,
          "visible": true,
          "properties": [
            {
              "name": "from",
              "type": "string",
              "value": "Z08"
            },
            {
              "name": "to",
              "type": "string",
              "value": "corridor_north"
            },
            {
              "name": "gx",
              "type": "int",
              "value": 19
            },
            {
              "name": "gy",
              "type": "int",
              "value": 10
            }
          ]
        },
        {
          "id": 125,
          "name": "door_z09_north",
          "type": "door",
          "point": true,
          "x": 816,
          "y": 336,
          "width": 0,
          "height": 0,
          "visible": true,
          "properties": [
            {
              "name": "from",
              "type": "string",
              "value": "Z09"
            },
            {
              "name": "to",
              "type": "string",
              "value": "corridor_north"
            },
            {
              "name": "gx",
              "type": "int",
              "value": 25
            },
            {
              "name": "gy",
              "type": "int",
              "value": 10
            }
          ]
        },
        {
          "id": 126,
          "name": "door_z10_north",
          "type": "door",
          "point": true,
          "x": 944,
          "y": 336,
          "width": 0,
          "height": 0,
          "visible": true,
          "properties": [
            {
              "name": "from",
              "type": "string",
              "value": "Z10"
            },
            {
              "name": "to",
              "type": "string",
              "value": "corridor_north"
            },
            {
              "name": "gx",
              "type": "int",
              "value": 29
            },
            {
              "name": "gy",
              "type": "int",
              "value": 10
            }
          ]
        },
        {
          "id": 127,
          "name": "door_z11_north",
          "type": "door",
          "point": true,
          "x": 1072,
          "y": 336,
          "width": 0,
          "height": 0,
          "visible": true,
          "properties": [
            {
              "name": "from",
              "type": "string",
              "value": "Z11"
            },
            {
              "name": "to",
              "type": "string",
              "value": "corridor_north"
            },
            {
              "name": "gx",
              "type": "int",
              "value": 33
            },
            {
              "name": "gy",
              "type": "int",
              "value": 10
            }
          ]
        },
        {
          "id": 128,
          "name": "door_z12_north",
          "type": "door",
          "point": true,
          "x": 1264,
          "y": 336,
          "width": 0,
          "height": 0,
          "visible": true,
          "properties": [
            {
              "name": "from",
              "type": "string",
              "value": "Z12"
            },
            {
              "name": "to",
              "type": "string",
              "value": "corridor_north"
            },
            {
              "name": "gx",
              "type": "int",
              "value": 39
            },
            {
              "name": "gy",
              "type": "int",
              "value": 10
            }
          ]
        },
        {
          "id": 129,
          "name": "door_z06_south",
          "type": "door",
          "point": true,
          "x": 144,
          "y": 624,
          "width": 0,
          "height": 0,
          "visible": true,
          "properties": [
            {
              "name": "from",
              "type": "string",
              "value": "Z06"
            },
            {
              "name": "to",
              "type": "string",
              "value": "corridor_south"
            },
            {
              "name": "gx",
              "type": "int",
              "value": 4
            },
            {
              "name": "gy",
              "type": "int",
              "value": 19
            }
          ]
        },
        {
          "id": 130,
          "name": "door_z07_south",
          "type": "door",
          "point": true,
          "x": 400,
          "y": 624,
          "width": 0,
          "height": 0,
          "visible": true,
          "properties": [
            {
              "name": "from",
              "type": "string",
              "value": "Z07"
            },
            {
              "name": "to",
              "type": "string",
              "value": "corridor_south"
            },
            {
              "name": "gx",
              "type": "int",
              "value": 12
            },
            {
              "name": "gy",
              "type": "int",
              "value": 19
            }
          ]
        },
        {
          "id": 131,
          "name": "door_z08_south",
          "type": "door",
          "point": true,
          "x": 624,
          "y": 624,
          "width": 0,
          "height": 0,
          "visible": true,
          "properties": [
            {
              "name": "from",
              "type": "string",
              "value": "Z08"
            },
            {
              "name": "to",
              "type": "string",
              "value": "corridor_south"
            },
            {
              "name": "gx",
              "type": "int",
              "value": 19
            },
            {
              "name": "gy",
              "type": "int",
              "value": 19
            }
          ]
        },
        {
          "id": 132,
          "name": "door_z09_south",
          "type": "door",
          "point": true,
          "x": 816,
          "y": 624,
          "width": 0,
          "height": 0,
          "visible": true,
          "properties": [
            {
              "name": "from",
              "type": "string",
              "value": "Z09"
            },
            {
              "name": "to",
              "type": "string",
              "value": "corridor_south"
            },
            {
              "name": "gx",
              "type": "int",
              "value": 25
            },
            {
              "name": "gy",
              "type": "int",
              "value": 19
            }
          ]
        },
        {
          "id": 133,
          "name": "door_z10_south",
          "type": "door",
          "point": true,
          "x": 944,
          "y": 624,
          "width": 0,
          "height": 0,
          "visible": true,
          "properties": [
            {
              "name": "from",
              "type": "string",
              "value": "Z10"
            },
            {
              "name": "to",
              "type": "string",
              "value": "corridor_south"
            },
            {
              "name": "gx",
              "type": "int",
              "value": 29
            },
            {
              "name": "gy",
              "type": "int",
              "value": 19
            }
          ]
        },
        {
          "id": 134,
          "name": "door_z11_south",
          "type": "door",
          "point": true,
          "x": 1072,
          "y": 624,
          "width": 0,
          "height": 0,
          "visible": true,
          "properties": [
            {
              "name": "from",
              "type": "string",
              "value": "Z11"
            },
            {
              "name": "to",
              "type": "string",
              "value": "corridor_south"
            },
            {
              "name": "gx",
              "type": "int",
              "value": 33
            },
            {
              "name": "gy",
              "type": "int",
              "value": 19
            }
          ]
        },
        {
          "id": 135,
          "name": "door_z12_south",
          "type": "door",
          "point": true,
          "x": 1264,
          "y": 624,
          "width": 0,
          "height": 0,
          "visible": true,
          "properties": [
            {
              "name": "from",
              "type": "string",
              "value": "Z12"
            },
            {
              "name": "to",
              "type": "string",
              "value": "corridor_south"
            },
            {
              "name": "gx",
              "type": "int",
              "value": 39
            },
            {
              "name": "gy",
              "type": "int",
              "value": 19
            }
          ]
        },
        {
          "id": 136,
          "name": "door_prod_z08_z09",
          "type": "door",
          "point": true,
          "x": 752,
          "y": 464,
          "width": 0,
          "height": 0,
          "visible": true,
          "properties": [
            {
              "name": "from",
              "type": "string",
              "value": "Z08"
            },
            {
              "name": "to",
              "type": "string",
              "value": "Z09"
            },
            {
              "name": "gx",
              "type": "int",
              "value": 23
            },
            {
              "name": "gy",
              "type": "int",
              "value": 14
            }
          ]
        },
        {
          "id": 137,
          "name": "door_prod_z09_z10",
          "type": "door",
          "point": true,
          "x": 880,
          "y": 464,
          "width": 0,
          "height": 0,
          "visible": true,
          "properties": [
            {
              "name": "from",
              "type": "string",
              "value": "Z09"
            },
            {
              "name": "to",
              "type": "string",
              "value": "Z10"
            },
            {
              "name": "gx",
              "type": "int",
              "value": 27
            },
            {
              "name": "gy",
              "type": "int",
              "value": 14
            }
          ]
        },
        {
          "id": 138,
          "name": "door_prod_z10_z11",
          "type": "door",
          "point": true,
          "x": 1008,
          "y": 464,
          "width": 0,
          "height": 0,
          "visible": true,
          "properties": [
            {
              "name": "from",
              "type": "string",
              "value": "Z10"
            },
            {
              "name": "to",
              "type": "string",
              "value": "Z11"
            },
            {
              "name": "gx",
              "type": "int",
              "value": 31
            },
            {
              "name": "gy",
              "type": "int",
              "value": 14
            }
          ]
        },
        {
          "id": 139,
          "name": "door_prod_z11_z12",
          "type": "door",
          "point": true,
          "x": 1136,
          "y": 464,
          "width": 0,
          "height": 0,
          "visible": true,
          "properties": [
            {
              "name": "from",
              "type": "string",
              "value": "Z11"
            },
            {
              "name": "to",
              "type": "string",
              "value": "Z12"
            },
            {
              "name": "gx",
              "type": "int",
              "value": 35
            },
            {
              "name": "gy",
              "type": "int",
              "value": 14
            }
          ]
        },
        {
          "id": 140,
          "name": "door_z16_north",
          "type": "door",
          "point": true,
          "x": 1072,
          "y": 720,
          "width": 0,
          "height": 0,
          "visible": true,
          "properties": [
            {
              "name": "from",
              "type": "string",
              "value": "Z16"
            },
            {
              "name": "to",
              "type": "string",
              "value": "corridor_south"
            },
            {
              "name": "gx",
              "type": "int",
              "value": 33
            },
            {
              "name": "gy",
              "type": "int",
              "value": 22
            }
          ]
        },
        {
          "id": 141,
          "name": "door_z17_north",
          "type": "door",
          "point": true,
          "x": 1264,
          "y": 720,
          "width": 0,
          "height": 0,
          "visible": true,
          "properties": [
            {
              "name": "from",
              "type": "string",
              "value": "Z17"
            },
            {
              "name": "to",
              "type": "string",
              "value": "corridor_south"
            },
            {
              "name": "gx",
              "type": "int",
              "value": 39
            },
            {
              "name": "gy",
              "type": "int",
              "value": 22
            }
          ]
        },
        {
          "id": 142,
          "name": "door_lobby_entrance",
          "type": "door",
          "point": true,
          "x": 144,
          "y": 1008,
          "width": 0,
          "height": 0,
          "visible": true,
          "properties": [
            {
              "name": "from",
              "type": "string",
              "value": "Z13"
            },
            {
              "name": "to",
              "type": "string",
              "value": "outside"
            },
            {
              "name": "gx",
              "type": "int",
              "value": 4
            },
            {
              "name": "gy",
              "type": "int",
              "value": 31
            }
          ]
        }
      ],
      "visible": true,
      "opacity": 1.0,
      "x": 0,
      "y": 0,
      "draworder": "topdown"
    },
    {
      "id": 8,
      "name": "zones",
      "type": "objectgroup",
      "objects": [
        {
          "id": 143,
          "name": "Z01 Ruang CEO",
          "type": "zone",
          "x": 0,
          "y": 0,
          "width": 320,
          "height": 256,
          "visible": true,
          "polygon": [
            {
              "x": 0,
              "y": 0
            },
            {
              "x": 320,
              "y": 0
            },
            {
              "x": 320,
              "y": 256
            },
            {
              "x": 0,
              "y": 256
            }
          ],
          "properties": [
            {
              "name": "zone_id",
              "type": "string",
              "value": "Z01"
            },
            {
              "name": "name",
              "type": "string",
              "value": "Ruang CEO"
            },
            {
              "name": "resident",
              "type": "string",
              "value": "Jarvis"
            },
            {
              "name": "gx_min",
              "type": "int",
              "value": 0
            },
            {
              "name": "gx_max",
              "type": "int",
              "value": 9
            },
            {
              "name": "gy_min",
              "type": "int",
              "value": 0
            },
            {
              "name": "gy_max",
              "type": "int",
              "value": 7
            }
          ]
        },
        {
          "id": 144,
          "name": "Z02 Boardroom",
          "type": "zone",
          "x": 320,
          "y": 0,
          "width": 320,
          "height": 256,
          "visible": true,
          "polygon": [
            {
              "x": 0,
              "y": 0
            },
            {
              "x": 320,
              "y": 0
            },
            {
              "x": 320,
              "y": 256
            },
            {
              "x": 0,
              "y": 256
            }
          ],
          "properties": [
            {
              "name": "zone_id",
              "type": "string",
              "value": "Z02"
            },
            {
              "name": "name",
              "type": "string",
              "value": "Boardroom"
            },
            {
              "name": "resident",
              "type": "string",
              "value": "Rapat"
            },
            {
              "name": "gx_min",
              "type": "int",
              "value": 10
            },
            {
              "name": "gx_max",
              "type": "int",
              "value": 19
            },
            {
              "name": "gy_min",
              "type": "int",
              "value": 0
            },
            {
              "name": "gy_max",
              "type": "int",
              "value": 7
            }
          ]
        },
        {
          "id": 145,
          "name": "Z03 Ruang Arsitektur",
          "type": "zone",
          "x": 640,
          "y": 0,
          "width": 256,
          "height": 256,
          "visible": true,
          "polygon": [
            {
              "x": 0,
              "y": 0
            },
            {
              "x": 256,
              "y": 0
            },
            {
              "x": 256,
              "y": 256
            },
            {
              "x": 0,
              "y": 256
            }
          ],
          "properties": [
            {
              "name": "zone_id",
              "type": "string",
              "value": "Z03"
            },
            {
              "name": "name",
              "type": "string",
              "value": "Ruang Arsitektur"
            },
            {
              "name": "resident",
              "type": "string",
              "value": "Daedalus"
            },
            {
              "name": "gx_min",
              "type": "int",
              "value": 20
            },
            {
              "name": "gx_max",
              "type": "int",
              "value": 27
            },
            {
              "name": "gy_min",
              "type": "int",
              "value": 0
            },
            {
              "name": "gy_max",
              "type": "int",
              "value": 7
            }
          ]
        },
        {
          "id": 146,
          "name": "Z04 Ruang Kelas",
          "type": "zone",
          "x": 896,
          "y": 0,
          "width": 224,
          "height": 256,
          "visible": true,
          "polygon": [
            {
              "x": 0,
              "y": 0
            },
            {
              "x": 224,
              "y": 0
            },
            {
              "x": 224,
              "y": 256
            },
            {
              "x": 0,
              "y": 256
            }
          ],
          "properties": [
            {
              "name": "zone_id",
              "type": "string",
              "value": "Z04"
            },
            {
              "name": "name",
              "type": "string",
              "value": "Ruang Kelas"
            },
            {
              "name": "resident",
              "type": "string",
              "value": "Merlin"
            },
            {
              "name": "gx_min",
              "type": "int",
              "value": 28
            },
            {
              "name": "gx_max",
              "type": "int",
              "value": 34
            },
            {
              "name": "gy_min",
              "type": "int",
              "value": 0
            },
            {
              "name": "gy_max",
              "type": "int",
              "value": 7
            }
          ]
        },
        {
          "id": 147,
          "name": "Z05 Perpustakaan",
          "type": "zone",
          "x": 1120,
          "y": 0,
          "width": 288,
          "height": 256,
          "visible": true,
          "polygon": [
            {
              "x": 0,
              "y": 0
            },
            {
              "x": 288,
              "y": 0
            },
            {
              "x": 288,
              "y": 256
            },
            {
              "x": 0,
              "y": 256
            }
          ],
          "properties": [
            {
              "name": "zone_id",
              "type": "string",
              "value": "Z05"
            },
            {
              "name": "name",
              "type": "string",
              "value": "Perpustakaan"
            },
            {
              "name": "resident",
              "type": "string",
              "value": "Scribe"
            },
            {
              "name": "gx_min",
              "type": "int",
              "value": 35
            },
            {
              "name": "gx_max",
              "type": "int",
              "value": 43
            },
            {
              "name": "gy_min",
              "type": "int",
              "value": 0
            },
            {
              "name": "gy_max",
              "type": "int",
              "value": 7
            }
          ]
        },
        {
          "id": 148,
          "name": "Z06 Lab Riset",
          "type": "zone",
          "x": 0,
          "y": 320,
          "width": 288,
          "height": 320,
          "visible": true,
          "polygon": [
            {
              "x": 0,
              "y": 0
            },
            {
              "x": 288,
              "y": 0
            },
            {
              "x": 288,
              "y": 320
            },
            {
              "x": 0,
              "y": 320
            }
          ],
          "properties": [
            {
              "name": "zone_id",
              "type": "string",
              "value": "Z06"
            },
            {
              "name": "name",
              "type": "string",
              "value": "Lab Riset"
            },
            {
              "name": "resident",
              "type": "string",
              "value": "Oracle"
            },
            {
              "name": "gx_min",
              "type": "int",
              "value": 0
            },
            {
              "name": "gx_max",
              "type": "int",
              "value": 8
            },
            {
              "name": "gy_min",
              "type": "int",
              "value": 10
            },
            {
              "name": "gy_max",
              "type": "int",
              "value": 19
            }
          ]
        },
        {
          "id": 149,
          "name": "Z07 Studio Desain",
          "type": "zone",
          "x": 288,
          "y": 320,
          "width": 224,
          "height": 320,
          "visible": true,
          "polygon": [
            {
              "x": 0,
              "y": 0
            },
            {
              "x": 224,
              "y": 0
            },
            {
              "x": 224,
              "y": 320
            },
            {
              "x": 0,
              "y": 320
            }
          ],
          "properties": [
            {
              "name": "zone_id",
              "type": "string",
              "value": "Z07"
            },
            {
              "name": "name",
              "type": "string",
              "value": "Studio Desain"
            },
            {
              "name": "resident",
              "type": "string",
              "value": "Muse"
            },
            {
              "name": "gx_min",
              "type": "int",
              "value": 9
            },
            {
              "name": "gx_max",
              "type": "int",
              "value": 15
            },
            {
              "name": "gy_min",
              "type": "int",
              "value": 10
            },
            {
              "name": "gy_max",
              "type": "int",
              "value": 19
            }
          ]
        },
        {
          "id": 150,
          "name": "Z08 Dev Pods",
          "type": "zone",
          "x": 512,
          "y": 320,
          "width": 256,
          "height": 320,
          "visible": true,
          "polygon": [
            {
              "x": 0,
              "y": 0
            },
            {
              "x": 256,
              "y": 0
            },
            {
              "x": 256,
              "y": 320
            },
            {
              "x": 0,
              "y": 320
            }
          ],
          "properties": [
            {
              "name": "zone_id",
              "type": "string",
              "value": "Z08"
            },
            {
              "name": "name",
              "type": "string",
              "value": "Dev Pods"
            },
            {
              "name": "resident",
              "type": "string",
              "value": "Prism, Forge, Nova"
            },
            {
              "name": "gx_min",
              "type": "int",
              "value": 16
            },
            {
              "name": "gx_max",
              "type": "int",
              "value": 23
            },
            {
              "name": "gy_min",
              "type": "int",
              "value": 10
            },
            {
              "name": "gy_max",
              "type": "int",
              "value": 19
            }
          ]
        },
        {
          "id": 151,
          "name": "Z09 Graphics Lab",
          "type": "zone",
          "x": 768,
          "y": 320,
          "width": 128,
          "height": 320,
          "visible": true,
          "polygon": [
            {
              "x": 0,
              "y": 0
            },
            {
              "x": 128,
              "y": 0
            },
            {
              "x": 128,
              "y": 320
            },
            {
              "x": 0,
              "y": 320
            }
          ],
          "properties": [
            {
              "name": "zone_id",
              "type": "string",
              "value": "Z09"
            },
            {
              "name": "name",
              "type": "string",
              "value": "Graphics Lab"
            },
            {
              "name": "resident",
              "type": "string",
              "value": "Steward"
            },
            {
              "name": "gx_min",
              "type": "int",
              "value": 24
            },
            {
              "name": "gx_max",
              "type": "int",
              "value": 27
            },
            {
              "name": "gy_min",
              "type": "int",
              "value": 10
            },
            {
              "name": "gy_max",
              "type": "int",
              "value": 19
            }
          ]
        },
        {
          "id": 152,
          "name": "Z10 QA Station",
          "type": "zone",
          "x": 896,
          "y": 320,
          "width": 128,
          "height": 320,
          "visible": true,
          "polygon": [
            {
              "x": 0,
              "y": 0
            },
            {
              "x": 128,
              "y": 0
            },
            {
              "x": 128,
              "y": 320
            },
            {
              "x": 0,
              "y": 320
            }
          ],
          "properties": [
            {
              "name": "zone_id",
              "type": "string",
              "value": "Z10"
            },
            {
              "name": "name",
              "type": "string",
              "value": "QA Station"
            },
            {
              "name": "resident",
              "type": "string",
              "value": "Sentinel"
            },
            {
              "name": "gx_min",
              "type": "int",
              "value": 28
            },
            {
              "name": "gx_max",
              "type": "int",
              "value": 31
            },
            {
              "name": "gy_min",
              "type": "int",
              "value": 10
            },
            {
              "name": "gy_max",
              "type": "int",
              "value": 19
            }
          ]
        },
        {
          "id": 153,
          "name": "Z11 Release Dock",
          "type": "zone",
          "x": 1024,
          "y": 320,
          "width": 128,
          "height": 320,
          "visible": true,
          "polygon": [
            {
              "x": 0,
              "y": 0
            },
            {
              "x": 128,
              "y": 0
            },
            {
              "x": 128,
              "y": 320
            },
            {
              "x": 0,
              "y": 320
            }
          ],
          "properties": [
            {
              "name": "zone_id",
              "type": "string",
              "value": "Z11"
            },
            {
              "name": "name",
              "type": "string",
              "value": "Release Dock"
            },
            {
              "name": "resident",
              "type": "string",
              "value": "Relay"
            },
            {
              "name": "gx_min",
              "type": "int",
              "value": 32
            },
            {
              "name": "gx_max",
              "type": "int",
              "value": 35
            },
            {
              "name": "gy_min",
              "type": "int",
              "value": 10
            },
            {
              "name": "gy_max",
              "type": "int",
              "value": 19
            }
          ]
        },
        {
          "id": 154,
          "name": "Z12 Data Center & SOC",
          "type": "zone",
          "x": 1152,
          "y": 320,
          "width": 256,
          "height": 320,
          "visible": true,
          "polygon": [
            {
              "x": 0,
              "y": 0
            },
            {
              "x": 256,
              "y": 0
            },
            {
              "x": 256,
              "y": 320
            },
            {
              "x": 0,
              "y": 320
            }
          ],
          "properties": [
            {
              "name": "zone_id",
              "type": "string",
              "value": "Z12"
            },
            {
              "name": "name",
              "type": "string",
              "value": "Data Center & SOC"
            },
            {
              "name": "resident",
              "type": "string",
              "value": "Vector, Bastion"
            },
            {
              "name": "gx_min",
              "type": "int",
              "value": 36
            },
            {
              "name": "gx_max",
              "type": "int",
              "value": 43
            },
            {
              "name": "gy_min",
              "type": "int",
              "value": 10
            },
            {
              "name": "gy_max",
              "type": "int",
              "value": 19
            }
          ]
        },
        {
          "id": 155,
          "name": "Z13 Lobi",
          "type": "zone",
          "x": 0,
          "y": 704,
          "width": 320,
          "height": 320,
          "visible": true,
          "polygon": [
            {
              "x": 0,
              "y": 0
            },
            {
              "x": 320,
              "y": 0
            },
            {
              "x": 320,
              "y": 320
            },
            {
              "x": 0,
              "y": 320
            }
          ],
          "properties": [
            {
              "name": "zone_id",
              "type": "string",
              "value": "Z13"
            },
            {
              "name": "name",
              "type": "string",
              "value": "Lobi"
            },
            {
              "name": "resident",
              "type": "string",
              "value": "Warden"
            },
            {
              "name": "gx_min",
              "type": "int",
              "value": 0
            },
            {
              "name": "gx_max",
              "type": "int",
              "value": 9
            },
            {
              "name": "gy_min",
              "type": "int",
              "value": 22
            },
            {
              "name": "gy_max",
              "type": "int",
              "value": 31
            }
          ]
        },
        {
          "id": 156,
          "name": "Z14 Kafetaria & Lounge",
          "type": "zone",
          "x": 320,
          "y": 704,
          "width": 384,
          "height": 320,
          "visible": true,
          "polygon": [
            {
              "x": 0,
              "y": 0
            },
            {
              "x": 384,
              "y": 0
            },
            {
              "x": 384,
              "y": 320
            },
            {
              "x": 0,
              "y": 320
            }
          ],
          "properties": [
            {
              "name": "zone_id",
              "type": "string",
              "value": "Z14"
            },
            {
              "name": "name",
              "type": "string",
              "value": "Kafetaria & Lounge"
            },
            {
              "name": "resident",
              "type": "string",
              "value": "Semua"
            },
            {
              "name": "gx_min",
              "type": "int",
              "value": 10
            },
            {
              "name": "gx_max",
              "type": "int",
              "value": 21
            },
            {
              "name": "gy_min",
              "type": "int",
              "value": 22
            },
            {
              "name": "gy_max",
              "type": "int",
              "value": 31
            }
          ]
        },
        {
          "id": 157,
          "name": "Z15 Arcade",
          "type": "zone",
          "x": 704,
          "y": 704,
          "width": 256,
          "height": 320,
          "visible": true,
          "polygon": [
            {
              "x": 0,
              "y": 0
            },
            {
              "x": 256,
              "y": 0
            },
            {
              "x": 256,
              "y": 320
            },
            {
              "x": 0,
              "y": 320
            }
          ],
          "properties": [
            {
              "name": "zone_id",
              "type": "string",
              "value": "Z15"
            },
            {
              "name": "name",
              "type": "string",
              "value": "Arcade"
            },
            {
              "name": "resident",
              "type": "string",
              "value": "Semua"
            },
            {
              "name": "gx_min",
              "type": "int",
              "value": 22
            },
            {
              "name": "gx_max",
              "type": "int",
              "value": 29
            },
            {
              "name": "gy_min",
              "type": "int",
              "value": 22
            },
            {
              "name": "gy_max",
              "type": "int",
              "value": 31
            }
          ]
        },
        {
          "id": 158,
          "name": "Z16 Musholla",
          "type": "zone",
          "x": 960,
          "y": 704,
          "width": 224,
          "height": 320,
          "visible": true,
          "polygon": [
            {
              "x": 0,
              "y": 0
            },
            {
              "x": 224,
              "y": 0
            },
            {
              "x": 224,
              "y": 320
            },
            {
              "x": 0,
              "y": 320
            }
          ],
          "properties": [
            {
              "name": "zone_id",
              "type": "string",
              "value": "Z16"
            },
            {
              "name": "name",
              "type": "string",
              "value": "Musholla"
            },
            {
              "name": "resident",
              "type": "string",
              "value": "Semua"
            },
            {
              "name": "gx_min",
              "type": "int",
              "value": 30
            },
            {
              "name": "gx_max",
              "type": "int",
              "value": 36
            },
            {
              "name": "gy_min",
              "type": "int",
              "value": 22
            },
            {
              "name": "gy_max",
              "type": "int",
              "value": 31
            }
          ]
        },
        {
          "id": 159,
          "name": "Z17 Kolam luar",
          "type": "zone",
          "x": 1184,
          "y": 704,
          "width": 224,
          "height": 320,
          "visible": true,
          "polygon": [
            {
              "x": 0,
              "y": 0
            },
            {
              "x": 224,
              "y": 0
            },
            {
              "x": 224,
              "y": 320
            },
            {
              "x": 0,
              "y": 320
            }
          ],
          "properties": [
            {
              "name": "zone_id",
              "type": "string",
              "value": "Z17"
            },
            {
              "name": "name",
              "type": "string",
              "value": "Kolam luar"
            },
            {
              "name": "resident",
              "type": "string",
              "value": "Semua"
            },
            {
              "name": "gx_min",
              "type": "int",
              "value": 37
            },
            {
              "name": "gx_max",
              "type": "int",
              "value": 43
            },
            {
              "name": "gy_min",
              "type": "int",
              "value": 22
            },
            {
              "name": "gy_max",
              "type": "int",
              "value": 31
            }
          ]
        }
      ],
      "visible": true,
      "opacity": 1.0,
      "x": 0,
      "y": 0,
      "draworder": "topdown"
    }
  ]
}